(G-CODE GENERATED BY FLATCAM v8.994 - www.flatcam.org - Version Date: 2020/11/7)

(Name: Alignment Drills_cnc)
(Type: G-code from Geometry)
(Units: MM)

(Created on Sunday, 08 September 2024 at 10:23)

(This preprocessor is the default preprocessor used by FlatCAM.)
(It is made to work with MACH3 compatible motion controllers.)


(TOOLS DIAMETER: )
(Tool: 1 -> Dia: 2.0)

(FEEDRATE Z: )
(Tool: 1 -> Feedrate: 80.0)

(FEEDRATE RAPIDS: )
(Tool: 1 -> Feedrate Rapids: 1500)

(Z_CUT: )
(Tool: 1 -> Z_Cut: -4.0)

(Tools Offset: )
(Tool: 1 -> Offset Z: 0.0)

(Z_MOVE: )
(Tool: 1 -> Z_Move: 2.0)

(Z Toolchange: 15 mm)
(X,Y Toolchange: 0.0000, 0.0000 mm)
(Z Start: None mm)
(Z End: 0.5 mm)
(X,Y End: None mm)
(Steps per circle: 64)
(Preprocessor Excellon: Default_no_M6)

(X range:    4.0000 ...  106.1000  mm)
(Y range:    4.0000 ...   74.0000  mm)

(Spindle Speed: 1000 RPM)
G21
G90
G94

G01 F80.00

M5
G00 Z15.0000
T1
G00 X0.0000 Y0.0000                
(MSG, Change to Tool Dia = 2.0000 ||| Total drills for tool T1 = 4)
M0
G00 Z15.0000
        
G01 F80.00
M03 S1000
G00 X5.0000 Y5.0000
G01 Z-4.0000
G01 Z0
G00 Z2.0000
G00 X5.0000 Y73.0000
G01 Z-4.0000
G01 Z0
G00 Z2.0000
G00 X105.1000 Y73.0000
G01 Z-4.0000
G01 Z0
G00 Z2.0000
G00 X105.1000 Y5.0000
G01 Z-4.0000
G01 Z0
G00 Z2.0000
M05
G00 Z0.50


