(G-CODE GENERATED BY FLATCAM v8.994 - www.flatcam.org - Version Date: 2020/11/7)

(Name: AT28C64B-circuit-third-sol-B_Cu.gbr_iso_combined_cnc)
(Type: G-code from Geometry)
(Units: MM)

(Created on Sunday, 08 September 2024 at 10:12)


G01 F120.00

M5
G00 Z15.0000
G00 X0.0000 Y0.0000
T2
(MSG, Change to Tool Dia = 0.1268)
M0
G00 Z15.0000
        
M03 S10000.0
G01 F120.00
G00 X16.8679 Y14.0827
G01 F60.00
G01 Z-0.0500
G01 F120.00
G01 X16.8685 Y14.0889
G01 X16.8734 Y14.1900
G01 X16.8683 Y14.2943
G01 X16.8529 Y14.3975
G01 X16.8276 Y14.4987
G01 X16.7924 Y14.5970
G01 X16.7478 Y14.6913
G01 X16.6942 Y14.7808
G01 X16.6320 Y14.8646
G01 X16.5619 Y14.9420
G01 X16.4846 Y15.0120
G01 X16.4008 Y15.0742
G01 X16.3113 Y15.1279
G01 X16.2169 Y15.1725
G01 X16.1187 Y15.2076
G01 X16.0174 Y15.2330
G01 X15.9142 Y15.2483
G01 X15.8100 Y15.2534
G01 X15.7057 Y15.2483
G01 X15.6025 Y15.2330
G01 X15.5013 Y15.2076
G01 X15.4030 Y15.1725
G01 X15.3087 Y15.1279
G01 X15.2192 Y15.0742
G01 X15.1354 Y15.0120
G01 X15.0580 Y14.9420
G01 X14.9880 Y14.8646
G01 X14.9258 Y14.7808
G01 X14.8721 Y14.6913
G01 X14.8275 Y14.5970
G01 X14.7924 Y14.4987
G01 X14.7670 Y14.3975
G01 X14.7517 Y14.2943
G01 X14.7466 Y14.1900
G01 X14.7517 Y14.0858
G01 X14.7670 Y13.9826
G01 X14.7924 Y13.8813
G01 X14.8275 Y13.7831
G01 X14.8721 Y13.6887
G01 X14.9258 Y13.5992
G01 X14.9880 Y13.5154
G01 X15.0580 Y13.4381
G01 X15.1354 Y13.3680
G01 X15.2192 Y13.3058
G01 X15.3087 Y13.2522
G01 X15.4030 Y13.2076
G01 X15.5013 Y13.1724
G01 X15.6025 Y13.1471
G01 X15.7057 Y13.1317
G01 X15.8100 Y13.1266
G01 X15.9142 Y13.1317
G01 X16.0174 Y13.1471
G01 X16.1187 Y13.1724
G01 X16.2169 Y13.2076
G01 X16.3113 Y13.2522
G01 X16.4008 Y13.3058
G01 X16.4846 Y13.3680
G01 X16.5619 Y13.4381
G01 X16.6320 Y13.5154
G01 X16.6942 Y13.5992
G01 X16.7478 Y13.6887
G01 X16.7924 Y13.7831
G01 X16.8276 Y13.8813
G01 X16.8529 Y13.9826
G01 X16.8679 Y14.0827
G00 Z2.0000
G00 X16.8679 Y16.6227
G01 F60.00
G01 Z-0.0500
G01 F120.00
G01 X16.8685 Y16.6289
G01 X16.8734 Y16.7300
G01 X16.8683 Y16.8343
G01 X16.8529 Y16.9375
G01 X16.8276 Y17.0387
G01 X16.7924 Y17.1370
G01 X16.7478 Y17.2313
G01 X16.6942 Y17.3208
G01 X16.6320 Y17.4046
G01 X16.5619 Y17.4820
G01 X16.4846 Y17.5520
G01 X16.4008 Y17.6142
G01 X16.3113 Y17.6679
G01 X16.2169 Y17.7125
G01 X16.1187 Y17.7476
G01 X16.0174 Y17.7730
G01 X15.9142 Y17.7883
G01 X15.8100 Y17.7934
G01 X15.7057 Y17.7883
G01 X15.6025 Y17.7730
G01 X15.5013 Y17.7476
G01 X15.4030 Y17.7125
G01 X15.3087 Y17.6679
G01 X15.2192 Y17.6142
G01 X15.1354 Y17.5520
G01 X15.0580 Y17.4820
G01 X14.9880 Y17.4046
G01 X14.9258 Y17.3208
G01 X14.8721 Y17.2313
G01 X14.8275 Y17.1370
G01 X14.7924 Y17.0387
G01 X14.7670 Y16.9375
G01 X14.7517 Y16.8343
G01 X14.7466 Y16.7300
G01 X14.7517 Y16.6258
G01 X14.7670 Y16.5226
G01 X14.7924 Y16.4213
G01 X14.8275 Y16.3231
G01 X14.8721 Y16.2287
G01 X14.9258 Y16.1392
G01 X14.9880 Y16.0554
G01 X15.0580 Y15.9781
G01 X15.1354 Y15.9080
G01 X15.2192 Y15.8458
G01 X15.3087 Y15.7922
G01 X15.4030 Y15.7476
G01 X15.5013 Y15.7124
G01 X15.6025 Y15.6871
G01 X15.7057 Y15.6717
G01 X15.8100 Y15.6666
G01 X15.9142 Y15.6717
G01 X16.0174 Y15.6871
G01 X16.1187 Y15.7124
G01 X16.2169 Y15.7476
G01 X16.3113 Y15.7922
G01 X16.4008 Y15.8458
G01 X16.4846 Y15.9080
G01 X16.5619 Y15.9781
G01 X16.6320 Y16.0554
G01 X16.6942 Y16.1392
G01 X16.7478 Y16.2287
G01 X16.7924 Y16.3231
G01 X16.8276 Y16.4213
G01 X16.8529 Y16.5226
G01 X16.8679 Y16.6227
G00 Z2.0000
G00 X16.8679 Y19.1627
G01 F60.00
G01 Z-0.0500
G01 F120.00
G01 X16.8685 Y19.1689
G01 X16.8734 Y19.2700
G01 X16.8683 Y19.3743
G01 X16.8529 Y19.4775
G01 X16.8276 Y19.5787
G01 X16.7924 Y19.6770
G01 X16.7478 Y19.7713
G01 X16.6942 Y19.8608
G01 X16.6320 Y19.9446
G01 X16.5619 Y20.0220
G01 X16.4846 Y20.0920
G01 X16.4008 Y20.1542
G01 X16.3113 Y20.2079
G01 X16.2169 Y20.2525
G01 X16.1187 Y20.2876
G01 X16.0174 Y20.3130
G01 X15.9142 Y20.3283
G01 X15.8100 Y20.3334
G01 X15.7057 Y20.3283
G01 X15.6025 Y20.3130
G01 X15.5013 Y20.2876
G01 X15.4030 Y20.2525
G01 X15.3087 Y20.2079
G01 X15.2192 Y20.1542
G01 X15.1354 Y20.0920
G01 X15.0580 Y20.0220
G01 X14.9880 Y19.9446
G01 X14.9258 Y19.8608
G01 X14.8721 Y19.7713
G01 X14.8275 Y19.6770
G01 X14.7924 Y19.5787
G01 X14.7670 Y19.4775
G01 X14.7517 Y19.3743
G01 X14.7466 Y19.2700
G01 X14.7517 Y19.1658
G01 X14.7670 Y19.0626
G01 X14.7924 Y18.9613
G01 X14.8275 Y18.8631
G01 X14.8721 Y18.7687
G01 X14.9258 Y18.6792
G01 X14.9880 Y18.5954
G01 X15.0580 Y18.5181
G01 X15.1354 Y18.4480
G01 X15.2192 Y18.3858
G01 X15.3087 Y18.3322
G01 X15.4030 Y18.2876
G01 X15.5013 Y18.2524
G01 X15.6025 Y18.2271
G01 X15.7057 Y18.2117
G01 X15.8100 Y18.2066
G01 X15.9142 Y18.2117
G01 X16.0174 Y18.2271
G01 X16.1187 Y18.2524
G01 X16.2169 Y18.2876
G01 X16.3113 Y18.3322
G01 X16.4008 Y18.3858
G01 X16.4846 Y18.4480
G01 X16.5619 Y18.5181
G01 X16.6320 Y18.5954
G01 X16.6942 Y18.6792
G01 X16.7478 Y18.7687
G01 X16.7924 Y18.8631
G01 X16.8276 Y18.9613
G01 X16.8529 Y19.0626
G01 X16.8679 Y19.1627
G00 Z2.0000
G00 X16.6773 Y21.1963
G01 F60.00
G01 Z-0.0500
G01 F120.00
G01 X17.2963 Y21.1963
G01 X17.2963 Y12.1847
G01 X17.2990 Y12.1277
G01 X17.2996 Y12.1215
G01 X17.3081 Y12.0650
G01 X17.3219 Y12.0096
G01 X17.3237 Y12.0036
G01 X17.3430 Y11.9499
G01 X17.3695 Y11.8941
G01 X17.3997 Y11.8438
G01 X17.4337 Y11.7979
G01 X17.4376 Y11.7931
G01 X17.4760 Y11.7508
G01 X26.9127 Y2.3141
G01 X26.9574 Y2.2736
G01 X27.0032 Y2.2396
G01 X27.0084 Y2.2361
G01 X27.0574 Y2.2068
G01 X27.1090 Y2.1823
G01 X27.1147 Y2.1799
G01 X27.1671 Y2.1612
G01 X27.2239 Y2.1468
G01 X27.2300 Y2.1456
G01 X27.2865 Y2.1373
G01 X27.3467 Y2.1343
G01 X39.0280 Y2.1343
G01 X39.0881 Y2.1373
G01 X39.1446 Y2.1456
G01 X39.1507 Y2.1468
G01 X39.2076 Y2.1612
G01 X39.2599 Y2.1799
G01 X39.2657 Y2.1823
G01 X39.3173 Y2.2068
G01 X39.3663 Y2.2361
G01 X39.3715 Y2.2396
G01 X39.4173 Y2.2736
G01 X39.4619 Y2.3141
G01 X46.7642 Y9.6163
G01 X47.7427 Y9.6163
G01 X47.7880 Y9.5554
G01 X47.8580 Y9.4781
G01 X47.9354 Y9.4080
G01 X48.0166 Y9.3476
G01 X48.0218 Y9.3442
G01 X48.1060 Y9.2937
G01 X48.1115 Y9.2908
G01 X48.2030 Y9.2476
G01 X48.2998 Y9.2129
G01 X48.4025 Y9.1871
G01 X48.5027 Y9.1721
G01 X48.5088 Y9.1715
G01 X48.6100 Y9.1666
G01 X49.0100 Y9.1666
G01 X49.1142 Y9.1717
G01 X49.2174 Y9.1871
G01 X49.3157 Y9.2116
G01 X49.3216 Y9.2134
G01 X49.4169 Y9.2476
G01 X49.5113 Y9.2922
G01 X49.5981 Y9.3442
G01 X49.6033 Y9.3476
G01 X49.6846 Y9.4080
G01 X49.7597 Y9.4759
G01 X49.7641 Y9.4803
G01 X49.8320 Y9.5554
G01 X49.8942 Y9.6392
G01 X49.9463 Y9.7260
G01 X49.9492 Y9.7315
G01 X49.9924 Y9.8231
G01 X50.0271 Y9.9199
G01 X50.0529 Y10.0226
G01 X50.0683 Y10.1258
G01 X50.0734 Y10.2300
G01 X50.0683 Y10.3343
G01 X50.0529 Y10.4375
G01 X50.0276 Y10.5387
G01 X49.9924 Y10.6370
G01 X49.9492 Y10.7285
G01 X49.9463 Y10.7340
G01 X49.8942 Y10.8208
G01 X49.8339 Y10.9022
G01 X49.8300 Y10.9070
G01 X49.7641 Y10.9797
G01 X49.7597 Y10.9841
G01 X49.6846 Y11.0520
G01 X49.6033 Y11.1124
G01 X49.5981 Y11.1159
G01 X49.5113 Y11.1679
G01 X49.4169 Y11.2125
G01 X49.3187 Y11.2476
G01 X49.2190 Y11.2727
G01 X49.1142 Y11.2883
G01 X49.0115 Y11.2934
G01 X48.6084 Y11.2934
G01 X48.5057 Y11.2883
G01 X48.4056 Y11.2735
G01 X48.3995 Y11.2723
G01 X48.3013 Y11.2476
G01 X48.2030 Y11.2125
G01 X48.1115 Y11.1693
G01 X48.1060 Y11.1663
G01 X48.0218 Y11.1159
G01 X48.0166 Y11.1124
G01 X47.9354 Y11.0520
G01 X47.8580 Y10.9820
G01 X47.7880 Y10.9046
G01 X47.7427 Y10.8437
G01 X46.5069 Y10.8436
G01 X46.4498 Y10.8407
G01 X46.3933 Y10.8324
G01 X46.3872 Y10.8312
G01 X46.3348 Y10.8181
G01 X46.3289 Y10.8163
G01 X46.2751 Y10.7970
G01 X46.2193 Y10.7705
G01 X46.1690 Y10.7403
G01 X46.1231 Y10.7063
G01 X46.1183 Y10.7024
G01 X46.0760 Y10.6640
G01 X38.7738 Y3.3617
G01 X27.6009 Y3.3617
G01 X18.5237 Y12.4389
G01 X18.5237 Y21.8100
G01 X18.5207 Y21.8702
G01 X18.5119 Y21.9297
G01 X18.4972 Y21.9882
G01 X18.4781 Y22.0420
G01 X18.4757 Y22.0477
G01 X18.4512 Y22.0993
G01 X18.4202 Y22.1510
G01 X18.3844 Y22.1993
G01 X18.3461 Y22.2417
G01 X18.3417 Y22.2461
G01 X18.3016 Y22.2824
G01 X18.2968 Y22.2863
G01 X18.2509 Y22.3203
G01 X18.2020 Y22.3497
G01 X18.1965 Y22.3526
G01 X18.1448 Y22.3770
G01 X18.0896 Y22.3968
G01 X18.0327 Y22.4112
G01 X18.0266 Y22.4124
G01 X17.9701 Y22.4207
G01 X17.9115 Y22.4237
G01 X16.6773 Y22.4237
G01 X16.6320 Y22.4846
G01 X16.5641 Y22.5597
G01 X16.5597 Y22.5641
G01 X16.4869 Y22.6300
G01 X16.4821 Y22.6340
G01 X16.4008 Y22.6942
G01 X16.3126 Y22.7471
G01 X16.2169 Y22.7925
G01 X16.1187 Y22.8276
G01 X16.0174 Y22.8530
G01 X15.9142 Y22.8683
G01 X15.8131 Y22.8733
G01 X15.8069 Y22.8733
G01 X15.7057 Y22.8683
G01 X15.6056 Y22.8535
G01 X15.5995 Y22.8523
G01 X15.5013 Y22.8276
G01 X15.4059 Y22.7936
G01 X15.4002 Y22.7912
G01 X15.3087 Y22.7479
G01 X15.2218 Y22.6959
G01 X15.2166 Y22.6924
G01 X15.1354 Y22.6320
G01 X15.0603 Y22.5641
G01 X15.0559 Y22.5597
G01 X14.9880 Y22.4846
G01 X14.9267 Y22.4021
G01 X14.8721 Y22.3113
G01 X14.8275 Y22.2170
G01 X14.7924 Y22.1187
G01 X14.7670 Y22.0175
G01 X14.7517 Y21.9143
G01 X14.7466 Y21.8100
G01 X14.7517 Y21.7058
G01 X14.7670 Y21.6026
G01 X14.7924 Y21.5013
G01 X14.8275 Y21.4031
G01 X14.8721 Y21.3087
G01 X14.9258 Y21.2192
G01 X14.9880 Y21.1354
G01 X15.0580 Y21.0581
G01 X15.1354 Y20.9880
G01 X15.2179 Y20.9267
G01 X15.3087 Y20.8722
G01 X15.4030 Y20.8276
G01 X15.5013 Y20.7924
G01 X15.6025 Y20.7671
G01 X15.7057 Y20.7517
G01 X15.8100 Y20.7466
G01 X15.9142 Y20.7517
G01 X16.0159 Y20.7668
G01 X16.1187 Y20.7924
G01 X16.2169 Y20.8276
G01 X16.3113 Y20.8722
G01 X16.3995 Y20.9250
G01 X16.4846 Y20.9880
G01 X16.5619 Y21.0581
G01 X16.6320 Y21.1354
G01 X16.6773 Y21.1963
G00 Z2.0000
G00 X16.6773 Y23.7363
G01 F60.00
G01 Z-0.0500
G01 F120.00
G01 X17.6558 Y23.7363
G01 X20.0922 Y21.2999
G01 X20.0922 Y11.3733
G01 X20.0949 Y11.3163
G01 X20.0955 Y11.3101
G01 X20.1040 Y11.2536
G01 X20.1178 Y11.1982
G01 X20.1196 Y11.1922
G01 X20.1389 Y11.1385
G01 X20.1647 Y11.0840
G01 X20.1956 Y11.0324
G01 X20.2296 Y10.9865
G01 X20.2335 Y10.9817
G01 X20.2719 Y10.9394
G01 X27.4955 Y3.7158
G01 X27.5402 Y3.6753
G01 X27.5860 Y3.6413
G01 X27.5912 Y3.6378
G01 X27.6402 Y3.6085
G01 X27.6918 Y3.5840
G01 X27.6975 Y3.5816
G01 X27.7499 Y3.5629
G01 X27.8067 Y3.5485
G01 X27.8128 Y3.5473
G01 X27.8693 Y3.5390
G01 X27.9295 Y3.5360
G01 X37.8897 Y3.5360
G01 X37.9498 Y3.5390
G01 X38.0094 Y3.5478
G01 X38.0678 Y3.5625
G01 X38.1231 Y3.5822
G01 X38.1790 Y3.6085
G01 X38.2306 Y3.6395
G01 X38.2790 Y3.6753
G01 X38.3236 Y3.7158
G01 X46.7642 Y12.1563
G01 X47.7427 Y12.1563
G01 X47.7880 Y12.0954
G01 X47.8580 Y12.0181
G01 X47.9354 Y11.9480
G01 X48.0166 Y11.8876
G01 X48.0218 Y11.8842
G01 X48.1060 Y11.8337
G01 X48.1115 Y11.8308
G01 X48.2030 Y11.7876
G01 X48.2998 Y11.7529
G01 X48.4025 Y11.7271
G01 X48.5027 Y11.7121
G01 X48.5088 Y11.7115
G01 X48.6100 Y11.7066
G01 X49.0100 Y11.7066
G01 X49.1142 Y11.7117
G01 X49.2174 Y11.7271
G01 X49.3157 Y11.7516
G01 X49.3216 Y11.7534
G01 X49.4169 Y11.7876
G01 X49.5113 Y11.8322
G01 X49.5981 Y11.8842
G01 X49.6033 Y11.8876
G01 X49.6846 Y11.9480
G01 X49.7597 Y12.0159
G01 X49.7641 Y12.0203
G01 X49.8320 Y12.0954
G01 X49.8942 Y12.1792
G01 X49.9463 Y12.2660
G01 X49.9492 Y12.2715
G01 X49.9924 Y12.3631
G01 X50.0271 Y12.4599
G01 X50.0529 Y12.5626
G01 X50.0683 Y12.6658
G01 X50.0734 Y12.7700
G01 X50.0683 Y12.8743
G01 X50.0529 Y12.9775
G01 X50.0276 Y13.0787
G01 X49.9924 Y13.1770
G01 X49.9492 Y13.2685
G01 X49.9463 Y13.2740
G01 X49.8942 Y13.3608
G01 X49.8339 Y13.4422
G01 X49.8300 Y13.4470
G01 X49.7641 Y13.5197
G01 X49.7597 Y13.5241
G01 X49.6846 Y13.5920
G01 X49.6033 Y13.6524
G01 X49.5981 Y13.6559
G01 X49.5113 Y13.7079
G01 X49.4169 Y13.7525
G01 X49.3187 Y13.7876
G01 X49.2190 Y13.8127
G01 X49.1142 Y13.8283
G01 X49.0115 Y13.8334
G01 X48.6084 Y13.8334
G01 X48.5057 Y13.8283
G01 X48.4056 Y13.8135
G01 X48.3995 Y13.8123
G01 X48.3013 Y13.7876
G01 X48.2030 Y13.7525
G01 X48.1115 Y13.7093
G01 X48.1060 Y13.7063
G01 X48.0218 Y13.6559
G01 X48.0166 Y13.6524
G01 X47.9354 Y13.5920
G01 X47.8580 Y13.5220
G01 X47.7880 Y13.4446
G01 X47.7427 Y13.3837
G01 X46.5100 Y13.3837
G01 X46.4514 Y13.3809
G01 X46.3903 Y13.3719
G01 X46.3348 Y13.3581
G01 X46.3289 Y13.3563
G01 X46.2751 Y13.3370
G01 X46.2235 Y13.3126
G01 X46.2180 Y13.3097
G01 X46.1703 Y13.2811
G01 X46.1207 Y13.2444
G01 X46.0760 Y13.2040
G01 X37.6355 Y4.7634
G01 X28.1837 Y4.7634
G01 X21.3196 Y11.6275
G01 X21.3196 Y21.5541
G01 X21.3166 Y21.6143
G01 X21.3083 Y21.6708
G01 X21.3071 Y21.6769
G01 X21.2931 Y21.7323
G01 X21.2740 Y21.7861
G01 X21.2716 Y21.7918
G01 X21.2471 Y21.8434
G01 X21.2178 Y21.8924
G01 X21.2143 Y21.8976
G01 X21.1803 Y21.9434
G01 X21.1398 Y21.9881
G01 X18.3439 Y24.7840
G01 X18.2993 Y24.8244
G01 X18.2535 Y24.8585
G01 X18.2483 Y24.8619
G01 X18.2020 Y24.8897
G01 X18.1965 Y24.8926
G01 X18.1448 Y24.9170
G01 X18.0911 Y24.9363
G01 X18.0851 Y24.9381
G01 X18.0327 Y24.9512
G01 X18.0266 Y24.9524
G01 X17.9701 Y24.9607
G01 X17.9131 Y24.9636
G01 X16.6773 Y24.9637
G01 X16.6320 Y25.0246
G01 X16.5641 Y25.0997
G01 X16.5597 Y25.1041
G01 X16.4869 Y25.1700
G01 X16.4821 Y25.1740
G01 X16.4008 Y25.2342
G01 X16.3113 Y25.2879
G01 X16.2169 Y25.3325
G01 X16.1216 Y25.3667
G01 X16.1157 Y25.3685
G01 X16.0174 Y25.3930
G01 X15.9173 Y25.4079
G01 X15.9111 Y25.4085
G01 X15.8115 Y25.4134
G01 X15.7057 Y25.4083
G01 X15.6056 Y25.3935
G01 X15.5995 Y25.3923
G01 X15.5013 Y25.3676
G01 X15.4059 Y25.3336
G01 X15.4002 Y25.3312
G01 X15.3087 Y25.2879
G01 X15.2192 Y25.2342
G01 X15.1378 Y25.1740
G01 X15.1330 Y25.1700
G01 X15.0580 Y25.1020
G01 X14.9900 Y25.0270
G01 X14.9860 Y25.0222
G01 X14.9267 Y24.9421
G01 X14.8721 Y24.8513
G01 X14.8275 Y24.7570
G01 X14.7924 Y24.6587
G01 X14.7670 Y24.5575
G01 X14.7517 Y24.4543
G01 X14.7466 Y24.3500
G01 X14.7517 Y24.2458
G01 X14.7670 Y24.1426
G01 X14.7924 Y24.0413
G01 X14.8275 Y23.9431
G01 X14.8721 Y23.8487
G01 X14.9258 Y23.7592
G01 X14.9880 Y23.6754
G01 X15.0580 Y23.5981
G01 X15.1354 Y23.5280
G01 X15.2179 Y23.4667
G01 X15.3087 Y23.4122
G01 X15.4030 Y23.3676
G01 X15.5013 Y23.3324
G01 X15.6025 Y23.3071
G01 X15.7057 Y23.2917
G01 X15.8100 Y23.2866
G01 X15.9142 Y23.2917
G01 X16.0159 Y23.3068
G01 X16.1187 Y23.3324
G01 X16.2169 Y23.3676
G01 X16.3113 Y23.4122
G01 X16.3995 Y23.4650
G01 X16.4846 Y23.5280
G01 X16.5619 Y23.5981
G01 X16.6320 Y23.6754
G01 X16.6773 Y23.7363
G00 Z2.0000
G00 X16.6773 Y26.2763
G01 F60.00
G01 Z-0.0500
G01 F120.00
G01 X17.6558 Y26.2763
G01 X23.0182 Y20.9139
G01 X23.0182 Y10.4307
G01 X23.0212 Y10.3706
G01 X23.0295 Y10.3141
G01 X23.0307 Y10.3080
G01 X23.0451 Y10.2511
G01 X23.0638 Y10.1988
G01 X23.0662 Y10.1930
G01 X23.0907 Y10.1414
G01 X23.1200 Y10.0924
G01 X23.1234 Y10.0872
G01 X23.1575 Y10.0414
G01 X23.1979 Y9.9968
G01 X28.0757 Y5.1190
G01 X28.1204 Y5.0785
G01 X28.1662 Y5.0445
G01 X28.1714 Y5.0410
G01 X28.2204 Y5.0117
G01 X28.2720 Y4.9872
G01 X28.2777 Y4.9848
G01 X28.3301 Y4.9661
G01 X28.3869 Y4.9517
G01 X28.3930 Y4.9505
G01 X28.4495 Y4.9422
G01 X28.5097 Y4.9392
G01 X36.7529 Y4.9392
G01 X36.8130 Y4.9422
G01 X36.8726 Y4.9510
G01 X36.9310 Y4.9657
G01 X36.9848 Y4.9848
G01 X36.9906 Y4.9872
G01 X37.0422 Y5.0117
G01 X37.0938 Y5.0427
G01 X37.1422 Y5.0785
G01 X37.1868 Y5.1190
G01 X46.7642 Y14.6963
G01 X47.7427 Y14.6963
G01 X47.7880 Y14.6354
G01 X47.8580 Y14.5581
G01 X47.9354 Y14.4880
G01 X48.0166 Y14.4276
G01 X48.0218 Y14.4242
G01 X48.1060 Y14.3737
G01 X48.1115 Y14.3708
G01 X48.2030 Y14.3276
G01 X48.2998 Y14.2929
G01 X48.4025 Y14.2671
G01 X48.5027 Y14.2521
G01 X48.5088 Y14.2515
G01 X48.6100 Y14.2466
G01 X49.0100 Y14.2466
G01 X49.1142 Y14.2517
G01 X49.2174 Y14.2671
G01 X49.3157 Y14.2916
G01 X49.3216 Y14.2934
G01 X49.4169 Y14.3276
G01 X49.5113 Y14.3722
G01 X49.5981 Y14.4242
G01 X49.6033 Y14.4276
G01 X49.6846 Y14.4880
G01 X49.7597 Y14.5559
G01 X49.7641 Y14.5603
G01 X49.8320 Y14.6354
G01 X49.8942 Y14.7192
G01 X49.9463 Y14.8060
G01 X49.9492 Y14.8115
G01 X49.9924 Y14.9031
G01 X50.0271 Y14.9999
G01 X50.0529 Y15.1026
G01 X50.0683 Y15.2058
G01 X50.0734 Y15.3100
G01 X50.0683 Y15.4143
G01 X50.0529 Y15.5175
G01 X50.0276 Y15.6187
G01 X49.9924 Y15.7170
G01 X49.9492 Y15.8085
G01 X49.9463 Y15.8140
G01 X49.8942 Y15.9008
G01 X49.8339 Y15.9822
G01 X49.8300 Y15.9870
G01 X49.7641 Y16.0597
G01 X49.7597 Y16.0641
G01 X49.6846 Y16.1320
G01 X49.6033 Y16.1924
G01 X49.5981 Y16.1959
G01 X49.5113 Y16.2479
G01 X49.4169 Y16.2925
G01 X49.3187 Y16.3276
G01 X49.2190 Y16.3527
G01 X49.1142 Y16.3683
G01 X49.0115 Y16.3734
G01 X48.6084 Y16.3734
G01 X48.5057 Y16.3683
G01 X48.4056 Y16.3535
G01 X48.3995 Y16.3523
G01 X48.3013 Y16.3276
G01 X48.2030 Y16.2925
G01 X48.1115 Y16.2493
G01 X48.1060 Y16.2463
G01 X48.0218 Y16.1959
G01 X48.0166 Y16.1924
G01 X47.9354 Y16.1320
G01 X47.8580 Y16.0620
G01 X47.7880 Y15.9846
G01 X47.7427 Y15.9237
G01 X46.5100 Y15.9237
G01 X46.4514 Y15.9209
G01 X46.3903 Y15.9119
G01 X46.3348 Y15.8981
G01 X46.3289 Y15.8963
G01 X46.2751 Y15.8770
G01 X46.2235 Y15.8526
G01 X46.2180 Y15.8497
G01 X46.1690 Y15.8203
G01 X46.1207 Y15.7844
G01 X46.0760 Y15.7440
G01 X36.4987 Y6.1666
G01 X28.7639 Y6.1666
G01 X24.2456 Y10.6849
G01 X24.2456 Y21.1681
G01 X24.2426 Y21.2283
G01 X24.2343 Y21.2848
G01 X24.2331 Y21.2909
G01 X24.2191 Y21.3463
G01 X24.2000 Y21.4001
G01 X24.1976 Y21.4058
G01 X24.1731 Y21.4574
G01 X24.1438 Y21.5064
G01 X24.1403 Y21.5116
G01 X24.1063 Y21.5574
G01 X24.0658 Y21.6021
G01 X18.3439 Y27.3240
G01 X18.2993 Y27.3644
G01 X18.2496 Y27.4011
G01 X18.2020 Y27.4297
G01 X18.1965 Y27.4326
G01 X18.1448 Y27.4570
G01 X18.0911 Y27.4763
G01 X18.0851 Y27.4781
G01 X18.0297 Y27.4919
G01 X17.9686 Y27.5009
G01 X17.9100 Y27.5037
G01 X16.6773 Y27.5037
G01 X16.6320 Y27.5646
G01 X16.5641 Y27.6397
G01 X16.5597 Y27.6441
G01 X16.4869 Y27.7100
G01 X16.4821 Y27.7140
G01 X16.4008 Y27.7742
G01 X16.3113 Y27.8279
G01 X16.2169 Y27.8725
G01 X16.1216 Y27.9067
G01 X16.1157 Y27.9085
G01 X16.0174 Y27.9330
G01 X15.9173 Y27.9479
G01 X15.9111 Y27.9485
G01 X15.8115 Y27.9534
G01 X15.7057 Y27.9483
G01 X15.6056 Y27.9335
G01 X15.5995 Y27.9323
G01 X15.5013 Y27.9076
G01 X15.4059 Y27.8736
G01 X15.4002 Y27.8712
G01 X15.3087 Y27.8279
G01 X15.2192 Y27.7742
G01 X15.1378 Y27.7140
G01 X15.1330 Y27.7100
G01 X15.0580 Y27.6420
G01 X14.9900 Y27.5670
G01 X14.9860 Y27.5622
G01 X14.9267 Y27.4821
G01 X14.8721 Y27.3913
G01 X14.8275 Y27.2970
G01 X14.7924 Y27.1987
G01 X14.7670 Y27.0975
G01 X14.7517 Y26.9943
G01 X14.7466 Y26.8900
G01 X14.7517 Y26.7858
G01 X14.7670 Y26.6826
G01 X14.7924 Y26.5813
G01 X14.8275 Y26.4831
G01 X14.8721 Y26.3887
G01 X14.9258 Y26.2992
G01 X14.9880 Y26.2154
G01 X15.0580 Y26.1381
G01 X15.1354 Y26.0680
G01 X15.2179 Y26.0067
G01 X15.3087 Y25.9522
G01 X15.4030 Y25.9076
G01 X15.5013 Y25.8724
G01 X15.6025 Y25.8471
G01 X15.7057 Y25.8317
G01 X15.8100 Y25.8266
G01 X15.9142 Y25.8317
G01 X16.0159 Y25.8468
G01 X16.1187 Y25.8724
G01 X16.2169 Y25.9076
G01 X16.3113 Y25.9522
G01 X16.3995 Y26.0050
G01 X16.4846 Y26.0680
G01 X16.5619 Y26.1381
G01 X16.6320 Y26.2154
G01 X16.6773 Y26.2763
G00 Z2.0000
G00 X16.6773 Y28.8163
G01 F60.00
G01 Z-0.0500
G01 F120.00
G01 X17.6558 Y28.8163
G01 X25.5328 Y20.9393
G01 X25.5328 Y9.9018
G01 X25.5358 Y9.8417
G01 X25.5449 Y9.7806
G01 X25.5592 Y9.7237
G01 X25.5784 Y9.6699
G01 X25.5808 Y9.6641
G01 X25.6053 Y9.6125
G01 X25.6362 Y9.5609
G01 X25.6702 Y9.5150
G01 X25.6741 Y9.5102
G01 X25.7125 Y9.4679
G01 X28.6594 Y6.5211
G01 X28.7005 Y6.4838
G01 X28.7053 Y6.4798
G01 X28.7512 Y6.4459
G01 X28.8002 Y6.4164
G01 X28.8057 Y6.4135
G01 X28.8573 Y6.3892
G01 X28.9126 Y6.3693
G01 X28.9694 Y6.3549
G01 X28.9755 Y6.3537
G01 X29.0320 Y6.3454
G01 X29.0922 Y6.3424
G01 X36.0002 Y6.3424
G01 X36.0572 Y6.3452
G01 X36.0634 Y6.3458
G01 X36.1199 Y6.3542
G01 X36.1753 Y6.3680
G01 X36.1813 Y6.3699
G01 X36.2350 Y6.3892
G01 X36.2895 Y6.4149
G01 X36.3411 Y6.4459
G01 X36.3870 Y6.4798
G01 X36.3918 Y6.4838
G01 X36.4341 Y6.5222
G01 X46.9439 Y17.0320
G01 X46.9844 Y17.0766
G01 X47.0202 Y17.1250
G01 X47.0512 Y17.1766
G01 X47.0757 Y17.2282
G01 X47.0789 Y17.2363
G01 X47.7427 Y17.2363
G01 X47.7880 Y17.1754
G01 X47.8580 Y17.0981
G01 X47.9354 Y17.0280
G01 X48.0166 Y16.9676
G01 X48.0218 Y16.9642
G01 X48.1060 Y16.9137
G01 X48.1115 Y16.9108
G01 X48.2030 Y16.8676
G01 X48.2998 Y16.8329
G01 X48.4025 Y16.8071
G01 X48.5027 Y16.7921
G01 X48.5088 Y16.7915
G01 X48.6100 Y16.7866
G01 X49.0100 Y16.7866
G01 X49.1142 Y16.7917
G01 X49.2174 Y16.8071
G01 X49.3157 Y16.8316
G01 X49.3216 Y16.8334
G01 X49.4169 Y16.8676
G01 X49.5113 Y16.9122
G01 X49.5981 Y16.9642
G01 X49.6033 Y16.9676
G01 X49.6846 Y17.0280
G01 X49.7597 Y17.0959
G01 X49.7641 Y17.1003
G01 X49.8320 Y17.1754
G01 X49.8942 Y17.2592
G01 X49.9463 Y17.3460
G01 X49.9492 Y17.3515
G01 X49.9924 Y17.4431
G01 X50.0271 Y17.5399
G01 X50.0529 Y17.6426
G01 X50.0683 Y17.7458
G01 X50.0734 Y17.8500
G01 X50.0683 Y17.9543
G01 X50.0529 Y18.0575
G01 X50.0276 Y18.1587
G01 X49.9924 Y18.2570
G01 X49.9492 Y18.3485
G01 X49.9463 Y18.3540
G01 X49.8942 Y18.4408
G01 X49.8339 Y18.5222
G01 X49.8300 Y18.5270
G01 X49.7641 Y18.5997
G01 X49.7597 Y18.6041
G01 X49.6846 Y18.6720
G01 X49.6033 Y18.7324
G01 X49.5981 Y18.7359
G01 X49.5113 Y18.7879
G01 X49.4169 Y18.8325
G01 X49.3187 Y18.8676
G01 X49.2190 Y18.8927
G01 X49.1142 Y18.9083
G01 X49.0115 Y18.9134
G01 X48.6084 Y18.9134
G01 X48.5057 Y18.9083
G01 X48.4056 Y18.8935
G01 X48.3995 Y18.8923
G01 X48.3013 Y18.8676
G01 X48.2030 Y18.8325
G01 X48.1115 Y18.7893
G01 X48.1060 Y18.7863
G01 X48.0218 Y18.7359
G01 X48.0166 Y18.7324
G01 X47.9354 Y18.6720
G01 X47.8580 Y18.6020
G01 X47.7880 Y18.5246
G01 X47.7427 Y18.4637
G01 X46.5100 Y18.4637
G01 X46.4514 Y18.4609
G01 X46.3903 Y18.4519
G01 X46.3348 Y18.4381
G01 X46.3289 Y18.4363
G01 X46.2751 Y18.4170
G01 X46.2235 Y18.3926
G01 X46.2180 Y18.3897
G01 X46.1678 Y18.3594
G01 X46.1207 Y18.3244
G01 X46.0783 Y18.2861
G01 X46.0739 Y18.2817
G01 X46.0356 Y18.2393
G01 X45.9997 Y18.1910
G01 X45.9703 Y18.1420
G01 X45.9674 Y18.1365
G01 X45.9430 Y18.0849
G01 X45.9237 Y18.0311
G01 X45.9219 Y18.0252
G01 X45.9081 Y17.9697
G01 X45.8994 Y17.9117
G01 X45.8963 Y17.8516
G01 X45.8963 Y17.7201
G01 X35.7460 Y7.5698
G01 X29.3464 Y7.5698
G01 X26.7602 Y10.1560
G01 X26.7602 Y21.1935
G01 X26.7574 Y21.2506
G01 X26.7568 Y21.2568
G01 X26.7484 Y21.3132
G01 X26.7346 Y21.3687
G01 X26.7327 Y21.3746
G01 X26.7134 Y21.4284
G01 X26.6891 Y21.4800
G01 X26.6862 Y21.4855
G01 X26.6567 Y21.5345
G01 X26.6228 Y21.5804
G01 X26.6188 Y21.5852
G01 X26.5804 Y21.6275
G01 X18.3439 Y29.8640
G01 X18.2993 Y29.9044
G01 X18.2535 Y29.9385
G01 X18.2483 Y29.9419
G01 X18.1993 Y29.9712
G01 X18.1477 Y29.9957
G01 X18.1419 Y29.9981
G01 X18.0881 Y30.0173
G01 X18.0327 Y30.0312
G01 X18.0266 Y30.0324
G01 X17.9686 Y30.0409
G01 X17.9100 Y30.0437
G01 X16.6773 Y30.0437
G01 X16.6320 Y30.1046
G01 X16.5641 Y30.1797
G01 X16.5597 Y30.1841
G01 X16.4869 Y30.2500
G01 X16.4821 Y30.2540
G01 X16.4008 Y30.3142
G01 X16.3113 Y30.3679
G01 X16.2169 Y30.4125
G01 X16.1216 Y30.4467
G01 X16.1157 Y30.4485
G01 X16.0174 Y30.4730
G01 X15.9173 Y30.4879
G01 X15.9111 Y30.4885
G01 X15.8115 Y30.4934
G01 X15.7057 Y30.4883
G01 X15.6056 Y30.4735
G01 X15.5995 Y30.4723
G01 X15.5013 Y30.4476
G01 X15.4059 Y30.4136
G01 X15.4002 Y30.4112
G01 X15.3087 Y30.3679
G01 X15.2192 Y30.3142
G01 X15.1378 Y30.2540
G01 X15.1330 Y30.2500
G01 X15.0580 Y30.1820
G01 X14.9900 Y30.1070
G01 X14.9860 Y30.1022
G01 X14.9267 Y30.0221
G01 X14.8721 Y29.9313
G01 X14.8275 Y29.8370
G01 X14.7924 Y29.7387
G01 X14.7670 Y29.6375
G01 X14.7517 Y29.5343
G01 X14.7466 Y29.4300
G01 X14.7517 Y29.3258
G01 X14.7670 Y29.2226
G01 X14.7924 Y29.1213
G01 X14.8275 Y29.0231
G01 X14.8721 Y28.9287
G01 X14.9258 Y28.8392
G01 X14.9880 Y28.7554
G01 X15.0580 Y28.6781
G01 X15.1354 Y28.6080
G01 X15.2179 Y28.5467
G01 X15.3087 Y28.4922
G01 X15.4030 Y28.4476
G01 X15.5013 Y28.4124
G01 X15.6025 Y28.3871
G01 X15.7057 Y28.3717
G01 X15.8100 Y28.3666
G01 X15.9142 Y28.3717
G01 X16.0159 Y28.3868
G01 X16.1187 Y28.4124
G01 X16.2169 Y28.4476
G01 X16.3113 Y28.4922
G01 X16.3995 Y28.5450
G01 X16.4846 Y28.6080
G01 X16.5619 Y28.6781
G01 X16.6320 Y28.7554
G01 X16.6773 Y28.8163
G00 Z2.0000
G00 X16.8679 Y31.8627
G01 F60.00
G01 Z-0.0500
G01 F120.00
G01 X16.8685 Y31.8689
G01 X16.8734 Y31.9700
G01 X16.8683 Y32.0743
G01 X16.8529 Y32.1775
G01 X16.8276 Y32.2787
G01 X16.7924 Y32.3770
G01 X16.7478 Y32.4713
G01 X16.6942 Y32.5608
G01 X16.6320 Y32.6446
G01 X16.5619 Y32.7220
G01 X16.4846 Y32.7920
G01 X16.4008 Y32.8542
G01 X16.3113 Y32.9079
G01 X16.2169 Y32.9525
G01 X16.1187 Y32.9876
G01 X16.0174 Y33.0130
G01 X15.9142 Y33.0283
G01 X15.8100 Y33.0334
G01 X15.7057 Y33.0283
G01 X15.6025 Y33.0130
G01 X15.5013 Y32.9876
G01 X15.4030 Y32.9525
G01 X15.3087 Y32.9079
G01 X15.2192 Y32.8542
G01 X15.1354 Y32.7920
G01 X15.0580 Y32.7220
G01 X14.9880 Y32.6446
G01 X14.9258 Y32.5608
G01 X14.8721 Y32.4713
G01 X14.8275 Y32.3770
G01 X14.7924 Y32.2787
G01 X14.7670 Y32.1775
G01 X14.7517 Y32.0743
G01 X14.7466 Y31.9700
G01 X14.7517 Y31.8658
G01 X14.7670 Y31.7626
G01 X14.7924 Y31.6613
G01 X14.8275 Y31.5631
G01 X14.8721 Y31.4687
G01 X14.9258 Y31.3792
G01 X14.9880 Y31.2954
G01 X15.0580 Y31.2181
G01 X15.1354 Y31.1480
G01 X15.2192 Y31.0858
G01 X15.3087 Y31.0322
G01 X15.4030 Y30.9876
G01 X15.5013 Y30.9524
G01 X15.6025 Y30.9271
G01 X15.7057 Y30.9117
G01 X15.8100 Y30.9066
G01 X15.9142 Y30.9117
G01 X16.0174 Y30.9271
G01 X16.1187 Y30.9524
G01 X16.2169 Y30.9876
G01 X16.3113 Y31.0322
G01 X16.4008 Y31.0858
G01 X16.4846 Y31.1480
G01 X16.5619 Y31.2181
G01 X16.6320 Y31.2954
G01 X16.6942 Y31.3792
G01 X16.7478 Y31.4687
G01 X16.7924 Y31.5631
G01 X16.8276 Y31.6613
G01 X16.8529 Y31.7626
G01 X16.8679 Y31.8627
G00 Z2.0000
G00 X16.8679 Y34.4027
G01 F60.00
G01 Z-0.0500
G01 F120.00
G01 X16.8685 Y34.4089
G01 X16.8734 Y34.5100
G01 X16.8683 Y34.6143
G01 X16.8529 Y34.7175
G01 X16.8276 Y34.8187
G01 X16.7924 Y34.9170
G01 X16.7478 Y35.0113
G01 X16.6942 Y35.1008
G01 X16.6320 Y35.1846
G01 X16.5619 Y35.2620
G01 X16.4846 Y35.3320
G01 X16.4008 Y35.3942
G01 X16.3113 Y35.4479
G01 X16.2169 Y35.4925
G01 X16.1187 Y35.5276
G01 X16.0174 Y35.5530
G01 X15.9142 Y35.5683
G01 X15.8100 Y35.5734
G01 X15.7057 Y35.5683
G01 X15.6025 Y35.5530
G01 X15.5013 Y35.5276
G01 X15.4030 Y35.4925
G01 X15.3087 Y35.4479
G01 X15.2192 Y35.3942
G01 X15.1354 Y35.3320
G01 X15.0580 Y35.2620
G01 X14.9880 Y35.1846
G01 X14.9258 Y35.1008
G01 X14.8721 Y35.0113
G01 X14.8275 Y34.9170
G01 X14.7924 Y34.8187
G01 X14.7670 Y34.7175
G01 X14.7517 Y34.6143
G01 X14.7466 Y34.5100
G01 X14.7517 Y34.4058
G01 X14.7670 Y34.3026
G01 X14.7924 Y34.2013
G01 X14.8275 Y34.1031
G01 X14.8721 Y34.0087
G01 X14.9258 Y33.9192
G01 X14.9880 Y33.8354
G01 X15.0580 Y33.7581
G01 X15.1354 Y33.6880
G01 X15.2192 Y33.6258
G01 X15.3087 Y33.5722
G01 X15.4030 Y33.5276
G01 X15.5013 Y33.4924
G01 X15.6025 Y33.4671
G01 X15.7057 Y33.4517
G01 X15.8100 Y33.4466
G01 X15.9142 Y33.4517
G01 X16.0174 Y33.4671
G01 X16.1187 Y33.4924
G01 X16.2169 Y33.5276
G01 X16.3113 Y33.5722
G01 X16.4008 Y33.6258
G01 X16.4846 Y33.6880
G01 X16.5619 Y33.7581
G01 X16.6320 Y33.8354
G01 X16.6942 Y33.9192
G01 X16.7478 Y34.0087
G01 X16.7924 Y34.1031
G01 X16.8276 Y34.2013
G01 X16.8529 Y34.3026
G01 X16.8679 Y34.4027
G00 Z2.0000
G00 X16.8679 Y36.9427
G01 F60.00
G01 Z-0.0500
G01 F120.00
G01 X16.8685 Y36.9489
G01 X16.8734 Y37.0500
G01 X16.8683 Y37.1543
G01 X16.8529 Y37.2575
G01 X16.8276 Y37.3587
G01 X16.7924 Y37.4570
G01 X16.7478 Y37.5513
G01 X16.6942 Y37.6408
G01 X16.6320 Y37.7246
G01 X16.5619 Y37.8020
G01 X16.4846 Y37.8720
G01 X16.4008 Y37.9342
G01 X16.3113 Y37.9879
G01 X16.2169 Y38.0325
G01 X16.1187 Y38.0676
G01 X16.0174 Y38.0930
G01 X15.9142 Y38.1083
G01 X15.8100 Y38.1134
G01 X15.7057 Y38.1083
G01 X15.6025 Y38.0930
G01 X15.5013 Y38.0676
G01 X15.4030 Y38.0325
G01 X15.3087 Y37.9879
G01 X15.2192 Y37.9342
G01 X15.1354 Y37.8720
G01 X15.0580 Y37.8020
G01 X14.9880 Y37.7246
G01 X14.9258 Y37.6408
G01 X14.8721 Y37.5513
G01 X14.8275 Y37.4570
G01 X14.7924 Y37.3587
G01 X14.7670 Y37.2575
G01 X14.7517 Y37.1543
G01 X14.7466 Y37.0500
G01 X14.7517 Y36.9458
G01 X14.7670 Y36.8426
G01 X14.7924 Y36.7413
G01 X14.8275 Y36.6431
G01 X14.8721 Y36.5487
G01 X14.9258 Y36.4592
G01 X14.9880 Y36.3754
G01 X15.0580 Y36.2981
G01 X15.1354 Y36.2280
G01 X15.2192 Y36.1658
G01 X15.3087 Y36.1122
G01 X15.4030 Y36.0676
G01 X15.5013 Y36.0324
G01 X15.6025 Y36.0071
G01 X15.7057 Y35.9917
G01 X15.8100 Y35.9866
G01 X15.9142 Y35.9917
G01 X16.0174 Y36.0071
G01 X16.1187 Y36.0324
G01 X16.2169 Y36.0676
G01 X16.3113 Y36.1122
G01 X16.4008 Y36.1658
G01 X16.4846 Y36.2280
G01 X16.5619 Y36.2981
G01 X16.6320 Y36.3754
G01 X16.6942 Y36.4592
G01 X16.7478 Y36.5487
G01 X16.7924 Y36.6431
G01 X16.8276 Y36.7413
G01 X16.8529 Y36.8426
G01 X16.8679 Y36.9427
G00 Z2.0000
G00 X16.8679 Y42.0227
G01 F60.00
G01 Z-0.0500
G01 F120.00
G01 X16.8685 Y42.0289
G01 X16.8734 Y42.1300
G01 X16.8683 Y42.2343
G01 X16.8529 Y42.3375
G01 X16.8276 Y42.4387
G01 X16.7924 Y42.5370
G01 X16.7478 Y42.6313
G01 X16.6942 Y42.7208
G01 X16.6320 Y42.8046
G01 X16.5619 Y42.8820
G01 X16.4846 Y42.9520
G01 X16.4008 Y43.0142
G01 X16.3113 Y43.0679
G01 X16.2169 Y43.1125
G01 X16.1187 Y43.1476
G01 X16.0174 Y43.1730
G01 X15.9142 Y43.1883
G01 X15.8100 Y43.1934
G01 X15.7057 Y43.1883
G01 X15.6025 Y43.1730
G01 X15.5013 Y43.1476
G01 X15.4030 Y43.1125
G01 X15.3087 Y43.0679
G01 X15.2192 Y43.0142
G01 X15.1354 Y42.9520
G01 X15.0580 Y42.8820
G01 X14.9880 Y42.8046
G01 X14.9258 Y42.7208
G01 X14.8721 Y42.6313
G01 X14.8275 Y42.5370
G01 X14.7924 Y42.4387
G01 X14.7670 Y42.3375
G01 X14.7517 Y42.2343
G01 X14.7466 Y42.1300
G01 X14.7517 Y42.0258
G01 X14.7670 Y41.9226
G01 X14.7924 Y41.8213
G01 X14.8275 Y41.7231
G01 X14.8721 Y41.6287
G01 X14.9258 Y41.5392
G01 X14.9880 Y41.4554
G01 X15.0580 Y41.3781
G01 X15.1354 Y41.3080
G01 X15.2192 Y41.2458
G01 X15.3087 Y41.1922
G01 X15.4030 Y41.1476
G01 X15.5013 Y41.1124
G01 X15.6025 Y41.0871
G01 X15.7057 Y41.0717
G01 X15.8100 Y41.0666
G01 X15.9142 Y41.0717
G01 X16.0174 Y41.0871
G01 X16.1187 Y41.1124
G01 X16.2169 Y41.1476
G01 X16.3113 Y41.1922
G01 X16.4008 Y41.2458
G01 X16.4846 Y41.3080
G01 X16.5619 Y41.3781
G01 X16.6320 Y41.4554
G01 X16.6942 Y41.5392
G01 X16.7478 Y41.6287
G01 X16.7924 Y41.7231
G01 X16.8276 Y41.8213
G01 X16.8529 Y41.9226
G01 X16.8679 Y42.0227
G00 Z2.0000
G00 X16.8679 Y44.5627
G01 F60.00
G01 Z-0.0500
G01 F120.00
G01 X16.8685 Y44.5689
G01 X16.8734 Y44.6700
G01 X16.8683 Y44.7743
G01 X16.8529 Y44.8775
G01 X16.8276 Y44.9787
G01 X16.7924 Y45.0770
G01 X16.7478 Y45.1713
G01 X16.6942 Y45.2608
G01 X16.6320 Y45.3446
G01 X16.5619 Y45.4220
G01 X16.4846 Y45.4920
G01 X16.4008 Y45.5542
G01 X16.3113 Y45.6079
G01 X16.2169 Y45.6525
G01 X16.1187 Y45.6876
G01 X16.0174 Y45.7130
G01 X15.9142 Y45.7283
G01 X15.8100 Y45.7334
G01 X15.7057 Y45.7283
G01 X15.6025 Y45.7130
G01 X15.5013 Y45.6876
G01 X15.4030 Y45.6525
G01 X15.3087 Y45.6079
G01 X15.2192 Y45.5542
G01 X15.1354 Y45.4920
G01 X15.0580 Y45.4220
G01 X14.9880 Y45.3446
G01 X14.9258 Y45.2608
G01 X14.8721 Y45.1713
G01 X14.8275 Y45.0770
G01 X14.7924 Y44.9787
G01 X14.7670 Y44.8775
G01 X14.7517 Y44.7743
G01 X14.7466 Y44.6700
G01 X14.7517 Y44.5658
G01 X14.7670 Y44.4626
G01 X14.7924 Y44.3613
G01 X14.8275 Y44.2631
G01 X14.8721 Y44.1687
G01 X14.9258 Y44.0792
G01 X14.9880 Y43.9954
G01 X15.0580 Y43.9181
G01 X15.1354 Y43.8480
G01 X15.2192 Y43.7858
G01 X15.3087 Y43.7322
G01 X15.4030 Y43.6876
G01 X15.5013 Y43.6524
G01 X15.6025 Y43.6271
G01 X15.7057 Y43.6117
G01 X15.8100 Y43.6066
G01 X15.9142 Y43.6117
G01 X16.0174 Y43.6271
G01 X16.1187 Y43.6524
G01 X16.2169 Y43.6876
G01 X16.3113 Y43.7322
G01 X16.4008 Y43.7858
G01 X16.4846 Y43.8480
G01 X16.5619 Y43.9181
G01 X16.6320 Y43.9954
G01 X16.6942 Y44.0792
G01 X16.7478 Y44.1687
G01 X16.7924 Y44.2631
G01 X16.8276 Y44.3613
G01 X16.8529 Y44.4626
G01 X16.8679 Y44.5627
G00 Z2.0000
G00 X16.8679 Y47.1027
G01 F60.00
G01 Z-0.0500
G01 F120.00
G01 X16.8685 Y47.1089
G01 X16.8734 Y47.2100
G01 X16.8683 Y47.3143
G01 X16.8529 Y47.4175
G01 X16.8276 Y47.5187
G01 X16.7924 Y47.6170
G01 X16.7478 Y47.7113
G01 X16.6942 Y47.8008
G01 X16.6320 Y47.8846
G01 X16.5619 Y47.9620
G01 X16.4846 Y48.0320
G01 X16.4008 Y48.0942
G01 X16.3113 Y48.1479
G01 X16.2169 Y48.1925
G01 X16.1187 Y48.2276
G01 X16.0174 Y48.2530
G01 X15.9142 Y48.2683
G01 X15.8100 Y48.2734
G01 X15.7057 Y48.2683
G01 X15.6025 Y48.2530
G01 X15.5013 Y48.2276
G01 X15.4030 Y48.1925
G01 X15.3087 Y48.1479
G01 X15.2192 Y48.0942
G01 X15.1354 Y48.0320
G01 X15.0580 Y47.9620
G01 X14.9880 Y47.8846
G01 X14.9258 Y47.8008
G01 X14.8721 Y47.7113
G01 X14.8275 Y47.6170
G01 X14.7924 Y47.5187
G01 X14.7670 Y47.4175
G01 X14.7517 Y47.3143
G01 X14.7466 Y47.2100
G01 X14.7517 Y47.1058
G01 X14.7670 Y47.0026
G01 X14.7924 Y46.9013
G01 X14.8275 Y46.8031
G01 X14.8721 Y46.7087
G01 X14.9258 Y46.6192
G01 X14.9880 Y46.5354
G01 X15.0580 Y46.4581
G01 X15.1354 Y46.3880
G01 X15.2192 Y46.3258
G01 X15.3087 Y46.2722
G01 X15.4030 Y46.2276
G01 X15.5013 Y46.1924
G01 X15.6025 Y46.1671
G01 X15.7057 Y46.1517
G01 X15.8100 Y46.1466
G01 X15.9142 Y46.1517
G01 X16.0174 Y46.1671
G01 X16.1187 Y46.1924
G01 X16.2169 Y46.2276
G01 X16.3113 Y46.2722
G01 X16.4008 Y46.3258
G01 X16.4846 Y46.3880
G01 X16.5619 Y46.4581
G01 X16.6320 Y46.5354
G01 X16.6942 Y46.6192
G01 X16.7478 Y46.7087
G01 X16.7924 Y46.8031
G01 X16.8276 Y46.9013
G01 X16.8529 Y47.0026
G01 X16.8679 Y47.1027
G00 Z2.0000
G00 X14.6713 Y60.1827
G01 F60.00
G01 Z-0.0500
G01 F120.00
G01 X14.6713 Y50.7150
G01 X14.6743 Y50.6549
G01 X14.6826 Y50.5984
G01 X14.6838 Y50.5923
G01 X14.6977 Y50.5369
G01 X14.7180 Y50.4802
G01 X14.7424 Y50.4285
G01 X14.7453 Y50.4230
G01 X14.7756 Y50.3728
G01 X14.8106 Y50.3257
G01 X14.8510 Y50.2811
G01 X28.5160 Y36.6161
G01 X28.5595 Y36.5766
G01 X28.6065 Y36.5416
G01 X28.6117 Y36.5381
G01 X28.6607 Y36.5088
G01 X28.7151 Y36.4831
G01 X28.7718 Y36.4628
G01 X28.8272 Y36.4488
G01 X28.8333 Y36.4476
G01 X28.8898 Y36.4393
G01 X28.9500 Y36.4363
G01 X30.1827 Y36.4363
G01 X30.2280 Y36.3754
G01 X30.2959 Y36.3003
G01 X30.3003 Y36.2959
G01 X30.3730 Y36.2300
G01 X30.3778 Y36.2261
G01 X30.4592 Y36.1658
G01 X30.5460 Y36.1137
G01 X30.5515 Y36.1108
G01 X30.6430 Y36.0676
G01 X30.7413 Y36.0324
G01 X30.8425 Y36.0071
G01 X30.9442 Y35.9919
G01 X31.0500 Y35.9866
G01 X31.1542 Y35.9917
G01 X31.2574 Y36.0071
G01 X31.3557 Y36.0316
G01 X31.3616 Y36.0334
G01 X31.4540 Y36.0665
G01 X31.4598 Y36.0688
G01 X31.5513 Y36.1122
G01 X31.6421 Y36.1667
G01 X31.7246 Y36.2280
G01 X31.7997 Y36.2959
G01 X31.8041 Y36.3003
G01 X31.8700 Y36.3731
G01 X31.8739 Y36.3779
G01 X31.9342 Y36.4592
G01 X31.9863 Y36.5460
G01 X31.9892 Y36.5515
G01 X32.0324 Y36.6431
G01 X32.0676 Y36.7413
G01 X32.0929 Y36.8426
G01 X32.1083 Y36.9458
G01 X32.1134 Y37.0500
G01 X32.1085 Y37.1512
G01 X32.1079 Y37.1573
G01 X32.0929 Y37.2575
G01 X32.0684 Y37.3557
G01 X32.0666 Y37.3617
G01 X32.0335 Y37.4541
G01 X32.0312 Y37.4598
G01 X31.9878 Y37.5513
G01 X31.9342 Y37.6408
G01 X31.8720 Y37.7246
G01 X31.8008 Y37.8030
G01 X31.7246 Y37.8720
G01 X31.6408 Y37.9342
G01 X31.5513 Y37.9879
G01 X31.4598 Y38.0312
G01 X31.4540 Y38.0336
G01 X31.3616 Y38.0667
G01 X31.3557 Y38.0685
G01 X31.2574 Y38.0930
G01 X31.1573 Y38.1079
G01 X31.1511 Y38.1085
G01 X31.0500 Y38.1134
G01 X30.9488 Y38.1085
G01 X30.9427 Y38.1079
G01 X30.8425 Y38.0930
G01 X30.7413 Y38.0676
G01 X30.6430 Y38.0325
G01 X30.5473 Y37.9871
G01 X30.4592 Y37.9342
G01 X30.3778 Y37.8740
G01 X30.3730 Y37.8700
G01 X30.3003 Y37.8041
G01 X30.2959 Y37.7997
G01 X30.2280 Y37.7246
G01 X30.1827 Y37.6637
G01 X29.2042 Y37.6637
G01 X15.8987 Y50.9692
G01 X15.8987 Y60.1827
G01 X15.9596 Y60.2280
G01 X16.0347 Y60.2959
G01 X16.0391 Y60.3003
G01 X16.1050 Y60.3731
G01 X16.1089 Y60.3779
G01 X16.1692 Y60.4592
G01 X16.2235 Y60.5501
G01 X16.2662 Y60.6402
G01 X16.2685 Y60.6460
G01 X16.3026 Y60.7413
G01 X16.3273 Y60.8395
G01 X16.3285 Y60.8456
G01 X16.3433 Y60.9458
G01 X16.3484 Y61.0500
G01 X16.3435 Y61.1512
G01 X16.3429 Y61.1573
G01 X16.3279 Y61.2575
G01 X16.3034 Y61.3557
G01 X16.3016 Y61.3617
G01 X16.2674 Y61.4570
G01 X16.2228 Y61.5513
G01 X16.1692 Y61.6408
G01 X16.1089 Y61.7222
G01 X16.1050 Y61.7270
G01 X16.0369 Y61.8020
G01 X15.9619 Y61.8700
G01 X15.9571 Y61.8740
G01 X15.8771 Y61.9333
G01 X15.7863 Y61.9879
G01 X15.6919 Y62.0325
G01 X15.5937 Y62.0676
G01 X15.4924 Y62.0930
G01 X15.3892 Y62.1083
G01 X15.2850 Y62.1134
G01 X15.1807 Y62.1083
G01 X15.0775 Y62.0930
G01 X14.9763 Y62.0676
G01 X14.8780 Y62.0325
G01 X14.7837 Y61.9879
G01 X14.6942 Y61.9342
G01 X14.6104 Y61.8720
G01 X14.5330 Y61.8020
G01 X14.4630 Y61.7246
G01 X14.4017 Y61.6421
G01 X14.3471 Y61.5513
G01 X14.3025 Y61.4570
G01 X14.2674 Y61.3587
G01 X14.2420 Y61.2575
G01 X14.2267 Y61.1543
G01 X14.2216 Y61.0500
G01 X14.2267 Y60.9458
G01 X14.2417 Y60.8441
G01 X14.2674 Y60.7413
G01 X14.3025 Y60.6431
G01 X14.3471 Y60.5487
G01 X14.3999 Y60.4605
G01 X14.4630 Y60.3754
G01 X14.5330 Y60.2981
G01 X14.6104 Y60.2280
G01 X14.6713 Y60.1827
G00 Z2.0000
G00 X14.5028 Y66.3707
G01 F60.00
G01 Z-0.0500
G01 F120.00
G01 X11.5754 Y63.4432
G01 X11.5360 Y63.3997
G01 X11.5001 Y63.3514
G01 X11.4692 Y63.2997
G01 X11.4447 Y63.2481
G01 X11.4423 Y63.2424
G01 X11.4241 Y63.1915
G01 X11.4223 Y63.1856
G01 X11.4085 Y63.1301
G01 X11.4000 Y63.0737
G01 X11.3994 Y63.0675
G01 X11.3967 Y63.0104
G01 X11.3967 Y13.3481
G01 X11.3997 Y13.2895
G01 X11.4085 Y13.2299
G01 X11.4231 Y13.1715
G01 X11.4423 Y13.1177
G01 X11.4447 Y13.1119
G01 X11.4678 Y13.0631
G01 X11.4707 Y13.0576
G01 X11.5001 Y13.0087
G01 X11.5341 Y12.9628
G01 X11.5380 Y12.9580
G01 X11.5764 Y12.9157
G01 X13.2760 Y11.2161
G01 X13.3207 Y11.1756
G01 X13.3703 Y11.1389
G01 X13.4180 Y11.1103
G01 X13.4235 Y11.1074
G01 X13.4751 Y11.0831
G01 X13.5289 Y11.0638
G01 X13.5348 Y11.0619
G01 X13.5903 Y11.0481
G01 X13.6514 Y11.0392
G01 X13.7100 Y11.0363
G01 X14.9427 Y11.0363
G01 X14.9880 Y10.9754
G01 X15.0559 Y10.9003
G01 X15.0603 Y10.8959
G01 X15.1330 Y10.8300
G01 X15.1378 Y10.8261
G01 X15.2192 Y10.7658
G01 X15.3101 Y10.7115
G01 X15.4002 Y10.6688
G01 X15.4059 Y10.6665
G01 X15.5013 Y10.6324
G01 X15.5995 Y10.6077
G01 X15.6056 Y10.6065
G01 X15.7057 Y10.5917
G01 X15.8115 Y10.5866
G01 X15.9142 Y10.5917
G01 X16.0144 Y10.6065
G01 X16.0205 Y10.6077
G01 X16.1187 Y10.6324
G01 X16.2140 Y10.6665
G01 X16.2198 Y10.6688
G01 X16.3113 Y10.7122
G01 X16.4008 Y10.7658
G01 X16.4846 Y10.8280
G01 X16.5597 Y10.8959
G01 X16.5641 Y10.9003
G01 X16.6320 Y10.9754
G01 X16.6942 Y11.0592
G01 X16.7463 Y11.1460
G01 X16.7492 Y11.1515
G01 X16.7924 Y11.2431
G01 X16.8266 Y11.3384
G01 X16.8284 Y11.3443
G01 X16.8529 Y11.4426
G01 X16.8683 Y11.5458
G01 X16.8734 Y11.6500
G01 X16.8685 Y11.7512
G01 X16.8679 Y11.7573
G01 X16.8529 Y11.8575
G01 X16.8276 Y11.9587
G01 X16.7935 Y12.0541
G01 X16.7912 Y12.0598
G01 X16.7478 Y12.1513
G01 X16.6942 Y12.2408
G01 X16.6339 Y12.3222
G01 X16.6300 Y12.3270
G01 X16.5608 Y12.4030
G01 X16.4846 Y12.4720
G01 X16.4008 Y12.5342
G01 X16.3113 Y12.5879
G01 X16.2198 Y12.6312
G01 X16.2140 Y12.6336
G01 X16.1216 Y12.6667
G01 X16.1157 Y12.6685
G01 X16.0174 Y12.6930
G01 X15.9173 Y12.7079
G01 X15.9111 Y12.7085
G01 X15.8100 Y12.7134
G01 X15.7088 Y12.7085
G01 X15.7027 Y12.7079
G01 X15.6025 Y12.6930
G01 X15.5013 Y12.6676
G01 X15.4030 Y12.6325
G01 X15.3073 Y12.5871
G01 X15.2192 Y12.5342
G01 X15.1378 Y12.4740
G01 X15.1330 Y12.4700
G01 X15.0603 Y12.4041
G01 X15.0559 Y12.3997
G01 X14.9880 Y12.3246
G01 X14.9427 Y12.2637
G01 X13.9642 Y12.2637
G01 X12.6241 Y13.6038
G01 X12.6241 Y62.7562
G01 X15.3706 Y65.5028
G01 X15.4457 Y65.4917
G01 X15.5469 Y65.4867
G01 X15.5531 Y65.4867
G01 X15.6511 Y65.4915
G01 X15.6573 Y65.4921
G01 X15.7574 Y65.5071
G01 X15.8601 Y65.5329
G01 X15.9540 Y65.5665
G01 X15.9598 Y65.5688
G01 X16.0513 Y65.6122
G01 X16.1381 Y65.6642
G01 X16.1433 Y65.6676
G01 X16.2246 Y65.7280
G01 X16.3019 Y65.7981
G01 X16.3700 Y65.8731
G01 X16.3739 Y65.8779
G01 X16.4342 Y65.9592
G01 X16.4863 Y66.0460
G01 X16.4892 Y66.0515
G01 X16.5324 Y66.1431
G01 X16.5676 Y66.2413
G01 X16.5929 Y66.3426
G01 X16.6079 Y66.4427
G01 X16.6085 Y66.4489
G01 X16.6134 Y66.5500
G01 X16.6085 Y66.6512
G01 X16.6079 Y66.6573
G01 X16.5932 Y66.7560
G01 X16.5676 Y66.8587
G01 X16.5324 Y66.9570
G01 X16.4878 Y67.0513
G01 X16.4342 Y67.1408
G01 X16.3720 Y67.2246
G01 X16.3019 Y67.3020
G01 X16.2246 Y67.3720
G01 X16.1408 Y67.4342
G01 X16.0513 Y67.4879
G01 X15.9569 Y67.5325
G01 X15.8587 Y67.5676
G01 X15.7574 Y67.5930
G01 X15.6542 Y67.6083
G01 X15.5500 Y67.6134
G01 X15.4457 Y67.6083
G01 X15.3440 Y67.5933
G01 X15.2413 Y67.5676
G01 X15.1430 Y67.5325
G01 X15.0487 Y67.4879
G01 X14.9592 Y67.4342
G01 X14.8754 Y67.3720
G01 X14.7980 Y67.3020
G01 X14.7280 Y67.2246
G01 X14.6667 Y67.1421
G01 X14.6121 Y67.0513
G01 X14.5675 Y66.9570
G01 X14.5324 Y66.8587
G01 X14.5073 Y66.7590
G01 X14.4917 Y66.6543
G01 X14.4866 Y66.5500
G01 X14.4917 Y66.4458
G01 X14.5028 Y66.3707
G00 Z2.0000
G00 X14.4695 Y71.1596
G01 F60.00
G01 Z-0.0500
G01 F120.00
G01 X14.4830 Y71.1221
G01 X14.5074 Y71.0704
G01 X14.5103 Y71.0649
G01 X14.5389 Y71.0173
G01 X14.5756 Y70.9676
G01 X14.6150 Y70.9241
G01 X16.0349 Y69.5041
G01 X16.0772 Y69.4657
G01 X16.0820 Y69.4617
G01 X16.1279 Y69.4278
G01 X16.1769 Y69.3983
G01 X16.1824 Y69.3954
G01 X16.2340 Y69.3711
G01 X16.2922 Y69.3503
G01 X16.3492 Y69.3361
G01 X16.4056 Y69.3277
G01 X16.4118 Y69.3271
G01 X16.4689 Y69.3243
G01 X20.9029 Y69.3243
G01 X23.2445 Y66.9827
G01 X23.2445 Y66.0775
G01 X22.3374 Y65.1704
G01 X16.1729 Y65.1704
G01 X16.1127 Y65.1674
G01 X16.0562 Y65.1591
G01 X16.0501 Y65.1579
G01 X15.9977 Y65.1448
G01 X15.9918 Y65.1430
G01 X15.9380 Y65.1237
G01 X15.8864 Y65.0993
G01 X15.8809 Y65.0964
G01 X15.8346 Y65.0686
G01 X15.8294 Y65.0652
G01 X15.7836 Y65.0311
G01 X15.7389 Y64.9907
G01 X12.9894 Y62.2412
G01 X12.9510 Y62.1989
G01 X12.9471 Y62.1941
G01 X12.9131 Y62.1482
G01 X12.8837 Y62.0992
G01 X12.8808 Y62.0937
G01 X12.8564 Y62.0421
G01 X12.8357 Y61.9839
G01 X12.8215 Y61.9269
G01 X12.8130 Y61.8705
G01 X12.8124 Y61.8643
G01 X12.8097 Y61.8072
G01 X12.8097 Y39.8766
G01 X12.8128 Y39.8149
G01 X12.8215 Y39.7569
G01 X12.8353 Y39.7015
G01 X12.8371 Y39.6955
G01 X12.8564 Y39.6418
G01 X12.8808 Y39.5901
G01 X12.8837 Y39.5846
G01 X12.9131 Y39.5357
G01 X12.9490 Y39.4873
G01 X12.9894 Y39.4427
G01 X13.2760 Y39.1561
G01 X13.3195 Y39.1166
G01 X13.3665 Y39.0816
G01 X13.3717 Y39.0781
G01 X13.4207 Y39.0488
G01 X13.4737 Y39.0237
G01 X13.5318 Y39.0028
G01 X13.5903 Y38.9881
G01 X13.6498 Y38.9793
G01 X13.7084 Y38.9764
G01 X14.9427 Y38.9763
G01 X14.9880 Y38.9154
G01 X15.0580 Y38.8381
G01 X15.1354 Y38.7680
G01 X15.2205 Y38.7050
G01 X15.3087 Y38.6522
G01 X15.4030 Y38.6076
G01 X15.5013 Y38.5724
G01 X15.5995 Y38.5477
G01 X15.6056 Y38.5465
G01 X15.7057 Y38.5317
G01 X15.8069 Y38.5267
G01 X15.8131 Y38.5267
G01 X15.9111 Y38.5315
G01 X15.9173 Y38.5321
G01 X16.0174 Y38.5471
G01 X16.1187 Y38.5724
G01 X16.2169 Y38.6076
G01 X16.3085 Y38.6508
G01 X16.3140 Y38.6537
G01 X16.3981 Y38.7042
G01 X16.4033 Y38.7076
G01 X16.4846 Y38.7680
G01 X16.5619 Y38.8381
G01 X16.6300 Y38.9131
G01 X16.6339 Y38.9179
G01 X16.6942 Y38.9992
G01 X16.7478 Y39.0887
G01 X16.7912 Y39.1802
G01 X16.7935 Y39.1860
G01 X16.8276 Y39.2813
G01 X16.8529 Y39.3826
G01 X16.8683 Y39.4858
G01 X16.8733 Y39.5869
G01 X16.8733 Y39.5931
G01 X16.8685 Y39.6912
G01 X16.8679 Y39.6973
G01 X16.8529 Y39.7975
G01 X16.8276 Y39.8987
G01 X16.7924 Y39.9970
G01 X16.7492 Y40.0885
G01 X16.7463 Y40.0940
G01 X16.6958 Y40.1782
G01 X16.6924 Y40.1834
G01 X16.6320 Y40.2646
G01 X16.5630 Y40.3408
G01 X16.4846 Y40.4120
G01 X16.4008 Y40.4742
G01 X16.3113 Y40.5279
G01 X16.2198 Y40.5712
G01 X16.2140 Y40.5736
G01 X16.1216 Y40.6067
G01 X16.1157 Y40.6085
G01 X16.0174 Y40.6330
G01 X15.9173 Y40.6479
G01 X15.9111 Y40.6485
G01 X15.8100 Y40.6534
G01 X15.7088 Y40.6485
G01 X15.7027 Y40.6479
G01 X15.6025 Y40.6330
G01 X15.5013 Y40.6076
G01 X15.4030 Y40.5725
G01 X15.3073 Y40.5271
G01 X15.2192 Y40.4742
G01 X15.1378 Y40.4140
G01 X15.1330 Y40.4100
G01 X15.0603 Y40.3441
G01 X15.0559 Y40.3397
G01 X14.9880 Y40.2646
G01 X14.9427 Y40.2037
G01 X14.0371 Y40.2037
G01 X14.0371 Y61.5530
G01 X16.4271 Y63.9430
G01 X22.5931 Y63.9431
G01 X22.6517 Y63.9460
G01 X22.7082 Y63.9543
G01 X22.7143 Y63.9555
G01 X22.7697 Y63.9695
G01 X22.8264 Y63.9898
G01 X22.8781 Y64.0141
G01 X22.8836 Y64.0170
G01 X22.9338 Y64.0474
G01 X22.9809 Y64.0823
G01 X23.0255 Y64.1228
G01 X24.2921 Y65.3894
G01 X24.3305 Y65.4317
G01 X24.3345 Y65.4365
G01 X24.3684 Y65.4824
G01 X24.3994 Y65.5340
G01 X24.4251 Y65.5885
G01 X24.4454 Y65.6452
G01 X24.4601 Y65.7036
G01 X24.4685 Y65.7601
G01 X24.4691 Y65.7663
G01 X24.4719 Y65.8233
G01 X24.4719 Y66.9827
G01 X30.8076 Y73.3184
G01 X35.9287 Y73.3184
G01 X40.5313 Y68.7158
G01 X40.5313 Y67.7373
G01 X40.4704 Y67.6920
G01 X40.3953 Y67.6241
G01 X40.3909 Y67.6197
G01 X40.3250 Y67.5470
G01 X40.3210 Y67.5422
G01 X40.2608 Y67.4608
G01 X40.2064 Y67.3699
G01 X40.1638 Y67.2798
G01 X40.1614 Y67.2741
G01 X40.1274 Y67.1787
G01 X40.1027 Y67.0805
G01 X40.1015 Y67.0744
G01 X40.0867 Y66.9743
G01 X40.0816 Y66.8700
G01 X40.0867 Y66.7658
G01 X40.1015 Y66.6656
G01 X40.1027 Y66.6595
G01 X40.1274 Y66.5613
G01 X40.1614 Y66.4660
G01 X40.1638 Y66.4602
G01 X40.2064 Y66.3701
G01 X40.2608 Y66.2792
G01 X40.3210 Y66.1979
G01 X40.3250 Y66.1931
G01 X40.3909 Y66.1203
G01 X40.3953 Y66.1159
G01 X40.4704 Y66.0480
G01 X40.5313 Y66.0027
G01 X40.5313 Y64.7685
G01 X40.5343 Y64.7099
G01 X40.5426 Y64.6534
G01 X40.5438 Y64.6473
G01 X40.5573 Y64.5934
G01 X40.5780 Y64.5352
G01 X40.6024 Y64.4835
G01 X40.6053 Y64.4780
G01 X40.6347 Y64.4291
G01 X40.6687 Y64.3832
G01 X40.6726 Y64.3784
G01 X40.7100 Y64.3372
G01 X43.0713 Y61.9758
G01 X43.0713 Y60.1173
G01 X43.0104 Y60.0720
G01 X42.9353 Y60.0041
G01 X42.9309 Y59.9997
G01 X42.8630 Y59.9246
G01 X42.8026 Y59.8434
G01 X42.7991 Y59.8382
G01 X42.7471 Y59.7513
G01 X42.7038 Y59.6598
G01 X42.7014 Y59.6541
G01 X42.6674 Y59.5587
G01 X42.6427 Y59.4605
G01 X42.6415 Y59.4544
G01 X42.6267 Y59.3543
G01 X42.6217 Y59.2531
G01 X42.6217 Y59.2469
G01 X42.6266 Y59.1473
G01 X42.6415 Y59.0456
G01 X42.6427 Y59.0395
G01 X42.6674 Y58.9413
G01 X42.7025 Y58.8431
G01 X42.7457 Y58.7515
G01 X42.7487 Y58.7460
G01 X42.8008 Y58.6592
G01 X42.8630 Y58.5754
G01 X42.9309 Y58.5003
G01 X42.9353 Y58.4959
G01 X43.0104 Y58.4280
G01 X43.0942 Y58.3658
G01 X43.1810 Y58.3137
G01 X43.1865 Y58.3108
G01 X43.2780 Y58.2676
G01 X43.3748 Y58.2329
G01 X43.4775 Y58.2071
G01 X43.5807 Y58.1917
G01 X43.6850 Y58.1866
G01 X43.7892 Y58.1917
G01 X43.8924 Y58.2071
G01 X43.9937 Y58.2324
G01 X44.0919 Y58.2676
G01 X44.1863 Y58.3122
G01 X44.2758 Y58.3658
G01 X44.3596 Y58.4280
G01 X44.4369 Y58.4981
G01 X44.5070 Y58.5754
G01 X44.5692 Y58.6592
G01 X44.6228 Y58.7487
G01 X44.6674 Y58.8431
G01 X44.7030 Y58.9428
G01 X44.7279 Y59.0426
G01 X44.7429 Y59.1427
G01 X44.7435 Y59.1489
G01 X44.7484 Y59.2500
G01 X44.7433 Y59.3543
G01 X44.7285 Y59.4544
G01 X44.7273 Y59.4605
G01 X44.7034 Y59.5557
G01 X44.7016 Y59.5617
G01 X44.6674 Y59.6570
G01 X44.6242 Y59.7485
G01 X44.6213 Y59.7540
G01 X44.5708 Y59.8382
G01 X44.5674 Y59.8434
G01 X44.5070 Y59.9246
G01 X44.4369 Y60.0020
G01 X44.3596 Y60.0720
G01 X44.2987 Y60.1173
G01 X44.2987 Y61.6932
G01 X46.2384 Y61.6933
G01 X46.2939 Y61.6960
G01 X46.3001 Y61.6966
G01 X46.3566 Y61.7050
G01 X46.4120 Y61.7188
G01 X46.4180 Y61.7207
G01 X46.4717 Y61.7400
G01 X46.5262 Y61.7657
G01 X46.5778 Y61.7967
G01 X46.6237 Y61.8306
G01 X46.6285 Y61.8346
G01 X46.6708 Y61.8730
G01 X49.0791 Y64.2812
G01 X58.5459 Y64.2812
G01 X60.1630 Y62.6641
G01 X60.1630 Y56.4403
G01 X48.3760 Y44.6534
G01 X48.3356 Y44.6087
G01 X48.2997 Y44.5604
G01 X48.2688 Y44.5087
G01 X48.2443 Y44.4571
G01 X48.2419 Y44.4514
G01 X48.2227 Y44.3976
G01 X48.2088 Y44.3422
G01 X48.2076 Y44.3361
G01 X48.1993 Y44.2796
G01 X48.1963 Y44.2210
G01 X48.1963 Y41.6894
G01 X48.1087 Y41.6479
G01 X48.0192 Y41.5942
G01 X47.9354 Y41.5320
G01 X47.8603 Y41.4641
G01 X47.8559 Y41.4597
G01 X47.7900 Y41.3870
G01 X47.7860 Y41.3822
G01 X47.7258 Y41.3008
G01 X47.6721 Y41.2113
G01 X47.6275 Y41.1170
G01 X47.5933 Y41.0217
G01 X47.5915 Y41.0157
G01 X47.5677 Y40.9205
G01 X47.5665 Y40.9144
G01 X47.5517 Y40.8143
G01 X47.5466 Y40.7100
G01 X47.5517 Y40.6058
G01 X47.5667 Y40.5041
G01 X47.5924 Y40.4013
G01 X47.6275 Y40.3031
G01 X47.6721 Y40.2087
G01 X47.7241 Y40.1219
G01 X47.7276 Y40.1167
G01 X47.7880 Y40.0354
G01 X47.8559 Y39.9603
G01 X47.8603 Y39.9559
G01 X47.9330 Y39.8900
G01 X47.9378 Y39.8861
G01 X48.0192 Y39.8258
G01 X48.1073 Y39.7729
G01 X48.2030 Y39.7276
G01 X48.3013 Y39.6924
G01 X48.4025 Y39.6671
G01 X48.5042 Y39.6519
G01 X48.6100 Y39.6466
G01 X49.0100 Y39.6466
G01 X49.1111 Y39.6515
G01 X49.1173 Y39.6521
G01 X49.2174 Y39.6671
G01 X49.3157 Y39.6916
G01 X49.3216 Y39.6934
G01 X49.4140 Y39.7265
G01 X49.4198 Y39.7288
G01 X49.5113 Y39.7722
G01 X49.6008 Y39.8258
G01 X49.6846 Y39.8880
G01 X49.7619 Y39.9581
G01 X49.8320 Y40.0354
G01 X49.8942 Y40.1192
G01 X49.9478 Y40.2087
G01 X49.9912 Y40.3002
G01 X49.9935 Y40.3060
G01 X50.0266 Y40.3984
G01 X50.0284 Y40.4043
G01 X50.0529 Y40.5026
G01 X50.0684 Y40.6073
G01 X50.0734 Y40.7100
G01 X50.0685 Y40.8112
G01 X50.0679 Y40.8173
G01 X50.0529 Y40.9175
G01 X50.0276 Y41.0187
G01 X49.9935 Y41.1141
G01 X49.9912 Y41.1198
G01 X49.9492 Y41.2085
G01 X49.9463 Y41.2140
G01 X49.8942 Y41.3008
G01 X49.8339 Y41.3822
G01 X49.8300 Y41.3870
G01 X49.7641 Y41.4597
G01 X49.7597 Y41.4641
G01 X49.6846 Y41.5320
G01 X49.6008 Y41.5942
G01 X49.5113 Y41.6479
G01 X49.4237 Y41.6894
G01 X49.4237 Y43.9652
G01 X61.2106 Y55.7522
G01 X61.2490 Y55.7945
G01 X61.2530 Y55.7993
G01 X61.2869 Y55.8452
G01 X61.3179 Y55.8968
G01 X61.3424 Y55.9484
G01 X61.3448 Y55.9542
G01 X61.3639 Y56.0080
G01 X61.3779 Y56.0634
G01 X61.3791 Y56.0695
G01 X61.3874 Y56.1260
G01 X61.3904 Y56.1861
G01 X61.3903 Y62.9199
G01 X61.3874 Y62.9785
G01 X61.3786 Y63.0380
G01 X61.3639 Y63.0965
G01 X61.3448 Y63.1503
G01 X61.3424 Y63.1560
G01 X61.3193 Y63.2048
G01 X61.3164 Y63.2103
G01 X61.2869 Y63.2593
G01 X61.2501 Y63.3088
G01 X61.2106 Y63.3523
G01 X59.5387 Y65.0242
G01 X59.5387 Y66.0027
G01 X59.5996 Y66.0480
G01 X59.6747 Y66.1159
G01 X59.6791 Y66.1203
G01 X59.7480 Y66.1966
G01 X59.8092 Y66.2792
G01 X59.8613 Y66.3660
G01 X59.8642 Y66.3715
G01 X59.9080 Y66.4645
G01 X59.9426 Y66.5613
G01 X59.9673 Y66.6595
G01 X59.9685 Y66.6656
G01 X59.9833 Y66.7658
G01 X59.9884 Y66.8700
G01 X59.9835 Y66.9712
G01 X59.9829 Y66.9773
G01 X59.9679 Y67.0775
G01 X59.9426 Y67.1787
G01 X59.9074 Y67.2770
G01 X59.8628 Y67.3713
G01 X59.8108 Y67.4582
G01 X59.8074 Y67.4634
G01 X59.7489 Y67.5422
G01 X59.7450 Y67.5470
G01 X59.6769 Y67.6220
G01 X59.5996 Y67.6920
G01 X59.5158 Y67.7542
G01 X59.4290 Y67.8063
G01 X59.4235 Y67.8093
G01 X59.3348 Y67.8512
G01 X59.3290 Y67.8536
G01 X59.2337 Y67.8876
G01 X59.1324 Y67.9130
G01 X59.0292 Y67.9283
G01 X58.9250 Y67.9334
G01 X58.8207 Y67.9283
G01 X58.7206 Y67.9135
G01 X58.7145 Y67.9123
G01 X58.6193 Y67.8885
G01 X58.6133 Y67.8867
G01 X58.5180 Y67.8525
G01 X58.4237 Y67.8079
G01 X58.3342 Y67.7542
G01 X58.2528 Y67.6940
G01 X58.2480 Y67.6900
G01 X58.1753 Y67.6241
G01 X58.1709 Y67.6197
G01 X58.1030 Y67.5446
G01 X58.0408 Y67.4608
G01 X57.9871 Y67.3713
G01 X57.9438 Y67.2798
G01 X57.9414 Y67.2741
G01 X57.9083 Y67.1817
G01 X57.9065 Y67.1757
G01 X57.8820 Y67.0775
G01 X57.8671 Y66.9773
G01 X57.8665 Y66.9712
G01 X57.8617 Y66.8731
G01 X57.8617 Y66.8669
G01 X57.8667 Y66.7658
G01 X57.8815 Y66.6656
G01 X57.8827 Y66.6595
G01 X57.9074 Y66.5613
G01 X57.9425 Y66.4631
G01 X57.9871 Y66.3687
G01 X58.0408 Y66.2792
G01 X58.1030 Y66.1954
G01 X58.1730 Y66.1181
G01 X58.2504 Y66.0480
G01 X58.3113 Y66.0027
G01 X58.3113 Y65.5086
G01 X48.8249 Y65.5086
G01 X48.7647 Y65.5056
G01 X48.7067 Y65.4971
G01 X48.6497 Y65.4830
G01 X48.6438 Y65.4812
G01 X48.5900 Y65.4619
G01 X48.5356 Y65.4361
G01 X48.4866 Y65.4068
G01 X48.4814 Y65.4034
G01 X48.4356 Y65.3693
G01 X48.3921 Y65.3299
G01 X45.9827 Y62.9206
G01 X43.8623 Y62.9206
G01 X41.7587 Y65.0242
G01 X41.7587 Y66.0027
G01 X41.8196 Y66.0480
G01 X41.8947 Y66.1159
G01 X41.8991 Y66.1203
G01 X41.9650 Y66.1931
G01 X41.9689 Y66.1979
G01 X42.0292 Y66.2792
G01 X42.0835 Y66.3701
G01 X42.1262 Y66.4602
G01 X42.1285 Y66.4660
G01 X42.1626 Y66.5613
G01 X42.1873 Y66.6595
G01 X42.1885 Y66.6656
G01 X42.2033 Y66.7658
G01 X42.2084 Y66.8700
G01 X42.2033 Y66.9743
G01 X42.1885 Y67.0744
G01 X42.1873 Y67.0805
G01 X42.1626 Y67.1787
G01 X42.1285 Y67.2741
G01 X42.1262 Y67.2798
G01 X42.0835 Y67.3699
G01 X42.0292 Y67.4608
G01 X41.9689 Y67.5422
G01 X41.9650 Y67.5470
G01 X41.8991 Y67.6197
G01 X41.8947 Y67.6241
G01 X41.8196 Y67.6920
G01 X41.7587 Y67.7373
G01 X41.7587 Y68.7158
G01 X48.0440 Y75.0011
G01 X87.0710 Y75.0011
G01 X93.5563 Y68.5158
G01 X93.5563 Y67.5373
G01 X93.4954 Y67.4920
G01 X93.4203 Y67.4241
G01 X93.4159 Y67.4197
G01 X93.3500 Y67.3470
G01 X93.3460 Y67.3422
G01 X93.2858 Y67.2608
G01 X93.2314 Y67.1699
G01 X93.1888 Y67.0798
G01 X93.1864 Y67.0741
G01 X93.1524 Y66.9787
G01 X93.1277 Y66.8805
G01 X93.1265 Y66.8744
G01 X93.1117 Y66.7743
G01 X93.1066 Y66.6700
G01 X93.1117 Y66.5658
G01 X93.1265 Y66.4656
G01 X93.1277 Y66.4595
G01 X93.1524 Y66.3613
G01 X93.1864 Y66.2660
G01 X93.1888 Y66.2602
G01 X93.2314 Y66.1701
G01 X93.2858 Y66.0792
G01 X93.3460 Y65.9979
G01 X93.3500 Y65.9931
G01 X93.4159 Y65.9203
G01 X93.4203 Y65.9159
G01 X93.4954 Y65.8480
G01 X93.5563 Y65.8027
G01 X93.5563 Y64.8242
G01 X90.3551 Y61.6230
G01 X79.5437 Y61.6230
G01 X79.5436 Y62.0316
G01 X79.5407 Y62.0902
G01 X79.5321 Y62.1482
G01 X79.5172 Y62.2082
G01 X79.4981 Y62.2620
G01 X79.4957 Y62.2677
G01 X79.4712 Y62.3193
G01 X79.4419 Y62.3683
G01 X79.4384 Y62.3735
G01 X79.4053 Y62.4181
G01 X79.3639 Y62.4640
G01 X77.0037 Y64.8242
G01 X77.0037 Y65.8027
G01 X77.0646 Y65.8480
G01 X77.1397 Y65.9159
G01 X77.1441 Y65.9203
G01 X77.2100 Y65.9931
G01 X77.2139 Y65.9979
G01 X77.2742 Y66.0792
G01 X77.3271 Y66.1674
G01 X77.3724 Y66.2631
G01 X77.4076 Y66.3613
G01 X77.4329 Y66.4626
G01 X77.4484 Y66.5673
G01 X77.4534 Y66.6700
G01 X77.4483 Y66.7743
G01 X77.4329 Y66.8775
G01 X77.4076 Y66.9787
G01 X77.3724 Y67.0770
G01 X77.3278 Y67.1713
G01 X77.2742 Y67.2608
G01 X77.2110 Y67.3458
G01 X77.1419 Y67.4220
G01 X77.0669 Y67.4900
G01 X77.0621 Y67.4940
G01 X76.9833 Y67.5524
G01 X76.9781 Y67.5559
G01 X76.8913 Y67.6079
G01 X76.7969 Y67.6525
G01 X76.6987 Y67.6876
G01 X76.6005 Y67.7123
G01 X76.5944 Y67.7135
G01 X76.4973 Y67.7279
G01 X76.4911 Y67.7285
G01 X76.3900 Y67.7334
G01 X76.2857 Y67.7283
G01 X76.1825 Y67.7130
G01 X76.0843 Y67.6885
G01 X76.0783 Y67.6867
G01 X75.9830 Y67.6525
G01 X75.8887 Y67.6079
G01 X75.8018 Y67.5559
G01 X75.7966 Y67.5524
G01 X75.7178 Y67.4940
G01 X75.7130 Y67.4900
G01 X75.6380 Y67.4220
G01 X75.5680 Y67.3446
G01 X75.5058 Y67.2608
G01 X75.4537 Y67.1740
G01 X75.4507 Y67.1685
G01 X75.4088 Y67.0798
G01 X75.4064 Y67.0741
G01 X75.3724 Y66.9787
G01 X75.3470 Y66.8775
G01 X75.3317 Y66.7743
G01 X75.3267 Y66.6731
G01 X75.3267 Y66.6669
G01 X75.3315 Y66.5689
G01 X75.3321 Y66.5627
G01 X75.3470 Y66.4626
G01 X75.3724 Y66.3613
G01 X75.4075 Y66.2631
G01 X75.4507 Y66.1715
G01 X75.4537 Y66.1660
G01 X75.5058 Y66.0792
G01 X75.5660 Y65.9979
G01 X75.5700 Y65.9931
G01 X75.6359 Y65.9203
G01 X75.6403 Y65.9159
G01 X75.7154 Y65.8480
G01 X75.7763 Y65.8027
G01 X75.7763 Y64.5700
G01 X75.7791 Y64.5114
G01 X75.7881 Y64.4503
G01 X75.8019 Y64.3949
G01 X75.8037 Y64.3889
G01 X75.8230 Y64.3352
G01 X75.8474 Y64.2835
G01 X75.8503 Y64.2780
G01 X75.8789 Y64.2304
G01 X75.9156 Y64.1807
G01 X75.9560 Y64.1361
G01 X78.3163 Y61.7758
G01 X78.3163 Y59.9173
G01 X78.2554 Y59.8720
G01 X78.1803 Y59.8041
G01 X78.1759 Y59.7997
G01 X78.1100 Y59.7270
G01 X78.1060 Y59.7222
G01 X78.0458 Y59.6408
G01 X77.9914 Y59.5499
G01 X77.9488 Y59.4598
G01 X77.9464 Y59.4541
G01 X77.9124 Y59.3587
G01 X77.8877 Y59.2605
G01 X77.8865 Y59.2544
G01 X77.8717 Y59.1543
G01 X77.8666 Y59.0485
G01 X77.8715 Y58.9489
G01 X77.8721 Y58.9427
G01 X77.8870 Y58.8426
G01 X77.9115 Y58.7443
G01 X77.9133 Y58.7384
G01 X77.9475 Y58.6431
G01 X77.9921 Y58.5487
G01 X78.0458 Y58.4592
G01 X78.1060 Y58.3779
G01 X78.1100 Y58.3731
G01 X78.1759 Y58.3003
G01 X78.1803 Y58.2959
G01 X78.2554 Y58.2280
G01 X78.3163 Y58.1827
G01 X78.3163 Y54.9686
G01 X78.3193 Y54.9100
G01 X78.3276 Y54.8535
G01 X78.3288 Y54.8474
G01 X78.3427 Y54.7920
G01 X78.3619 Y54.7382
G01 X78.3643 Y54.7324
G01 X78.3888 Y54.6808
G01 X78.4189 Y54.6305
G01 X78.4556 Y54.5808
G01 X78.4960 Y54.5362
G01 X90.4915 Y42.5407
G01 X89.6160 Y41.6653
G01 X89.5766 Y41.6218
G01 X89.5415 Y41.5748
G01 X89.5381 Y41.5696
G01 X89.5088 Y41.5206
G01 X89.4830 Y41.4662
G01 X89.4627 Y41.4095
G01 X89.4488 Y41.3541
G01 X89.4476 Y41.3480
G01 X89.4393 Y41.2915
G01 X89.4363 Y41.2313
G01 X89.4363 Y34.9573
G01 X89.3754 Y34.9120
G01 X89.3003 Y34.8441
G01 X89.2959 Y34.8397
G01 X89.2300 Y34.7670
G01 X89.2260 Y34.7622
G01 X89.1658 Y34.6808
G01 X89.1114 Y34.5899
G01 X89.0688 Y34.4998
G01 X89.0664 Y34.4941
G01 X89.0324 Y34.3987
G01 X89.0077 Y34.3005
G01 X89.0065 Y34.2944
G01 X88.9917 Y34.1943
G01 X88.9866 Y34.0900
G01 X88.9917 Y33.9858
G01 X89.0065 Y33.8856
G01 X89.0077 Y33.8795
G01 X89.0324 Y33.7813
G01 X89.0664 Y33.6860
G01 X89.0688 Y33.6802
G01 X89.1114 Y33.5901
G01 X89.1658 Y33.4992
G01 X89.2260 Y33.4179
G01 X89.2300 Y33.4131
G01 X89.2959 Y33.3403
G01 X89.3003 Y33.3359
G01 X89.3754 Y33.2680
G01 X89.4363 Y33.2227
G01 X89.4363 Y32.4173
G01 X89.3754 Y32.3720
G01 X89.2980 Y32.3020
G01 X89.2280 Y32.2246
G01 X89.1827 Y32.1637
G01 X83.2973 Y32.1637
G01 X83.2520 Y32.2246
G01 X83.1841 Y32.2997
G01 X83.1797 Y32.3041
G01 X83.1046 Y32.3720
G01 X83.0208 Y32.4342
G01 X82.9340 Y32.4863
G01 X82.9285 Y32.4893
G01 X82.8369 Y32.5325
G01 X82.7416 Y32.5667
G01 X82.7357 Y32.5685
G01 X82.6374 Y32.5930
G01 X82.5342 Y32.6083
G01 X82.4331 Y32.6133
G01 X82.4269 Y32.6133
G01 X82.3257 Y32.6083
G01 X82.2256 Y32.5935
G01 X82.2195 Y32.5923
G01 X82.1213 Y32.5676
G01 X82.0230 Y32.5325
G01 X81.9287 Y32.4879
G01 X81.8418 Y32.4359
G01 X81.8366 Y32.4324
G01 X81.7554 Y32.3720
G01 X81.6803 Y32.3041
G01 X81.6759 Y32.2997
G01 X81.6100 Y32.2270
G01 X81.6060 Y32.2222
G01 X81.5458 Y32.1408
G01 X81.4921 Y32.0513
G01 X81.4475 Y31.9570
G01 X81.4124 Y31.8587
G01 X81.3870 Y31.7575
G01 X81.3721 Y31.6573
G01 X81.3715 Y31.6512
G01 X81.3666 Y31.5500
G01 X81.3715 Y31.4489
G01 X81.3721 Y31.4427
G01 X81.3865 Y31.3456
G01 X81.3877 Y31.3395
G01 X81.4124 Y31.2413
G01 X81.4475 Y31.1431
G01 X81.4921 Y31.0487
G01 X81.5441 Y30.9619
G01 X81.5476 Y30.9567
G01 X81.6080 Y30.8754
G01 X81.6759 Y30.8003
G01 X81.6803 Y30.7959
G01 X81.7554 Y30.7280
G01 X81.8392 Y30.6658
G01 X81.9287 Y30.6122
G01 X82.0202 Y30.5688
G01 X82.0259 Y30.5665
G01 X82.1213 Y30.5324
G01 X82.2195 Y30.5077
G01 X82.2256 Y30.5065
G01 X82.3257 Y30.4917
G01 X82.4269 Y30.4867
G01 X82.4331 Y30.4867
G01 X82.5342 Y30.4917
G01 X82.6344 Y30.5065
G01 X82.6405 Y30.5077
G01 X82.7387 Y30.5324
G01 X82.8340 Y30.5665
G01 X82.8398 Y30.5688
G01 X82.9299 Y30.6115
G01 X83.0208 Y30.6658
G01 X83.1021 Y30.7261
G01 X83.1069 Y30.7300
G01 X83.1797 Y30.7959
G01 X83.1841 Y30.8003
G01 X83.2520 Y30.8754
G01 X83.2973 Y30.9363
G01 X89.1827 Y30.9363
G01 X89.2280 Y30.8754
G01 X89.2959 Y30.8003
G01 X89.3003 Y30.7959
G01 X89.3730 Y30.7300
G01 X89.3778 Y30.7261
G01 X89.4592 Y30.6658
G01 X89.5487 Y30.6122
G01 X89.6430 Y30.5676
G01 X89.7383 Y30.5334
G01 X89.7443 Y30.5316
G01 X89.8425 Y30.5071
G01 X89.9427 Y30.4921
G01 X89.9488 Y30.4915
G01 X90.0484 Y30.4866
G01 X90.1542 Y30.4917
G01 X90.2574 Y30.5071
G01 X90.3587 Y30.5324
G01 X90.4569 Y30.5676
G01 X90.5513 Y30.6122
G01 X90.6408 Y30.6658
G01 X90.7246 Y30.7280
G01 X90.7997 Y30.7959
G01 X90.8041 Y30.8003
G01 X90.8720 Y30.8754
G01 X90.9342 Y30.9592
G01 X90.9878 Y31.0487
G01 X91.0312 Y31.1402
G01 X91.0335 Y31.1460
G01 X91.0666 Y31.2384
G01 X91.0684 Y31.2443
G01 X91.0929 Y31.3426
G01 X91.1079 Y31.4427
G01 X91.1085 Y31.4489
G01 X91.1134 Y31.5500
G01 X91.1085 Y31.6512
G01 X91.1079 Y31.6573
G01 X91.0929 Y31.7575
G01 X91.0676 Y31.8587
G01 X91.0324 Y31.9570
G01 X90.9871 Y32.0527
G01 X90.9342 Y32.1408
G01 X90.8739 Y32.2222
G01 X90.8700 Y32.2270
G01 X90.8041 Y32.2997
G01 X90.7997 Y32.3041
G01 X90.7246 Y32.3720
G01 X90.6637 Y32.4173
G01 X90.6637 Y33.2227
G01 X90.7246 Y33.2680
G01 X90.7997 Y33.3359
G01 X90.8041 Y33.3403
G01 X90.8700 Y33.4131
G01 X90.8739 Y33.4179
G01 X90.9342 Y33.4992
G01 X90.9885 Y33.5901
G01 X91.0312 Y33.6802
G01 X91.0335 Y33.6860
G01 X91.0676 Y33.7813
G01 X91.0923 Y33.8795
G01 X91.0935 Y33.8856
G01 X91.1083 Y33.9858
G01 X91.1134 Y34.0916
G01 X91.1085 Y34.1912
G01 X91.1079 Y34.1973
G01 X91.0929 Y34.2975
G01 X91.0684 Y34.3957
G01 X91.0666 Y34.4017
G01 X91.0324 Y34.4970
G01 X90.9878 Y34.5913
G01 X90.9342 Y34.6808
G01 X90.8739 Y34.7622
G01 X90.8700 Y34.7670
G01 X90.8041 Y34.8397
G01 X90.7997 Y34.8441
G01 X90.7246 Y34.9120
G01 X90.6637 Y34.9573
G01 X90.6637 Y40.9771
G01 X91.6136 Y41.9270
G01 X93.2109 Y41.9270
G01 X93.9019 Y41.2360
G01 X93.9019 Y19.4641
G01 X91.3615 Y16.9237
G01 X90.9173 Y16.9237
G01 X90.8720 Y16.9846
G01 X90.8041 Y17.0597
G01 X90.7997 Y17.0641
G01 X90.7269 Y17.1300
G01 X90.7221 Y17.1340
G01 X90.6408 Y17.1942
G01 X90.5526 Y17.2471
G01 X90.4569 Y17.2925
G01 X90.3587 Y17.3276
G01 X90.2574 Y17.3530
G01 X90.1542 Y17.3683
G01 X90.0500 Y17.3734
G01 X89.9457 Y17.3683
G01 X89.8425 Y17.3530
G01 X89.7413 Y17.3276
G01 X89.6430 Y17.2925
G01 X89.5487 Y17.2479
G01 X89.4592 Y17.1942
G01 X89.3766 Y17.1330
G01 X89.2980 Y17.0620
G01 X89.2300 Y16.9870
G01 X89.2260 Y16.9822
G01 X89.1676 Y16.9034
G01 X89.1641 Y16.8982
G01 X89.1121 Y16.8113
G01 X89.0675 Y16.7170
G01 X89.0324 Y16.6187
G01 X89.0070 Y16.5175
G01 X88.9917 Y16.4143
G01 X88.9867 Y16.3131
G01 X88.9867 Y16.3069
G01 X88.9915 Y16.2089
G01 X88.9921 Y16.2027
G01 X89.0070 Y16.1026
G01 X89.0324 Y16.0013
G01 X89.0675 Y15.9031
G01 X89.1114 Y15.8101
G01 X89.1641 Y15.7219
G01 X89.1676 Y15.7167
G01 X89.2280 Y15.6354
G01 X89.2959 Y15.5603
G01 X89.3003 Y15.5559
G01 X89.3754 Y15.4880
G01 X89.4566 Y15.4276
G01 X89.4618 Y15.4242
G01 X89.5487 Y15.3722
G01 X89.6402 Y15.3288
G01 X89.6459 Y15.3265
G01 X89.7413 Y15.2924
G01 X89.8395 Y15.2677
G01 X89.8456 Y15.2665
G01 X89.9457 Y15.2517
G01 X90.0484 Y15.2466
G01 X90.1542 Y15.2517
G01 X90.2544 Y15.2665
G01 X90.2605 Y15.2677
G01 X90.3587 Y15.2924
G01 X90.4540 Y15.3265
G01 X90.4598 Y15.3288
G01 X90.5499 Y15.3715
G01 X90.6408 Y15.4258
G01 X90.7221 Y15.4861
G01 X90.7269 Y15.4900
G01 X90.7997 Y15.5559
G01 X90.8041 Y15.5603
G01 X90.8720 Y15.6354
G01 X90.9173 Y15.6963
G01 X91.6157 Y15.6963
G01 X91.6743 Y15.6992
G01 X91.7354 Y15.7081
G01 X91.7938 Y15.7228
G01 X91.8505 Y15.7431
G01 X91.9036 Y15.7681
G01 X91.9540 Y15.7981
G01 X91.9592 Y15.8016
G01 X92.0050 Y15.8356
G01 X92.0496 Y15.8761
G01 X94.9495 Y18.7760
G01 X94.9900 Y18.8206
G01 X95.0267 Y18.8703
G01 X95.0568 Y18.9206
G01 X95.0813 Y18.9722
G01 X95.0837 Y18.9780
G01 X95.1028 Y19.0318
G01 X95.1168 Y19.0872
G01 X95.1180 Y19.0933
G01 X95.1263 Y19.1498
G01 X95.1293 Y19.2099
G01 X95.1293 Y41.4902
G01 X95.1263 Y41.5504
G01 X95.1175 Y41.6099
G01 X95.1028 Y41.6684
G01 X95.0825 Y41.7251
G01 X95.0568 Y41.7795
G01 X95.0258 Y41.8312
G01 X94.9900 Y41.8795
G01 X94.9495 Y41.9242
G01 X93.8979 Y42.9757
G01 X93.8544 Y43.0151
G01 X93.8060 Y43.0510
G01 X93.7544 Y43.0819
G01 X93.6999 Y43.1077
G01 X93.6432 Y43.1280
G01 X93.5848 Y43.1426
G01 X93.5252 Y43.1514
G01 X93.4666 Y43.1544
G01 X91.6136 Y43.1544
G01 X79.5437 Y55.2243
G01 X79.5437 Y58.1827
G01 X79.6046 Y58.2280
G01 X79.6797 Y58.2959
G01 X79.6841 Y58.3003
G01 X79.7500 Y58.3731
G01 X79.7539 Y58.3779
G01 X79.8142 Y58.4592
G01 X79.8685 Y58.5501
G01 X79.9112 Y58.6402
G01 X79.9135 Y58.6460
G01 X79.9476 Y58.7413
G01 X79.9723 Y58.8395
G01 X79.9735 Y58.8456
G01 X79.9883 Y58.9458
G01 X79.9934 Y59.0500
G01 X79.9883 Y59.1543
G01 X79.9735 Y59.2544
G01 X79.9723 Y59.2605
G01 X79.9476 Y59.3587
G01 X79.9135 Y59.4541
G01 X79.9112 Y59.4598
G01 X79.8685 Y59.5499
G01 X79.8142 Y59.6408
G01 X79.7539 Y59.7222
G01 X79.7500 Y59.7270
G01 X79.6841 Y59.7997
G01 X79.6797 Y59.8041
G01 X79.6046 Y59.8720
G01 X79.5437 Y59.9173
G01 X79.5437 Y60.3956
G01 X90.6093 Y60.3956
G01 X90.6663 Y60.3984
G01 X90.6725 Y60.3990
G01 X90.7290 Y60.4074
G01 X90.7844 Y60.4212
G01 X90.7904 Y60.4231
G01 X90.8441 Y60.4424
G01 X90.8958 Y60.4667
G01 X90.9013 Y60.4696
G01 X90.9502 Y60.4991
G01 X90.9961 Y60.5330
G01 X91.0009 Y60.5370
G01 X91.0432 Y60.5754
G01 X94.6039 Y64.1361
G01 X94.6444 Y64.1807
G01 X94.6802 Y64.2291
G01 X94.7112 Y64.2807
G01 X94.7375 Y64.3366
G01 X94.7572 Y64.3919
G01 X94.7719 Y64.4503
G01 X94.7807 Y64.5099
G01 X94.7836 Y64.5685
G01 X94.7837 Y65.8027
G01 X94.8446 Y65.8480
G01 X94.9197 Y65.9159
G01 X94.9241 Y65.9203
G01 X94.9900 Y65.9931
G01 X94.9939 Y65.9979
G01 X95.0542 Y66.0792
G01 X95.1085 Y66.1701
G01 X95.1512 Y66.2602
G01 X95.1535 Y66.2660
G01 X95.1876 Y66.3613
G01 X95.2123 Y66.4595
G01 X95.2135 Y66.4656
G01 X95.2283 Y66.5658
G01 X95.2334 Y66.6700
G01 X95.2283 Y66.7743
G01 X95.2135 Y66.8744
G01 X95.2123 Y66.8805
G01 X95.1876 Y66.9787
G01 X95.1535 Y67.0741
G01 X95.1512 Y67.0798
G01 X95.1085 Y67.1699
G01 X95.0542 Y67.2608
G01 X94.9939 Y67.3422
G01 X94.9900 Y67.3470
G01 X94.9241 Y67.4197
G01 X94.9197 Y67.4241
G01 X94.8446 Y67.4920
G01 X94.7837 Y67.5373
G01 X94.7837 Y68.7700
G01 X94.7808 Y68.8286
G01 X94.7719 Y68.8897
G01 X94.7581 Y68.9452
G01 X94.7562 Y68.9511
G01 X94.7381 Y69.0020
G01 X94.7357 Y69.0077
G01 X94.7112 Y69.0593
G01 X94.6819 Y69.1083
G01 X94.6784 Y69.1135
G01 X94.6444 Y69.1593
G01 X94.6039 Y69.2040
G01 X87.7591 Y76.0488
G01 X87.7145 Y76.0892
G01 X87.6648 Y76.1259
G01 X87.6145 Y76.1560
G01 X87.5629 Y76.1805
G01 X87.5571 Y76.1829
G01 X87.5033 Y76.2021
G01 X87.4479 Y76.2160
G01 X87.4418 Y76.2172
G01 X87.3853 Y76.2255
G01 X87.3252 Y76.2285
G01 X47.7898 Y76.2285
G01 X47.7281 Y76.2254
G01 X47.6701 Y76.2167
G01 X47.6116 Y76.2021
G01 X47.5549 Y76.1818
G01 X47.5033 Y76.1574
G01 X47.4978 Y76.1545
G01 X47.4515 Y76.1267
G01 X47.4463 Y76.1233
G01 X47.4005 Y76.0892
G01 X47.3570 Y76.0498
G01 X41.1450 Y69.8379
G01 X36.6168 Y74.3661
G01 X36.5722 Y74.4065
G01 X36.5238 Y74.4424
G01 X36.4722 Y74.4733
G01 X36.4191 Y74.4985
G01 X36.3610 Y74.5194
G01 X36.3026 Y74.5340
G01 X36.2430 Y74.5428
G01 X36.1829 Y74.5458
G01 X30.5534 Y74.5458
G01 X30.4917 Y74.5427
G01 X30.4337 Y74.5340
G01 X30.3752 Y74.5194
G01 X30.3185 Y74.4991
G01 X30.2669 Y74.4747
G01 X30.2614 Y74.4718
G01 X30.2151 Y74.4440
G01 X30.2099 Y74.4406
G01 X30.1641 Y74.4065
G01 X30.1206 Y74.3671
G01 X23.8582 Y68.1048
G01 X21.5899 Y70.3730
G01 X21.5487 Y70.4104
G01 X21.5439 Y70.4143
G01 X21.4980 Y70.4483
G01 X21.4491 Y70.4777
G01 X21.4436 Y70.4806
G01 X21.3919 Y70.5050
G01 X21.3367 Y70.5248
G01 X21.2798 Y70.5392
G01 X21.2737 Y70.5404
G01 X21.2172 Y70.5487
G01 X21.1571 Y70.5517
G01 X16.7231 Y70.5517
G01 X15.8837 Y71.3911
G01 X15.9342 Y71.4592
G01 X15.9863 Y71.5460
G01 X15.9892 Y71.5515
G01 X16.0312 Y71.6402
G01 X16.0335 Y71.6460
G01 X16.0676 Y71.7413
G01 X16.0929 Y71.8426
G01 X16.1083 Y71.9458
G01 X16.1133 Y72.0469
G01 X16.1133 Y72.0531
G01 X16.1083 Y72.1543
G01 X16.0935 Y72.2544
G01 X16.0923 Y72.2605
G01 X16.0676 Y72.3587
G01 X16.0324 Y72.4570
G01 X15.9892 Y72.5485
G01 X15.9863 Y72.5540
G01 X15.9342 Y72.6408
G01 X15.8739 Y72.7222
G01 X15.8700 Y72.7270
G01 X15.8019 Y72.8020
G01 X15.7246 Y72.8720
G01 X15.6433 Y72.9324
G01 X15.6381 Y72.9359
G01 X15.5513 Y72.9879
G01 X15.4598 Y73.0312
G01 X15.4540 Y73.0336
G01 X15.3601 Y73.0672
G01 X15.2574 Y73.0930
G01 X15.1542 Y73.1083
G01 X15.0500 Y73.1134
G01 X14.9488 Y73.1085
G01 X14.9427 Y73.1079
G01 X14.8425 Y73.0930
G01 X14.7443 Y73.0685
G01 X14.7383 Y73.0667
G01 X14.6459 Y73.0336
G01 X14.6402 Y73.0312
G01 X14.5487 Y72.9879
G01 X14.4592 Y72.9342
G01 X14.3754 Y72.8720
G01 X14.2980 Y72.8020
G01 X14.2280 Y72.7246
G01 X14.1658 Y72.6408
G01 X14.1121 Y72.5513
G01 X14.0688 Y72.4598
G01 X14.0664 Y72.4541
G01 X14.0333 Y72.3617
G01 X14.0315 Y72.3557
G01 X14.0070 Y72.2575
G01 X13.9921 Y72.1573
G01 X13.9915 Y72.1512
G01 X13.9866 Y72.0500
G01 X13.9917 Y71.9458
G01 X14.0070 Y71.8426
G01 X14.0324 Y71.7413
G01 X14.0675 Y71.6431
G01 X14.1121 Y71.5487
G01 X14.1658 Y71.4592
G01 X14.2260 Y71.3779
G01 X14.2300 Y71.3731
G01 X14.2980 Y71.2981
G01 X14.3730 Y71.2300
G01 X14.3778 Y71.2261
G01 X14.4566 Y71.1676
G01 X14.4695 Y71.1596
G00 Z2.0000
G00 X21.1628 Y71.4363
G01 F60.00
G01 Z-0.0500
G01 F120.00
G01 X21.2222 Y71.3826
G01 X21.2903 Y71.3321
G01 X21.3630 Y71.2886
G01 X21.4367 Y71.2536
G01 X21.4425 Y71.2512
G01 X21.5164 Y71.2248
G01 X21.5223 Y71.2230
G01 X21.6015 Y71.2032
G01 X21.6869 Y71.1906
G01 X21.7700 Y71.1866
G01 X22.1700 Y71.1866
G01 X22.2515 Y71.1906
G01 X22.2577 Y71.1912
G01 X22.3384 Y71.2032
G01 X22.4176 Y71.2230
G01 X22.4236 Y71.2248
G01 X22.4975 Y71.2512
G01 X22.5032 Y71.2536
G01 X22.5770 Y71.2886
G01 X22.6484 Y71.3313
G01 X22.7177 Y71.3826
G01 X22.7805 Y71.4395
G01 X22.8374 Y71.5023
G01 X22.8879 Y71.5703
G01 X22.9314 Y71.6430
G01 X22.9677 Y71.7196
G01 X22.9962 Y71.7994
G01 X23.0168 Y71.8816
G01 X23.0292 Y71.9654
G01 X23.0334 Y72.0500
G01 X23.0292 Y72.1347
G01 X23.0168 Y72.2185
G01 X22.9962 Y72.3007
G01 X22.9677 Y72.3804
G01 X22.9314 Y72.4570
G01 X22.8887 Y72.5284
G01 X22.8374 Y72.5978
G01 X22.7805 Y72.6605
G01 X22.7177 Y72.7174
G01 X22.6522 Y72.7661
G01 X22.6470 Y72.7696
G01 X22.5770 Y72.8115
G01 X22.5032 Y72.8464
G01 X22.4975 Y72.8488
G01 X22.4236 Y72.8753
G01 X22.4176 Y72.8771
G01 X22.3384 Y72.8968
G01 X22.2531 Y72.9094
G01 X22.1700 Y72.9134
G01 X21.7684 Y72.9134
G01 X21.6853 Y72.9093
G01 X21.6000 Y72.8965
G01 X21.5193 Y72.8762
G01 X21.4425 Y72.8488
G01 X21.4367 Y72.8464
G01 X21.3630 Y72.8115
G01 X21.2929 Y72.7696
G01 X21.2878 Y72.7661
G01 X21.2222 Y72.7174
G01 X21.1628 Y72.6637
G01 X18.6534 Y72.6637
G01 X18.6534 Y73.0500
G01 X18.6529 Y73.0578
G01 X18.6511 Y73.0669
G01 X18.6479 Y73.0757
G01 X18.6427 Y73.0852
G01 X18.6370 Y73.0926
G01 X18.6302 Y73.0990
G01 X18.6212 Y73.1052
G01 X18.6113 Y73.1097
G01 X18.6023 Y73.1122
G01 X18.5962 Y73.1131
G01 X18.5900 Y73.1134
G01 X16.5884 Y73.1134
G01 X16.5791 Y73.1125
G01 X16.5701 Y73.1102
G01 X16.5601 Y73.1059
G01 X16.5522 Y73.1009
G01 X16.5451 Y73.0949
G01 X16.5391 Y73.0878
G01 X16.5341 Y73.0799
G01 X16.5303 Y73.0714
G01 X16.5275 Y73.0609
G01 X16.5266 Y73.0500
G01 X16.5266 Y71.0485
G01 X16.5275 Y71.0392
G01 X16.5298 Y71.0301
G01 X16.5341 Y71.0201
G01 X16.5391 Y71.0123
G01 X16.5451 Y71.0052
G01 X16.5522 Y70.9991
G01 X16.5601 Y70.9941
G01 X16.5686 Y70.9903
G01 X16.5791 Y70.9876
G01 X16.5900 Y70.9866
G01 X18.5900 Y70.9866
G01 X18.5962 Y70.9869
G01 X18.6039 Y70.9882
G01 X18.6128 Y70.9909
G01 X18.6212 Y70.9949
G01 X18.6302 Y71.0010
G01 X18.6370 Y71.0074
G01 X18.6427 Y71.0148
G01 X18.6479 Y71.0243
G01 X18.6511 Y71.0331
G01 X18.6531 Y71.0438
G01 X18.6534 Y71.0500
G01 X18.6534 Y71.4363
G01 X21.1628 Y71.4363
G00 Z2.0000
G00 X21.1628 Y65.9363
G01 F60.00
G01 Z-0.0500
G01 F120.00
G01 X21.2222 Y65.8826
G01 X21.2903 Y65.8321
G01 X21.3630 Y65.7886
G01 X21.4367 Y65.7536
G01 X21.4425 Y65.7512
G01 X21.5164 Y65.7248
G01 X21.5223 Y65.7230
G01 X21.6015 Y65.7032
G01 X21.6869 Y65.6906
G01 X21.7700 Y65.6866
G01 X22.1700 Y65.6866
G01 X22.2515 Y65.6906
G01 X22.2577 Y65.6912
G01 X22.3384 Y65.7032
G01 X22.4176 Y65.7230
G01 X22.4236 Y65.7248
G01 X22.4975 Y65.7512
G01 X22.5032 Y65.7536
G01 X22.5770 Y65.7886
G01 X22.6484 Y65.8313
G01 X22.7177 Y65.8826
G01 X22.7805 Y65.9395
G01 X22.8374 Y66.0023
G01 X22.8879 Y66.0703
G01 X22.9314 Y66.1430
G01 X22.9677 Y66.2196
G01 X22.9962 Y66.2994
G01 X23.0168 Y66.3816
G01 X23.0292 Y66.4654
G01 X23.0334 Y66.5500
G01 X23.0292 Y66.6347
G01 X23.0168 Y66.7185
G01 X22.9962 Y66.8007
G01 X22.9677 Y66.8804
G01 X22.9314 Y66.9570
G01 X22.8887 Y67.0284
G01 X22.8374 Y67.0978
G01 X22.7805 Y67.1605
G01 X22.7177 Y67.2174
G01 X22.6522 Y67.2661
G01 X22.6470 Y67.2696
G01 X22.5770 Y67.3115
G01 X22.5032 Y67.3464
G01 X22.4975 Y67.3488
G01 X22.4236 Y67.3753
G01 X22.4176 Y67.3771
G01 X22.3384 Y67.3968
G01 X22.2546 Y67.4093
G01 X22.1700 Y67.4134
G01 X21.7684 Y67.4134
G01 X21.6853 Y67.4093
G01 X21.6000 Y67.3965
G01 X21.5193 Y67.3762
G01 X21.4425 Y67.3488
G01 X21.4367 Y67.3464
G01 X21.3630 Y67.3115
G01 X21.2929 Y67.2696
G01 X21.2878 Y67.2661
G01 X21.2222 Y67.2174
G01 X21.1628 Y67.1637
G01 X19.1534 Y67.1637
G01 X19.1534 Y67.5500
G01 X19.1529 Y67.5578
G01 X19.1511 Y67.5669
G01 X19.1479 Y67.5757
G01 X19.1427 Y67.5852
G01 X19.1370 Y67.5926
G01 X19.1302 Y67.5990
G01 X19.1212 Y67.6052
G01 X19.1113 Y67.6097
G01 X19.1023 Y67.6122
G01 X19.0962 Y67.6131
G01 X19.0900 Y67.6134
G01 X17.0884 Y67.6134
G01 X17.0791 Y67.6125
G01 X17.0701 Y67.6102
G01 X17.0615 Y67.6067
G01 X17.0535 Y67.6019
G01 X17.0463 Y67.5959
G01 X17.0400 Y67.5890
G01 X17.0348 Y67.5813
G01 X17.0308 Y67.5728
G01 X17.0278 Y67.5624
G01 X17.0269 Y67.5562
G01 X17.0266 Y67.5500
G01 X17.0266 Y65.5485
G01 X17.0275 Y65.5392
G01 X17.0298 Y65.5301
G01 X17.0333 Y65.5215
G01 X17.0381 Y65.5135
G01 X17.0441 Y65.5063
G01 X17.0510 Y65.5000
G01 X17.0587 Y65.4949
G01 X17.0672 Y65.4909
G01 X17.0731 Y65.4889
G01 X17.0791 Y65.4876
G01 X17.0900 Y65.4866
G01 X19.0900 Y65.4866
G01 X19.0962 Y65.4869
G01 X19.1069 Y65.4889
G01 X19.1171 Y65.4927
G01 X19.1265 Y65.4982
G01 X19.1348 Y65.5052
G01 X19.1418 Y65.5135
G01 X19.1473 Y65.5229
G01 X19.1506 Y65.5316
G01 X19.1529 Y65.5423
G01 X19.1534 Y65.5500
G01 X19.1534 Y65.9363
G01 X21.1628 Y65.9363
G00 Z2.0000
G00 X21.1628 Y60.3863
G01 F60.00
G01 Z-0.0500
G01 F120.00
G01 X21.2222 Y60.3326
G01 X21.2903 Y60.2821
G01 X21.3630 Y60.2386
G01 X21.4367 Y60.2036
G01 X21.4425 Y60.2012
G01 X21.5164 Y60.1748
G01 X21.5223 Y60.1730
G01 X21.6015 Y60.1532
G01 X21.6869 Y60.1406
G01 X21.7700 Y60.1366
G01 X22.1700 Y60.1366
G01 X22.2515 Y60.1406
G01 X22.2577 Y60.1412
G01 X22.3384 Y60.1532
G01 X22.4176 Y60.1730
G01 X22.4236 Y60.1748
G01 X22.4975 Y60.2012
G01 X22.5032 Y60.2036
G01 X22.5770 Y60.2386
G01 X22.6484 Y60.2813
G01 X22.7177 Y60.3326
G01 X22.7805 Y60.3895
G01 X22.8374 Y60.4523
G01 X22.8879 Y60.5203
G01 X22.9314 Y60.5930
G01 X22.9677 Y60.6696
G01 X22.9962 Y60.7494
G01 X23.0168 Y60.8316
G01 X23.0292 Y60.9154
G01 X23.0334 Y61.0000
G01 X23.0292 Y61.0847
G01 X23.0168 Y61.1685
G01 X22.9962 Y61.2507
G01 X22.9677 Y61.3304
G01 X22.9314 Y61.4070
G01 X22.8887 Y61.4784
G01 X22.8374 Y61.5478
G01 X22.7805 Y61.6105
G01 X22.7177 Y61.6674
G01 X22.6522 Y61.7161
G01 X22.6470 Y61.7196
G01 X22.5770 Y61.7615
G01 X22.5032 Y61.7964
G01 X22.4975 Y61.7988
G01 X22.4236 Y61.8253
G01 X22.4176 Y61.8271
G01 X22.3384 Y61.8468
G01 X22.2531 Y61.8594
G01 X22.1700 Y61.8634
G01 X21.7684 Y61.8634
G01 X21.6853 Y61.8593
G01 X21.6000 Y61.8465
G01 X21.5193 Y61.8262
G01 X21.4425 Y61.7988
G01 X21.4367 Y61.7964
G01 X21.3630 Y61.7615
G01 X21.2929 Y61.7196
G01 X21.2878 Y61.7161
G01 X21.2222 Y61.6674
G01 X21.1628 Y61.6137
G01 X20.0619 Y61.6137
G01 X20.0519 Y61.6181
G01 X19.9981 Y61.6373
G01 X19.9397 Y61.6519
G01 X19.8801 Y61.6607
G01 X19.8231 Y61.6636
G01 X18.8884 Y61.6637
G01 X18.8884 Y61.9500
G01 X18.8874 Y61.9609
G01 X18.8852 Y61.9699
G01 X18.8809 Y61.9799
G01 X18.8750 Y61.9890
G01 X18.8676 Y61.9970
G01 X18.8589 Y62.0036
G01 X18.8507 Y62.0080
G01 X18.8419 Y62.0111
G01 X18.8312 Y62.0131
G01 X18.8250 Y62.0134
G01 X16.8234 Y62.0134
G01 X16.8141 Y62.0125
G01 X16.8036 Y62.0097
G01 X16.7951 Y62.0059
G01 X16.7872 Y62.0009
G01 X16.7801 Y61.9949
G01 X16.7741 Y61.9878
G01 X16.7691 Y61.9799
G01 X16.7653 Y61.9714
G01 X16.7625 Y61.9609
G01 X16.7616 Y61.9500
G01 X16.7616 Y60.1485
G01 X16.7625 Y60.1392
G01 X16.7648 Y60.1301
G01 X16.7683 Y60.1215
G01 X16.7731 Y60.1135
G01 X16.7791 Y60.1063
G01 X16.7860 Y60.1000
G01 X16.7951 Y60.0941
G01 X16.8036 Y60.0903
G01 X16.8141 Y60.0876
G01 X16.8250 Y60.0866
G01 X18.8250 Y60.0866
G01 X18.8358 Y60.0876
G01 X18.8463 Y60.0903
G01 X18.8549 Y60.0941
G01 X18.8627 Y60.0991
G01 X18.8698 Y60.1052
G01 X18.8768 Y60.1135
G01 X18.8816 Y60.1215
G01 X18.8856 Y60.1316
G01 X18.8877 Y60.1407
G01 X18.8884 Y60.1500
G01 X18.8884 Y60.4363
G01 X19.6280 Y60.4363
G01 X19.6380 Y60.4319
G01 X19.6918 Y60.4128
G01 X19.7503 Y60.3981
G01 X19.8098 Y60.3893
G01 X19.8684 Y60.3864
G01 X21.1628 Y60.3863
G00 Z2.0000
G00 X31.5163 Y65.6827
G01 F60.00
G01 Z-0.0500
G01 F120.00
G01 X31.5163 Y61.8673
G01 X31.4554 Y61.8220
G01 X31.3780 Y61.7520
G01 X31.3080 Y61.6746
G01 X31.2476 Y61.5934
G01 X31.2441 Y61.5882
G01 X31.1937 Y61.5040
G01 X31.1907 Y61.4985
G01 X31.1475 Y61.4070
G01 X31.1128 Y61.3102
G01 X31.0877 Y61.2105
G01 X31.0865 Y61.2044
G01 X31.0717 Y61.1043
G01 X31.0666 Y61.0000
G01 X31.0717 Y60.8958
G01 X31.0865 Y60.7956
G01 X31.0877 Y60.7895
G01 X31.1128 Y60.6899
G01 X31.1475 Y60.5931
G01 X31.1921 Y60.4987
G01 X31.2458 Y60.4092
G01 X31.3060 Y60.3279
G01 X31.3100 Y60.3231
G01 X31.3759 Y60.2503
G01 X31.3803 Y60.2459
G01 X31.4554 Y60.1780
G01 X31.5366 Y60.1176
G01 X31.5418 Y60.1142
G01 X31.6287 Y60.0622
G01 X31.7230 Y60.0176
G01 X31.8213 Y59.9824
G01 X31.9225 Y59.9571
G01 X32.0257 Y59.9417
G01 X32.1300 Y59.9366
G01 X32.2342 Y59.9417
G01 X32.3093 Y59.9528
G01 X34.0621 Y58.2000
G01 X32.7139 Y56.8517
G01 X32.6756 Y56.8093
G01 X32.6415 Y56.7635
G01 X32.6381 Y56.7583
G01 X32.6088 Y56.7093
G01 X32.5830 Y56.6549
G01 X32.5637 Y56.6011
G01 X32.5619 Y56.5952
G01 X32.5488 Y56.5428
G01 X32.5476 Y56.5367
G01 X32.5393 Y56.4802
G01 X32.5363 Y56.4200
G01 X32.5363 Y40.2037
G01 X31.9173 Y40.2037
G01 X31.8720 Y40.2646
G01 X31.8041 Y40.3397
G01 X31.7997 Y40.3441
G01 X31.7269 Y40.4100
G01 X31.7221 Y40.4140
G01 X31.6408 Y40.4742
G01 X31.5513 Y40.5279
G01 X31.4569 Y40.5725
G01 X31.3616 Y40.6067
G01 X31.3557 Y40.6085
G01 X31.2574 Y40.6330
G01 X31.1573 Y40.6479
G01 X31.1511 Y40.6485
G01 X31.0515 Y40.6534
G01 X30.9457 Y40.6483
G01 X30.8425 Y40.6330
G01 X30.7413 Y40.6076
G01 X30.6459 Y40.5736
G01 X30.6402 Y40.5712
G01 X30.5487 Y40.5279
G01 X30.4618 Y40.4759
G01 X30.4566 Y40.4724
G01 X30.3754 Y40.4120
G01 X30.3003 Y40.3441
G01 X30.2959 Y40.3397
G01 X30.2300 Y40.2670
G01 X30.2260 Y40.2622
G01 X30.1676 Y40.1834
G01 X30.1641 Y40.1782
G01 X30.1121 Y40.0913
G01 X30.0675 Y39.9970
G01 X30.0333 Y39.9017
G01 X30.0315 Y39.8957
G01 X30.0070 Y39.7975
G01 X29.9921 Y39.6973
G01 X29.9915 Y39.6912
G01 X29.9866 Y39.5900
G01 X29.9915 Y39.4889
G01 X29.9921 Y39.4827
G01 X30.0070 Y39.3826
G01 X30.0315 Y39.2843
G01 X30.0333 Y39.2784
G01 X30.0664 Y39.1860
G01 X30.0688 Y39.1802
G01 X30.1121 Y39.0887
G01 X30.1641 Y39.0019
G01 X30.1676 Y38.9967
G01 X30.2280 Y38.9154
G01 X30.2959 Y38.8403
G01 X30.3003 Y38.8359
G01 X30.3754 Y38.7680
G01 X30.4592 Y38.7058
G01 X30.5487 Y38.6522
G01 X30.6402 Y38.6088
G01 X30.6459 Y38.6065
G01 X30.7413 Y38.5724
G01 X30.8395 Y38.5477
G01 X30.8456 Y38.5465
G01 X30.9457 Y38.5317
G01 X31.0484 Y38.5266
G01 X31.1542 Y38.5317
G01 X31.2544 Y38.5465
G01 X31.2605 Y38.5477
G01 X31.3587 Y38.5724
G01 X31.4540 Y38.6065
G01 X31.4598 Y38.6088
G01 X31.5499 Y38.6515
G01 X31.6408 Y38.7058
G01 X31.7221 Y38.7661
G01 X31.7269 Y38.7700
G01 X31.7997 Y38.8359
G01 X31.8041 Y38.8403
G01 X31.8720 Y38.9154
G01 X31.9173 Y38.9763
G01 X33.1515 Y38.9764
G01 X33.2101 Y38.9793
G01 X33.2666 Y38.9876
G01 X33.2727 Y38.9888
G01 X33.3251 Y39.0019
G01 X33.3311 Y39.0038
G01 X33.3848 Y39.0231
G01 X33.4365 Y39.0474
G01 X33.4420 Y39.0503
G01 X33.4909 Y39.0798
G01 X33.5368 Y39.1137
G01 X33.5416 Y39.1177
G01 X33.5839 Y39.1561
G01 X33.6223 Y39.1984
G01 X33.6263 Y39.2032
G01 X33.6602 Y39.2491
G01 X33.6897 Y39.2980
G01 X33.6926 Y39.3035
G01 X33.7169 Y39.3552
G01 X33.7362 Y39.4089
G01 X33.7381 Y39.4149
G01 X33.7515 Y39.4688
G01 X33.7607 Y39.5299
G01 X33.7637 Y39.5900
G01 X33.7637 Y56.1658
G01 X35.1842 Y57.5863
G01 X40.8908 Y57.5863
G01 X41.7610 Y56.7161
G01 X41.8045 Y56.6766
G01 X41.8540 Y56.6398
G01 X41.9030 Y56.6103
G01 X41.9085 Y56.6074
G01 X41.9601 Y56.5831
G01 X42.0139 Y56.5638
G01 X42.0198 Y56.5619
G01 X42.0753 Y56.5481
G01 X42.1348 Y56.5393
G01 X42.1950 Y56.5363
G01 X46.2250 Y56.5363
G01 X46.2836 Y56.5392
G01 X46.3416 Y56.5476
G01 X46.3477 Y56.5488
G01 X46.4031 Y56.5628
G01 X46.4598 Y56.5831
G01 X46.5115 Y56.6074
G01 X46.5170 Y56.6103
G01 X46.5659 Y56.6398
G01 X46.6118 Y56.6737
G01 X46.6166 Y56.6777
G01 X46.6589 Y56.7161
G01 X46.6973 Y56.7584
G01 X46.7013 Y56.7632
G01 X46.7352 Y56.8091
G01 X46.7647 Y56.8580
G01 X46.7676 Y56.8635
G01 X46.7925 Y56.9166
G01 X46.8122 Y56.9719
G01 X46.8269 Y57.0303
G01 X46.8357 Y57.0899
G01 X46.8386 Y57.1485
G01 X46.8387 Y58.3827
G01 X46.8996 Y58.4280
G01 X46.9769 Y58.4981
G01 X47.0470 Y58.5754
G01 X47.0923 Y58.6363
G01 X47.8977 Y58.6363
G01 X47.9430 Y58.5754
G01 X48.0109 Y58.5003
G01 X48.0153 Y58.4959
G01 X48.0880 Y58.4300
G01 X48.0928 Y58.4261
G01 X48.1742 Y58.3658
G01 X48.2651 Y58.3115
G01 X48.3552 Y58.2688
G01 X48.3609 Y58.2665
G01 X48.4563 Y58.2324
G01 X48.5545 Y58.2077
G01 X48.5606 Y58.2065
G01 X48.6607 Y58.1917
G01 X48.7650 Y58.1866
G01 X48.8692 Y58.1917
G01 X48.9694 Y58.2065
G01 X48.9755 Y58.2077
G01 X49.0737 Y58.2324
G01 X49.1690 Y58.2665
G01 X49.1748 Y58.2688
G01 X49.2649 Y58.3115
G01 X49.3558 Y58.3658
G01 X49.4371 Y58.4261
G01 X49.4419 Y58.4300
G01 X49.5147 Y58.4959
G01 X49.5191 Y58.5003
G01 X49.5870 Y58.5754
G01 X49.6323 Y58.6363
G01 X50.4377 Y58.6363
G01 X50.4830 Y58.5754
G01 X50.5509 Y58.5003
G01 X50.5553 Y58.4959
G01 X50.6280 Y58.4300
G01 X50.6328 Y58.4261
G01 X50.7142 Y58.3658
G01 X50.8051 Y58.3115
G01 X50.8952 Y58.2688
G01 X50.9009 Y58.2665
G01 X50.9963 Y58.2324
G01 X51.0945 Y58.2077
G01 X51.1006 Y58.2065
G01 X51.2007 Y58.1917
G01 X51.3050 Y58.1866
G01 X51.4092 Y58.1917
G01 X51.5094 Y58.2065
G01 X51.5155 Y58.2077
G01 X51.6137 Y58.2324
G01 X51.7090 Y58.2665
G01 X51.7148 Y58.2688
G01 X51.8049 Y58.3115
G01 X51.8958 Y58.3658
G01 X51.9771 Y58.4261
G01 X51.9819 Y58.4300
G01 X52.0547 Y58.4959
G01 X52.0591 Y58.5003
G01 X52.1270 Y58.5754
G01 X52.1723 Y58.6363
G01 X52.9777 Y58.6363
G01 X53.0230 Y58.5754
G01 X53.0909 Y58.5003
G01 X53.0953 Y58.4959
G01 X53.1704 Y58.4280
G01 X53.2516 Y58.3676
G01 X53.2568 Y58.3642
G01 X53.3437 Y58.3122
G01 X53.4352 Y58.2688
G01 X53.4409 Y58.2665
G01 X53.5363 Y58.2324
G01 X53.6345 Y58.2077
G01 X53.6406 Y58.2065
G01 X53.7407 Y58.1917
G01 X53.8419 Y58.1867
G01 X53.8481 Y58.1867
G01 X53.9477 Y58.1916
G01 X54.0524 Y58.2071
G01 X54.1537 Y58.2324
G01 X54.2519 Y58.2676
G01 X54.3435 Y58.3108
G01 X54.3490 Y58.3137
G01 X54.4331 Y58.3642
G01 X54.4383 Y58.3676
G01 X54.5196 Y58.4280
G01 X54.5947 Y58.4959
G01 X54.5991 Y58.5003
G01 X54.6670 Y58.5754
G01 X54.7292 Y58.6592
G01 X54.7828 Y58.7487
G01 X54.8274 Y58.8431
G01 X54.8626 Y58.9413
G01 X54.8879 Y59.0426
G01 X54.9033 Y59.1458
G01 X54.9084 Y59.2485
G01 X54.9033 Y59.3543
G01 X54.8885 Y59.4544
G01 X54.8873 Y59.4605
G01 X54.8626 Y59.5587
G01 X54.8285 Y59.6541
G01 X54.8262 Y59.6598
G01 X54.7835 Y59.7499
G01 X54.7292 Y59.8408
G01 X54.6689 Y59.9222
G01 X54.6650 Y59.9270
G01 X54.5991 Y59.9997
G01 X54.5947 Y60.0041
G01 X54.5196 Y60.0720
G01 X54.4587 Y60.1173
G01 X54.4587 Y61.8137
G01 X54.5196 Y61.8590
G01 X54.5947 Y61.9269
G01 X54.5991 Y61.9313
G01 X54.6680 Y62.0076
G01 X54.7292 Y62.0902
G01 X54.7813 Y62.1770
G01 X54.7842 Y62.1825
G01 X54.8280 Y62.2755
G01 X54.8626 Y62.3723
G01 X54.8873 Y62.4705
G01 X54.8885 Y62.4766
G01 X54.9033 Y62.5768
G01 X54.9084 Y62.6810
G01 X54.9035 Y62.7822
G01 X54.9029 Y62.7883
G01 X54.8876 Y62.8900
G01 X54.8626 Y62.9897
G01 X54.8274 Y63.0880
G01 X54.7828 Y63.1823
G01 X54.7308 Y63.2692
G01 X54.7274 Y63.2744
G01 X54.6689 Y63.3532
G01 X54.6650 Y63.3580
G01 X54.5969 Y63.4330
G01 X54.5196 Y63.5030
G01 X54.4358 Y63.5652
G01 X54.3463 Y63.6189
G01 X54.2519 Y63.6635
G01 X54.1566 Y63.6977
G01 X54.1507 Y63.6995
G01 X54.0555 Y63.7233
G01 X54.0494 Y63.7245
G01 X53.9492 Y63.7393
G01 X53.8434 Y63.7444
G01 X53.7407 Y63.7393
G01 X53.6375 Y63.7240
G01 X53.5363 Y63.6986
G01 X53.4409 Y63.6646
G01 X53.4352 Y63.6622
G01 X53.3465 Y63.6203
G01 X53.3410 Y63.6173
G01 X53.2542 Y63.5652
G01 X53.1704 Y63.5030
G01 X53.0930 Y63.4330
G01 X53.0250 Y63.3580
G01 X53.0210 Y63.3532
G01 X52.9626 Y63.2744
G01 X52.9591 Y63.2692
G01 X52.9071 Y63.1823
G01 X52.8625 Y63.0880
G01 X52.8274 Y62.9897
G01 X52.8023 Y62.8900
G01 X52.7871 Y62.7883
G01 X52.7865 Y62.7822
G01 X52.7816 Y62.6810
G01 X52.7867 Y62.5768
G01 X52.8015 Y62.4766
G01 X52.8027 Y62.4705
G01 X52.8274 Y62.3723
G01 X52.8619 Y62.2755
G01 X52.9057 Y62.1825
G01 X52.9087 Y62.1770
G01 X52.9608 Y62.0902
G01 X53.0220 Y62.0076
G01 X53.0909 Y61.9313
G01 X53.0953 Y61.9269
G01 X53.1704 Y61.8590
G01 X53.2313 Y61.8137
G01 X53.2313 Y60.1173
G01 X53.1704 Y60.0720
G01 X53.0930 Y60.0020
G01 X53.0230 Y59.9246
G01 X52.9777 Y59.8637
G01 X52.1723 Y59.8637
G01 X52.1270 Y59.9246
G01 X52.0591 Y59.9997
G01 X52.0547 Y60.0041
G01 X51.9819 Y60.0700
G01 X51.9771 Y60.0740
G01 X51.8958 Y60.1342
G01 X51.8076 Y60.1871
G01 X51.7119 Y60.2325
G01 X51.6137 Y60.2676
G01 X51.5124 Y60.2930
G01 X51.4123 Y60.3079
G01 X51.4061 Y60.3085
G01 X51.3050 Y60.3134
G01 X51.2038 Y60.3085
G01 X51.1977 Y60.3079
G01 X51.1006 Y60.2935
G01 X51.0945 Y60.2923
G01 X50.9963 Y60.2676
G01 X50.9009 Y60.2336
G01 X50.8952 Y60.2312
G01 X50.8037 Y60.1879
G01 X50.7168 Y60.1359
G01 X50.7116 Y60.1324
G01 X50.6304 Y60.0720
G01 X50.5553 Y60.0041
G01 X50.5509 Y59.9997
G01 X50.4830 Y59.9246
G01 X50.4377 Y59.8637
G01 X49.6323 Y59.8637
G01 X49.5870 Y59.9246
G01 X49.5191 Y59.9997
G01 X49.5147 Y60.0041
G01 X49.4419 Y60.0700
G01 X49.4371 Y60.0740
G01 X49.3558 Y60.1342
G01 X49.2676 Y60.1871
G01 X49.1719 Y60.2325
G01 X49.0737 Y60.2676
G01 X48.9724 Y60.2930
G01 X48.8692 Y60.3083
G01 X48.7681 Y60.3133
G01 X48.7619 Y60.3133
G01 X48.6607 Y60.3083
G01 X48.5606 Y60.2935
G01 X48.5545 Y60.2923
G01 X48.4563 Y60.2676
G01 X48.3566 Y60.2319
G01 X48.2637 Y60.1879
G01 X48.1768 Y60.1359
G01 X48.1716 Y60.1324
G01 X48.0904 Y60.0720
G01 X48.0153 Y60.0041
G01 X48.0109 Y59.9997
G01 X47.9430 Y59.9246
G01 X47.8977 Y59.8637
G01 X47.0923 Y59.8637
G01 X47.0470 Y59.9246
G01 X46.9769 Y60.0020
G01 X46.8996 Y60.0720
G01 X46.8183 Y60.1324
G01 X46.8131 Y60.1359
G01 X46.7290 Y60.1863
G01 X46.7235 Y60.1893
G01 X46.6319 Y60.2325
G01 X46.5366 Y60.2667
G01 X46.5307 Y60.2685
G01 X46.4355 Y60.2923
G01 X46.4294 Y60.2935
G01 X46.3292 Y60.3083
G01 X46.2250 Y60.3134
G01 X46.1238 Y60.3085
G01 X46.1177 Y60.3079
G01 X46.0175 Y60.2930
G01 X45.9178 Y60.2681
G01 X45.8209 Y60.2336
G01 X45.8152 Y60.2312
G01 X45.7237 Y60.1879
G01 X45.6342 Y60.1342
G01 X45.5504 Y60.0720
G01 X45.4753 Y60.0041
G01 X45.4709 Y59.9997
G01 X45.4030 Y59.9246
G01 X45.3408 Y59.8408
G01 X45.2887 Y59.7540
G01 X45.2857 Y59.7485
G01 X45.2425 Y59.6570
G01 X45.2083 Y59.5617
G01 X45.2065 Y59.5557
G01 X45.1820 Y59.4575
G01 X45.1669 Y59.3558
G01 X45.1616 Y59.2500
G01 X45.1665 Y59.1489
G01 X45.1671 Y59.1427
G01 X45.1820 Y59.0426
G01 X45.2065 Y58.9443
G01 X45.2083 Y58.9384
G01 X45.2431 Y58.8416
G01 X45.2871 Y58.7487
G01 X45.3391 Y58.6619
G01 X45.3426 Y58.6567
G01 X45.4030 Y58.5754
G01 X45.4709 Y58.5003
G01 X45.4753 Y58.4959
G01 X45.5504 Y58.4280
G01 X45.6113 Y58.3827
G01 X45.6113 Y57.7637
G01 X42.4492 Y57.7637
G01 X41.7997 Y58.4132
G01 X41.8208 Y58.4290
G01 X41.8980 Y58.4992
G01 X41.9670 Y58.5754
G01 X42.0292 Y58.6592
G01 X42.0828 Y58.7487
G01 X42.1262 Y58.8402
G01 X42.1285 Y58.8460
G01 X42.1616 Y58.9384
G01 X42.1634 Y58.9443
G01 X42.1879 Y59.0426
G01 X42.2033 Y59.1458
G01 X42.2084 Y59.2500
G01 X42.2035 Y59.3512
G01 X42.2029 Y59.3573
G01 X42.1879 Y59.4575
G01 X42.1634 Y59.5557
G01 X42.1616 Y59.5617
G01 X42.1285 Y59.6541
G01 X42.1262 Y59.6598
G01 X42.0828 Y59.7513
G01 X42.0308 Y59.8382
G01 X42.0274 Y59.8434
G01 X41.9670 Y59.9246
G01 X41.8991 Y59.9997
G01 X41.8947 Y60.0041
G01 X41.8196 Y60.0720
G01 X41.7383 Y60.1324
G01 X41.7331 Y60.1359
G01 X41.6463 Y60.1879
G01 X41.5548 Y60.2312
G01 X41.5490 Y60.2336
G01 X41.4537 Y60.2676
G01 X41.3555 Y60.2923
G01 X41.3494 Y60.2935
G01 X41.2492 Y60.3083
G01 X41.1481 Y60.3133
G01 X41.1419 Y60.3133
G01 X41.0407 Y60.3083
G01 X40.9406 Y60.2935
G01 X40.9345 Y60.2923
G01 X40.8363 Y60.2676
G01 X40.7409 Y60.2336
G01 X40.7352 Y60.2312
G01 X40.6437 Y60.1879
G01 X40.5568 Y60.1359
G01 X40.5516 Y60.1324
G01 X40.4704 Y60.0720
G01 X40.3953 Y60.0041
G01 X40.3909 Y59.9997
G01 X40.3230 Y59.9246
G01 X40.2617 Y59.8421
G01 X40.2071 Y59.7513
G01 X40.1638 Y59.6598
G01 X40.1614 Y59.6541
G01 X40.1274 Y59.5587
G01 X40.1027 Y59.4605
G01 X40.1015 Y59.4544
G01 X40.0866 Y59.3527
G01 X40.0816 Y59.2500
G01 X40.0865 Y59.1489
G01 X40.0871 Y59.1427
G01 X40.1017 Y59.0441
G01 X40.1278 Y58.9399
G01 X40.1619 Y58.8445
G01 X40.1763 Y58.8137
G01 X35.1842 Y58.8137
G01 X33.1772 Y60.8207
G01 X33.1883 Y60.8958
G01 X33.1933 Y60.9969
G01 X33.1933 Y61.0031
G01 X33.1883 Y61.1043
G01 X33.1729 Y61.2075
G01 X33.1484 Y61.3057
G01 X33.1466 Y61.3117
G01 X33.1124 Y61.4070
G01 X33.0692 Y61.4985
G01 X33.0663 Y61.5040
G01 X33.0142 Y61.5908
G01 X32.9520 Y61.6746
G01 X32.8841 Y61.7497
G01 X32.8797 Y61.7541
G01 X32.8046 Y61.8220
G01 X32.7437 Y61.8673
G01 X32.7437 Y65.6827
G01 X32.8046 Y65.7280
G01 X32.8797 Y65.7959
G01 X32.8841 Y65.8003
G01 X32.9500 Y65.8731
G01 X32.9539 Y65.8779
G01 X33.0142 Y65.9592
G01 X33.0685 Y66.0501
G01 X33.1112 Y66.1402
G01 X33.1135 Y66.1460
G01 X33.1476 Y66.2413
G01 X33.1723 Y66.3395
G01 X33.1735 Y66.3456
G01 X33.1883 Y66.4458
G01 X33.1934 Y66.5500
G01 X33.1883 Y66.6543
G01 X33.1735 Y66.7544
G01 X33.1723 Y66.7605
G01 X33.1476 Y66.8587
G01 X33.1135 Y66.9541
G01 X33.1112 Y66.9598
G01 X33.0685 Y67.0499
G01 X33.0142 Y67.1408
G01 X32.9539 Y67.2222
G01 X32.9500 Y67.2270
G01 X32.8841 Y67.2997
G01 X32.8797 Y67.3041
G01 X32.8046 Y67.3720
G01 X32.7437 Y67.4173
G01 X32.7437 Y71.1827
G01 X32.8046 Y71.2280
G01 X32.8797 Y71.2959
G01 X32.8841 Y71.3003
G01 X32.9500 Y71.3731
G01 X32.9539 Y71.3779
G01 X33.0142 Y71.4592
G01 X33.0685 Y71.5501
G01 X33.1112 Y71.6402
G01 X33.1135 Y71.6460
G01 X33.1476 Y71.7413
G01 X33.1723 Y71.8395
G01 X33.1735 Y71.8456
G01 X33.1883 Y71.9458
G01 X33.1933 Y72.0469
G01 X33.1933 Y72.0531
G01 X33.1883 Y72.1543
G01 X33.1729 Y72.2575
G01 X33.1476 Y72.3587
G01 X33.1124 Y72.4570
G01 X33.0678 Y72.5513
G01 X33.0142 Y72.6408
G01 X32.9520 Y72.7246
G01 X32.8841 Y72.7997
G01 X32.8797 Y72.8041
G01 X32.8069 Y72.8700
G01 X32.8021 Y72.8740
G01 X32.7208 Y72.9342
G01 X32.6340 Y72.9863
G01 X32.6285 Y72.9893
G01 X32.5369 Y73.0325
G01 X32.4387 Y73.0676
G01 X32.3374 Y73.0930
G01 X32.2342 Y73.1083
G01 X32.1300 Y73.1134
G01 X32.0257 Y73.1083
G01 X31.9225 Y73.0930
G01 X31.8213 Y73.0676
G01 X31.7230 Y73.0325
G01 X31.6287 Y72.9879
G01 X31.5392 Y72.9342
G01 X31.4554 Y72.8720
G01 X31.3780 Y72.8020
G01 X31.3080 Y72.7246
G01 X31.2458 Y72.6408
G01 X31.1921 Y72.5513
G01 X31.1475 Y72.4570
G01 X31.1124 Y72.3587
G01 X31.0870 Y72.2575
G01 X31.0717 Y72.1543
G01 X31.0667 Y72.0531
G01 X31.0667 Y72.0469
G01 X31.0717 Y71.9458
G01 X31.0865 Y71.8456
G01 X31.0877 Y71.8395
G01 X31.1124 Y71.7413
G01 X31.1481 Y71.6416
G01 X31.1921 Y71.5487
G01 X31.2441 Y71.4619
G01 X31.2476 Y71.4567
G01 X31.3080 Y71.3754
G01 X31.3759 Y71.3003
G01 X31.3803 Y71.2959
G01 X31.4554 Y71.2280
G01 X31.5163 Y71.1827
G01 X31.5163 Y67.4173
G01 X31.4554 Y67.3720
G01 X31.3803 Y67.3041
G01 X31.3759 Y67.2997
G01 X31.3080 Y67.2246
G01 X31.2476 Y67.1434
G01 X31.2441 Y67.1382
G01 X31.1921 Y67.0513
G01 X31.1488 Y66.9598
G01 X31.1464 Y66.9541
G01 X31.1124 Y66.8587
G01 X31.0877 Y66.7605
G01 X31.0865 Y66.7544
G01 X31.0717 Y66.6543
G01 X31.0667 Y66.5531
G01 X31.0667 Y66.5469
G01 X31.0716 Y66.4473
G01 X31.0870 Y66.3426
G01 X31.1124 Y66.2413
G01 X31.1475 Y66.1431
G01 X31.1929 Y66.0474
G01 X31.2458 Y65.9592
G01 X31.3060 Y65.8779
G01 X31.3100 Y65.8731
G01 X31.3759 Y65.8003
G01 X31.3803 Y65.7959
G01 X31.4554 Y65.7280
G01 X31.5163 Y65.6827
G00 Z2.0000
G00 X43.0713 Y67.7373
G01 F60.00
G01 Z-0.0500
G01 F120.00
G01 X43.0104 Y67.6920
G01 X42.9330 Y67.6220
G01 X42.8630 Y67.5446
G01 X42.7999 Y67.4595
G01 X42.7471 Y67.3713
G01 X42.7025 Y67.2770
G01 X42.6674 Y67.1787
G01 X42.6417 Y67.0760
G01 X42.6267 Y66.9743
G01 X42.6216 Y66.8700
G01 X42.6267 Y66.7658
G01 X42.6420 Y66.6626
G01 X42.6674 Y66.5613
G01 X42.7025 Y66.4631
G01 X42.7471 Y66.3687
G01 X42.8017 Y66.2779
G01 X42.8630 Y66.1954
G01 X42.9330 Y66.1181
G01 X43.0104 Y66.0480
G01 X43.0942 Y65.9858
G01 X43.1837 Y65.9322
G01 X43.2780 Y65.8876
G01 X43.3763 Y65.8524
G01 X43.4775 Y65.8271
G01 X43.5807 Y65.8117
G01 X43.6850 Y65.8066
G01 X43.7892 Y65.8117
G01 X43.8924 Y65.8271
G01 X43.9937 Y65.8524
G01 X44.0919 Y65.8876
G01 X44.1863 Y65.9322
G01 X44.2771 Y65.9867
G01 X44.3571 Y66.0461
G01 X44.3619 Y66.0500
G01 X44.4369 Y66.1181
G01 X44.5050 Y66.1931
G01 X44.5089 Y66.1979
G01 X44.5692 Y66.2792
G01 X44.6228 Y66.3687
G01 X44.6674 Y66.4631
G01 X44.7016 Y66.5584
G01 X44.7034 Y66.5643
G01 X44.7279 Y66.6626
G01 X44.7429 Y66.7627
G01 X44.7435 Y66.7689
G01 X44.7484 Y66.8700
G01 X44.7433 Y66.9743
G01 X44.7285 Y67.0744
G01 X44.7273 Y67.0805
G01 X44.7026 Y67.1787
G01 X44.6685 Y67.2741
G01 X44.6662 Y67.2798
G01 X44.6235 Y67.3699
G01 X44.5692 Y67.4608
G01 X44.5089 Y67.5422
G01 X44.5050 Y67.5470
G01 X44.4391 Y67.6197
G01 X44.4347 Y67.6241
G01 X44.3596 Y67.6920
G01 X44.2987 Y67.7373
G01 X44.2987 Y68.7158
G01 X49.1464 Y73.5635
G01 X85.9686 Y73.5635
G01 X91.0163 Y68.5158
G01 X91.0163 Y67.5373
G01 X90.9554 Y67.4920
G01 X90.8803 Y67.4241
G01 X90.8759 Y67.4197
G01 X90.8100 Y67.3470
G01 X90.8060 Y67.3422
G01 X90.7458 Y67.2608
G01 X90.6929 Y67.1727
G01 X90.6475 Y67.0770
G01 X90.6124 Y66.9787
G01 X90.5870 Y66.8775
G01 X90.5721 Y66.7773
G01 X90.5715 Y66.7712
G01 X90.5666 Y66.6700
G01 X90.5715 Y66.5689
G01 X90.5721 Y66.5627
G01 X90.5870 Y66.4626
G01 X90.6115 Y66.3643
G01 X90.6133 Y66.3584
G01 X90.6464 Y66.2660
G01 X90.6488 Y66.2602
G01 X90.6921 Y66.1687
G01 X90.7458 Y66.0792
G01 X90.8080 Y65.9954
G01 X90.8770 Y65.9192
G01 X90.9530 Y65.8500
G01 X90.9578 Y65.8461
G01 X91.0392 Y65.7858
G01 X91.1287 Y65.7322
G01 X91.2202 Y65.6888
G01 X91.2259 Y65.6865
G01 X91.3213 Y65.6524
G01 X91.4225 Y65.6271
G01 X91.5227 Y65.6121
G01 X91.5288 Y65.6115
G01 X91.6300 Y65.6066
G01 X91.7342 Y65.6117
G01 X91.8374 Y65.6271
G01 X91.9357 Y65.6516
G01 X91.9416 Y65.6534
G01 X92.0369 Y65.6876
G01 X92.1313 Y65.7322
G01 X92.2181 Y65.7842
G01 X92.2233 Y65.7876
G01 X92.3046 Y65.8480
G01 X92.3797 Y65.9159
G01 X92.3841 Y65.9203
G01 X92.4520 Y65.9954
G01 X92.5142 Y66.0792
G01 X92.5678 Y66.1687
G01 X92.6112 Y66.2602
G01 X92.6135 Y66.2660
G01 X92.6476 Y66.3613
G01 X92.6723 Y66.4595
G01 X92.6735 Y66.4656
G01 X92.6883 Y66.5658
G01 X92.6934 Y66.6685
G01 X92.6883 Y66.7743
G01 X92.6735 Y66.8744
G01 X92.6723 Y66.8805
G01 X92.6476 Y66.9787
G01 X92.6135 Y67.0741
G01 X92.6112 Y67.0798
G01 X92.5685 Y67.1699
G01 X92.5142 Y67.2608
G01 X92.4539 Y67.3422
G01 X92.4500 Y67.3470
G01 X92.3841 Y67.4197
G01 X92.3797 Y67.4241
G01 X92.3046 Y67.4920
G01 X92.2437 Y67.5373
G01 X92.2437 Y68.7700
G01 X92.2408 Y68.8286
G01 X92.2324 Y68.8867
G01 X92.2312 Y68.8928
G01 X92.2172 Y68.9482
G01 X92.1969 Y69.0049
G01 X92.1726 Y69.0565
G01 X92.1697 Y69.0620
G01 X92.1402 Y69.1110
G01 X92.1053 Y69.1581
G01 X92.0639 Y69.2040
G01 X86.6556 Y74.6122
G01 X86.6121 Y74.6516
G01 X86.5637 Y74.6875
G01 X86.5121 Y74.7184
G01 X86.4576 Y74.7442
G01 X86.4009 Y74.7645
G01 X86.3425 Y74.7791
G01 X86.2829 Y74.7879
G01 X86.2243 Y74.7909
G01 X48.8922 Y74.7909
G01 X48.8320 Y74.7879
G01 X48.7740 Y74.7794
G01 X48.7170 Y74.7653
G01 X48.7111 Y74.7635
G01 X48.6573 Y74.7442
G01 X48.6029 Y74.7184
G01 X48.5539 Y74.6891
G01 X48.5487 Y74.6857
G01 X48.5029 Y74.6516
G01 X48.4594 Y74.6122
G01 X43.2510 Y69.4040
G01 X43.2106 Y69.3593
G01 X43.1747 Y69.3110
G01 X43.1453 Y69.2620
G01 X43.1424 Y69.2565
G01 X43.1180 Y69.2049
G01 X43.0977 Y69.1482
G01 X43.0838 Y69.0928
G01 X43.0826 Y69.0867
G01 X43.0741 Y69.0286
G01 X43.0713 Y68.9700
G01 X43.0713 Y67.7373
G00 Z2.0000
G00 X45.6105 Y65.2058
G01 F60.00
G01 Z-0.0500
G01 F120.00
G01 X45.5353 Y65.2169
G01 X45.4311 Y65.2220
G01 X45.3268 Y65.2169
G01 X45.2221 Y65.2013
G01 X45.1224 Y65.1762
G01 X45.0241 Y65.1411
G01 X44.9298 Y65.0965
G01 X44.8390 Y65.0419
G01 X44.7565 Y64.9806
G01 X44.6791 Y64.9106
G01 X44.6091 Y64.8332
G01 X44.5469 Y64.7494
G01 X44.4932 Y64.6599
G01 X44.4486 Y64.5656
G01 X44.4135 Y64.4673
G01 X44.3878 Y64.3646
G01 X44.3728 Y64.2629
G01 X44.3677 Y64.1586
G01 X44.3728 Y64.0544
G01 X44.3881 Y63.9512
G01 X44.4135 Y63.8499
G01 X44.4486 Y63.7517
G01 X44.4932 Y63.6573
G01 X44.5469 Y63.5678
G01 X44.6091 Y63.4840
G01 X44.6791 Y63.4067
G01 X44.7565 Y63.3366
G01 X44.8403 Y63.2744
G01 X44.9298 Y63.2208
G01 X45.0241 Y63.1762
G01 X45.1224 Y63.1410
G01 X45.2251 Y63.1154
G01 X45.3238 Y63.1007
G01 X45.3299 Y63.1001
G01 X45.4311 Y63.0952
G01 X45.5322 Y63.1001
G01 X45.5384 Y63.1007
G01 X45.6385 Y63.1157
G01 X45.7398 Y63.1410
G01 X45.8380 Y63.1762
G01 X45.9296 Y63.2194
G01 X45.9351 Y63.2223
G01 X46.0219 Y63.2744
G01 X46.1032 Y63.3347
G01 X46.1080 Y63.3386
G01 X46.1819 Y63.4056
G01 X46.2531 Y63.4840
G01 X46.3153 Y63.5678
G01 X46.3689 Y63.6573
G01 X46.4141 Y63.7531
G01 X46.4487 Y63.8499
G01 X46.4743 Y63.9527
G01 X46.4895 Y64.0559
G01 X46.4945 Y64.1571
G01 X46.4916 Y64.2180
G01 X46.5156 Y64.2296
G01 X46.5646 Y64.2589
G01 X46.6131 Y64.2947
G01 X46.6589 Y64.3361
G01 X46.6984 Y64.3795
G01 X46.7352 Y64.4291
G01 X46.7662 Y64.4807
G01 X46.7919 Y64.5352
G01 X46.8122 Y64.5919
G01 X46.8262 Y64.6473
G01 X46.8274 Y64.6534
G01 X46.8357 Y64.7099
G01 X46.8386 Y64.7685
G01 X46.8387 Y66.0027
G01 X46.8996 Y66.0480
G01 X46.9747 Y66.1159
G01 X46.9791 Y66.1203
G01 X47.0470 Y66.1954
G01 X47.1074 Y66.2767
G01 X47.1108 Y66.2819
G01 X47.1628 Y66.3687
G01 X47.2062 Y66.4602
G01 X47.2085 Y66.4660
G01 X47.2426 Y66.5613
G01 X47.2673 Y66.6595
G01 X47.2685 Y66.6656
G01 X47.2829 Y66.7627
G01 X47.2835 Y66.7689
G01 X47.2884 Y66.8700
G01 X47.2835 Y66.9712
G01 X47.2829 Y66.9773
G01 X47.2685 Y67.0744
G01 X47.2673 Y67.0805
G01 X47.2426 Y67.1787
G01 X47.2085 Y67.2741
G01 X47.2062 Y67.2798
G01 X47.1628 Y67.3713
G01 X47.1108 Y67.4582
G01 X47.1074 Y67.4634
G01 X47.0470 Y67.5446
G01 X46.9791 Y67.6197
G01 X46.9747 Y67.6241
G01 X46.8996 Y67.6920
G01 X46.8158 Y67.7542
G01 X46.7290 Y67.8063
G01 X46.7235 Y67.8093
G01 X46.6305 Y67.8531
G01 X46.5337 Y67.8876
G01 X46.4324 Y67.9130
G01 X46.3292 Y67.9283
G01 X46.2250 Y67.9334
G01 X46.1207 Y67.9283
G01 X46.0175 Y67.9130
G01 X45.9163 Y67.8876
G01 X45.8180 Y67.8525
G01 X45.7237 Y67.8079
G01 X45.6342 Y67.7542
G01 X45.5504 Y67.6920
G01 X45.4730 Y67.6220
G01 X45.4030 Y67.5446
G01 X45.3408 Y67.4608
G01 X45.2871 Y67.3713
G01 X45.2419 Y67.2755
G01 X45.2074 Y67.1787
G01 X45.1827 Y67.0805
G01 X45.1815 Y67.0744
G01 X45.1667 Y66.9743
G01 X45.1617 Y66.8731
G01 X45.1617 Y66.8669
G01 X45.1667 Y66.7658
G01 X45.1817 Y66.6641
G01 X45.2074 Y66.5613
G01 X45.2425 Y66.4631
G01 X45.2871 Y66.3687
G01 X45.3399 Y66.2805
G01 X45.4030 Y66.1954
G01 X45.4730 Y66.1181
G01 X45.5504 Y66.0480
G01 X45.6113 Y66.0027
G01 X45.6113 Y65.2066
G01 X45.6105 Y65.2058
G00 Z2.0000
G00 X48.1513 Y67.7373
G01 F60.00
G01 Z-0.0500
G01 F120.00
G01 X48.0904 Y67.6920
G01 X48.0130 Y67.6220
G01 X47.9430 Y67.5446
G01 X47.8799 Y67.4595
G01 X47.8271 Y67.3713
G01 X47.7825 Y67.2770
G01 X47.7474 Y67.1787
G01 X47.7217 Y67.0760
G01 X47.7067 Y66.9743
G01 X47.7016 Y66.8700
G01 X47.7067 Y66.7658
G01 X47.7220 Y66.6626
G01 X47.7474 Y66.5613
G01 X47.7825 Y66.4631
G01 X47.8271 Y66.3687
G01 X47.8817 Y66.2779
G01 X47.9430 Y66.1954
G01 X48.0130 Y66.1181
G01 X48.0904 Y66.0480
G01 X48.1742 Y65.9858
G01 X48.2637 Y65.9322
G01 X48.3580 Y65.8876
G01 X48.4563 Y65.8524
G01 X48.5575 Y65.8271
G01 X48.6607 Y65.8117
G01 X48.7650 Y65.8066
G01 X48.8692 Y65.8117
G01 X48.9724 Y65.8271
G01 X49.0737 Y65.8524
G01 X49.1719 Y65.8876
G01 X49.2663 Y65.9322
G01 X49.3571 Y65.9867
G01 X49.4371 Y66.0461
G01 X49.4419 Y66.0500
G01 X49.5169 Y66.1181
G01 X49.5850 Y66.1931
G01 X49.5889 Y66.1979
G01 X49.6492 Y66.2792
G01 X49.7028 Y66.3687
G01 X49.7474 Y66.4631
G01 X49.7816 Y66.5584
G01 X49.7834 Y66.5643
G01 X49.8079 Y66.6626
G01 X49.8229 Y66.7627
G01 X49.8235 Y66.7689
G01 X49.8284 Y66.8700
G01 X49.8233 Y66.9743
G01 X49.8085 Y67.0744
G01 X49.8073 Y67.0805
G01 X49.7826 Y67.1787
G01 X49.7485 Y67.2741
G01 X49.7462 Y67.2798
G01 X49.7035 Y67.3699
G01 X49.6492 Y67.4608
G01 X49.5889 Y67.5422
G01 X49.5850 Y67.5470
G01 X49.5191 Y67.6197
G01 X49.5147 Y67.6241
G01 X49.4396 Y67.6920
G01 X49.3787 Y67.7373
G01 X49.3787 Y68.7158
G01 X51.6062 Y70.9433
G01 X60.5895 Y70.9433
G01 X64.3693 Y67.1635
G01 X64.3693 Y54.6997
G01 X57.3111 Y47.6416
G01 X57.2727 Y47.5993
G01 X57.2688 Y47.5945
G01 X57.2348 Y47.5486
G01 X57.2039 Y47.4969
G01 X57.1794 Y47.4453
G01 X57.1770 Y47.4396
G01 X57.1578 Y47.3858
G01 X57.1432 Y47.3273
G01 X57.1344 Y47.2678
G01 X57.1314 Y47.2076
G01 X57.1314 Y29.8193
G01 X50.8558 Y23.5437
G01 X49.8773 Y23.5437
G01 X49.8320 Y23.6046
G01 X49.7641 Y23.6797
G01 X49.7597 Y23.6841
G01 X49.6869 Y23.7500
G01 X49.6821 Y23.7540
G01 X49.6008 Y23.8142
G01 X49.5113 Y23.8679
G01 X49.4169 Y23.9125
G01 X49.3216 Y23.9467
G01 X49.3157 Y23.9485
G01 X49.2174 Y23.9730
G01 X49.1173 Y23.9879
G01 X49.1111 Y23.9885
G01 X49.0131 Y23.9933
G01 X48.6100 Y23.9934
G01 X48.5073 Y23.9884
G01 X48.4025 Y23.9730
G01 X48.3028 Y23.9481
G01 X48.2030 Y23.9125
G01 X48.1115 Y23.8693
G01 X48.1060 Y23.8663
G01 X48.0192 Y23.8142
G01 X47.9378 Y23.7540
G01 X47.9330 Y23.7500
G01 X47.8580 Y23.6820
G01 X47.7880 Y23.6046
G01 X47.7258 Y23.5208
G01 X47.6721 Y23.4313
G01 X47.6288 Y23.3398
G01 X47.6264 Y23.3341
G01 X47.5933 Y23.2417
G01 X47.5915 Y23.2357
G01 X47.5670 Y23.1375
G01 X47.5517 Y23.0343
G01 X47.5466 Y22.9300
G01 X47.5515 Y22.8289
G01 X47.5521 Y22.8227
G01 X47.5665 Y22.7256
G01 X47.5677 Y22.7195
G01 X47.5924 Y22.6213
G01 X47.6275 Y22.5231
G01 X47.6721 Y22.4287
G01 X47.7249 Y22.3405
G01 X47.7860 Y22.2579
G01 X47.7900 Y22.2531
G01 X47.8580 Y22.1781
G01 X47.9354 Y22.1080
G01 X48.0192 Y22.0458
G01 X48.1060 Y21.9937
G01 X48.1115 Y21.9908
G01 X48.2002 Y21.9488
G01 X48.2059 Y21.9465
G01 X48.3013 Y21.9124
G01 X48.3995 Y21.8877
G01 X48.4056 Y21.8865
G01 X48.5057 Y21.8717
G01 X48.6100 Y21.8666
G01 X49.0115 Y21.8666
G01 X49.1111 Y21.8715
G01 X49.1173 Y21.8721
G01 X49.2174 Y21.8871
G01 X49.3157 Y21.9116
G01 X49.3216 Y21.9134
G01 X49.4169 Y21.9476
G01 X49.5113 Y21.9922
G01 X49.6008 Y22.0458
G01 X49.6821 Y22.1061
G01 X49.6869 Y22.1100
G01 X49.7597 Y22.1759
G01 X49.7641 Y22.1803
G01 X49.8320 Y22.2554
G01 X49.8773 Y22.3163
G01 X51.1100 Y22.3163
G01 X51.1686 Y22.3192
G01 X51.2266 Y22.3276
G01 X51.2327 Y22.3288
G01 X51.2881 Y22.3428
G01 X51.3448 Y22.3631
G01 X51.3965 Y22.3874
G01 X51.4020 Y22.3903
G01 X51.4509 Y22.4198
G01 X51.4993 Y22.4556
G01 X51.5439 Y22.4961
G01 X58.1790 Y29.1312
