(G-CODE GENERATED BY FLATCAM v8.994 - www.flatcam.org - Version Date: 2020/11/7)

(Name: AT28C64B-circuit-third-sol-F_Cu.gbr_0.1268_iso_cnc)
(Type: G-code from Geometry)
(Units: MM)

(Created on Sunday, 08 September 2024 at 10:12)


G01 F120.00

M5
G00 Z15.0000
G00 X0.0000 Y0.0000
T2
(MSG, Change to Tool Dia = 0.1268)
M0
G00 Z15.0000
        
M03 S10000.0
G01 F120.00
G00 X20.0531 Y15.2467
G01 F60.00
G01 Z-0.0500
G01 F120.00
G01 X20.1543 Y15.2517
G01 X20.2575 Y15.2671
G01 X20.3587 Y15.2924
G01 X20.4570 Y15.3276
G01 X20.5513 Y15.3722
G01 X20.6408 Y15.4258
G01 X20.7246 Y15.4880
G01 X20.8020 Y15.5581
G01 X20.8720 Y15.6354
G01 X20.9342 Y15.7192
G01 X20.9879 Y15.8087
G01 X21.0325 Y15.9031
G01 X21.0676 Y16.0013
G01 X21.0930 Y16.1026
G01 X21.1083 Y16.2058
G01 X21.1134 Y16.3100
G01 X21.1083 Y16.4143
G01 X21.0930 Y16.5175
G01 X21.0676 Y16.6187
G01 X21.0325 Y16.7170
G01 X20.9879 Y16.8113
G01 X20.9342 Y16.9008
G01 X20.8720 Y16.9846
G01 X20.8020 Y17.0620
G01 X20.7246 Y17.1320
G01 X20.6408 Y17.1942
G01 X20.5513 Y17.2479
G01 X20.4570 Y17.2925
G01 X20.3587 Y17.3276
G01 X20.2575 Y17.3530
G01 X20.1543 Y17.3683
G01 X20.0500 Y17.3734
G01 X19.9458 Y17.3683
G01 X19.8426 Y17.3530
G01 X19.7413 Y17.3276
G01 X19.6431 Y17.2925
G01 X19.5487 Y17.2479
G01 X19.4592 Y17.1942
G01 X19.3754 Y17.1320
G01 X19.2981 Y17.0620
G01 X19.2280 Y16.9846
G01 X19.1658 Y16.9008
G01 X19.1122 Y16.8113
G01 X19.0676 Y16.7170
G01 X19.0324 Y16.6187
G01 X19.0071 Y16.5175
G01 X18.9917 Y16.4143
G01 X18.9866 Y16.3100
G01 X18.9917 Y16.2058
G01 X19.0071 Y16.1026
G01 X19.0324 Y16.0013
G01 X19.0676 Y15.9031
G01 X19.1122 Y15.8087
G01 X19.1658 Y15.7192
G01 X19.2280 Y15.6354
G01 X19.2981 Y15.5581
G01 X19.3754 Y15.4880
G01 X19.4592 Y15.4258
G01 X19.5487 Y15.3722
G01 X19.6431 Y15.3276
G01 X19.7413 Y15.2924
G01 X19.8426 Y15.2671
G01 X19.9458 Y15.2517
G01 X20.0469 Y15.2467
G01 X20.0531 Y15.2467
G00 Z2.0000
G00 X20.0531 Y17.7867
G01 F60.00
G01 Z-0.0500
G01 F120.00
G01 X20.1543 Y17.7917
G01 X20.2575 Y17.8071
G01 X20.3587 Y17.8324
G01 X20.4570 Y17.8676
G01 X20.5513 Y17.9122
G01 X20.6408 Y17.9658
G01 X20.7246 Y18.0280
G01 X20.8020 Y18.0981
G01 X20.8720 Y18.1754
G01 X20.9342 Y18.2592
G01 X20.9879 Y18.3487
G01 X21.0325 Y18.4431
G01 X21.0676 Y18.5413
G01 X21.0930 Y18.6426
G01 X21.1083 Y18.7458
G01 X21.1134 Y18.8500
G01 X21.1083 Y18.9543
G01 X21.0930 Y19.0575
G01 X21.0676 Y19.1587
G01 X21.0325 Y19.2570
G01 X20.9879 Y19.3513
G01 X20.9342 Y19.4408
G01 X20.8720 Y19.5246
G01 X20.8020 Y19.6020
G01 X20.7246 Y19.6720
G01 X20.6408 Y19.7342
G01 X20.5513 Y19.7879
G01 X20.4570 Y19.8325
G01 X20.3587 Y19.8676
G01 X20.2575 Y19.8930
G01 X20.1543 Y19.9083
G01 X20.0500 Y19.9134
G01 X19.9458 Y19.9083
G01 X19.8426 Y19.8930
G01 X19.7413 Y19.8676
G01 X19.6431 Y19.8325
G01 X19.5487 Y19.7879
G01 X19.4592 Y19.7342
G01 X19.3754 Y19.6720
G01 X19.2981 Y19.6020
G01 X19.2280 Y19.5246
G01 X19.1658 Y19.4408
G01 X19.1122 Y19.3513
G01 X19.0676 Y19.2570
G01 X19.0324 Y19.1587
G01 X19.0071 Y19.0575
G01 X18.9917 Y18.9543
G01 X18.9866 Y18.8500
G01 X18.9917 Y18.7458
G01 X19.0071 Y18.6426
G01 X19.0324 Y18.5413
G01 X19.0676 Y18.4431
G01 X19.1122 Y18.3487
G01 X19.1658 Y18.2592
G01 X19.2280 Y18.1754
G01 X19.2981 Y18.0981
G01 X19.3754 Y18.0280
G01 X19.4592 Y17.9658
G01 X19.5487 Y17.9122
G01 X19.6431 Y17.8676
G01 X19.7413 Y17.8324
G01 X19.8426 Y17.8071
G01 X19.9458 Y17.7917
G01 X20.0469 Y17.7867
G01 X20.0531 Y17.7867
G00 Z2.0000
G00 X20.0531 Y20.3267
G01 F60.00
G01 Z-0.0500
G01 F120.00
G01 X20.1543 Y20.3317
G01 X20.2575 Y20.3471
G01 X20.3587 Y20.3724
G01 X20.4570 Y20.4076
G01 X20.5513 Y20.4522
G01 X20.6408 Y20.5058
G01 X20.7246 Y20.5680
G01 X20.8020 Y20.6381
G01 X20.8720 Y20.7154
G01 X20.9342 Y20.7992
G01 X20.9879 Y20.8887
G01 X21.0325 Y20.9831
G01 X21.0676 Y21.0813
G01 X21.0930 Y21.1826
G01 X21.1083 Y21.2858
G01 X21.1134 Y21.3900
G01 X21.1083 Y21.4943
G01 X21.0930 Y21.5975
G01 X21.0676 Y21.6987
G01 X21.0325 Y21.7970
G01 X20.9879 Y21.8913
G01 X20.9342 Y21.9808
G01 X20.8720 Y22.0646
G01 X20.8020 Y22.1420
G01 X20.7246 Y22.2120
G01 X20.6408 Y22.2742
G01 X20.5513 Y22.3279
G01 X20.4570 Y22.3725
G01 X20.3587 Y22.4076
G01 X20.2575 Y22.4330
G01 X20.1543 Y22.4483
G01 X20.0500 Y22.4534
G01 X19.9458 Y22.4483
G01 X19.8426 Y22.4330
G01 X19.7413 Y22.4076
G01 X19.6431 Y22.3725
G01 X19.5487 Y22.3279
G01 X19.4592 Y22.2742
G01 X19.3754 Y22.2120
G01 X19.2981 Y22.1420
G01 X19.2280 Y22.0646
G01 X19.1658 Y21.9808
G01 X19.1122 Y21.8913
G01 X19.0676 Y21.7970
G01 X19.0324 Y21.6987
G01 X19.0071 Y21.5975
G01 X18.9917 Y21.4943
G01 X18.9866 Y21.3900
G01 X18.9917 Y21.2858
G01 X19.0071 Y21.1826
G01 X19.0324 Y21.0813
G01 X19.0676 Y20.9831
G01 X19.1122 Y20.8887
G01 X19.1658 Y20.7992
G01 X19.2280 Y20.7154
G01 X19.2981 Y20.6381
G01 X19.3754 Y20.5680
G01 X19.4592 Y20.5058
G01 X19.5487 Y20.4522
G01 X19.6431 Y20.4076
G01 X19.7413 Y20.3724
G01 X19.8426 Y20.3471
G01 X19.9458 Y20.3317
G01 X20.0469 Y20.3267
G01 X20.0531 Y20.3267
G00 Z2.0000
G00 X20.0531 Y22.8667
G01 F60.00
G01 Z-0.0500
G01 F120.00
G01 X20.1543 Y22.8717
G01 X20.2575 Y22.8871
G01 X20.3587 Y22.9124
G01 X20.4570 Y22.9476
G01 X20.5513 Y22.9922
G01 X20.6408 Y23.0458
G01 X20.7246 Y23.1080
G01 X20.8020 Y23.1781
G01 X20.8720 Y23.2554
G01 X20.9342 Y23.3392
G01 X20.9879 Y23.4287
G01 X21.0325 Y23.5231
G01 X21.0676 Y23.6213
G01 X21.0930 Y23.7226
G01 X21.1083 Y23.8258
G01 X21.1134 Y23.9300
G01 X21.1083 Y24.0343
G01 X21.0930 Y24.1375
G01 X21.0676 Y24.2387
G01 X21.0325 Y24.3370
G01 X20.9879 Y24.4313
G01 X20.9342 Y24.5208
G01 X20.8720 Y24.6046
G01 X20.8020 Y24.6820
G01 X20.7246 Y24.7520
G01 X20.6408 Y24.8142
G01 X20.5513 Y24.8679
G01 X20.4570 Y24.9125
G01 X20.3587 Y24.9476
G01 X20.2575 Y24.9730
G01 X20.1543 Y24.9883
G01 X20.0500 Y24.9934
G01 X19.9458 Y24.9883
G01 X19.8426 Y24.9730
G01 X19.7413 Y24.9476
G01 X19.6431 Y24.9125
G01 X19.5487 Y24.8679
G01 X19.4592 Y24.8142
G01 X19.3754 Y24.7520
G01 X19.2981 Y24.6820
G01 X19.2280 Y24.6046
G01 X19.1658 Y24.5208
G01 X19.1122 Y24.4313
G01 X19.0676 Y24.3370
G01 X19.0324 Y24.2387
G01 X19.0071 Y24.1375
G01 X18.9917 Y24.0343
G01 X18.9866 Y23.9300
G01 X18.9917 Y23.8258
G01 X19.0071 Y23.7226
G01 X19.0324 Y23.6213
G01 X19.0676 Y23.5231
G01 X19.1122 Y23.4287
G01 X19.1658 Y23.3392
G01 X19.2280 Y23.2554
G01 X19.2981 Y23.1781
G01 X19.3754 Y23.1080
G01 X19.4592 Y23.0458
G01 X19.5487 Y22.9922
G01 X19.6431 Y22.9476
G01 X19.7413 Y22.9124
G01 X19.8426 Y22.8871
G01 X19.9458 Y22.8717
G01 X20.0469 Y22.8667
G01 X20.0531 Y22.8667
G00 Z2.0000
G00 X20.0531 Y25.4067
G01 F60.00
G01 Z-0.0500
G01 F120.00
G01 X20.1543 Y25.4117
G01 X20.2575 Y25.4271
G01 X20.3587 Y25.4524
G01 X20.4570 Y25.4876
G01 X20.5513 Y25.5322
G01 X20.6408 Y25.5858
G01 X20.7246 Y25.6480
G01 X20.8020 Y25.7181
G01 X20.8720 Y25.7954
G01 X20.9342 Y25.8792
G01 X20.9879 Y25.9687
G01 X21.0325 Y26.0631
G01 X21.0676 Y26.1613
G01 X21.0930 Y26.2626
G01 X21.1083 Y26.3658
G01 X21.1134 Y26.4700
G01 X21.1083 Y26.5743
G01 X21.0930 Y26.6775
G01 X21.0676 Y26.7787
G01 X21.0325 Y26.8770
G01 X20.9879 Y26.9713
G01 X20.9342 Y27.0608
G01 X20.8720 Y27.1446
G01 X20.8020 Y27.2220
G01 X20.7246 Y27.2920
G01 X20.6408 Y27.3542
G01 X20.5513 Y27.4079
G01 X20.4570 Y27.4525
G01 X20.3587 Y27.4876
G01 X20.2575 Y27.5130
G01 X20.1543 Y27.5283
G01 X20.0500 Y27.5334
G01 X19.9458 Y27.5283
G01 X19.8426 Y27.5130
G01 X19.7413 Y27.4876
G01 X19.6431 Y27.4525
G01 X19.5487 Y27.4079
G01 X19.4592 Y27.3542
G01 X19.3754 Y27.2920
G01 X19.2981 Y27.2220
G01 X19.2280 Y27.1446
G01 X19.1658 Y27.0608
G01 X19.1122 Y26.9713
G01 X19.0676 Y26.8770
G01 X19.0324 Y26.7787
G01 X19.0071 Y26.6775
G01 X18.9917 Y26.5743
G01 X18.9866 Y26.4700
G01 X18.9917 Y26.3658
G01 X19.0071 Y26.2626
G01 X19.0324 Y26.1613
G01 X19.0676 Y26.0631
G01 X19.1122 Y25.9687
G01 X19.1658 Y25.8792
G01 X19.2280 Y25.7954
G01 X19.2981 Y25.7181
G01 X19.3754 Y25.6480
G01 X19.4592 Y25.5858
G01 X19.5487 Y25.5322
G01 X19.6431 Y25.4876
G01 X19.7413 Y25.4524
G01 X19.8426 Y25.4271
G01 X19.9458 Y25.4117
G01 X20.0469 Y25.4067
G01 X20.0531 Y25.4067
G00 Z2.0000
G00 X20.0531 Y27.9467
G01 F60.00
G01 Z-0.0500
G01 F120.00
G01 X20.1543 Y27.9517
G01 X20.2575 Y27.9671
G01 X20.3587 Y27.9924
G01 X20.4570 Y28.0276
G01 X20.5513 Y28.0722
G01 X20.6408 Y28.1258
G01 X20.7246 Y28.1880
G01 X20.8020 Y28.2581
G01 X20.8720 Y28.3354
G01 X20.9342 Y28.4192
G01 X20.9879 Y28.5087
G01 X21.0325 Y28.6031
G01 X21.0676 Y28.7013
G01 X21.0930 Y28.8026
G01 X21.1083 Y28.9058
G01 X21.1134 Y29.0100
G01 X21.1083 Y29.1143
G01 X21.0930 Y29.2175
G01 X21.0676 Y29.3187
G01 X21.0325 Y29.4170
G01 X20.9879 Y29.5113
G01 X20.9342 Y29.6008
G01 X20.8720 Y29.6846
G01 X20.8020 Y29.7620
G01 X20.7246 Y29.8320
G01 X20.6408 Y29.8942
G01 X20.5513 Y29.9479
G01 X20.4570 Y29.9925
G01 X20.3587 Y30.0276
G01 X20.2575 Y30.0530
G01 X20.1543 Y30.0683
G01 X20.0500 Y30.0734
G01 X19.9458 Y30.0683
G01 X19.8426 Y30.0530
G01 X19.7413 Y30.0276
G01 X19.6431 Y29.9925
G01 X19.5487 Y29.9479
G01 X19.4592 Y29.8942
G01 X19.3754 Y29.8320
G01 X19.2981 Y29.7620
G01 X19.2280 Y29.6846
G01 X19.1658 Y29.6008
G01 X19.1122 Y29.5113
G01 X19.0676 Y29.4170
G01 X19.0324 Y29.3187
G01 X19.0071 Y29.2175
G01 X18.9917 Y29.1143
G01 X18.9866 Y29.0100
G01 X18.9917 Y28.9058
G01 X19.0071 Y28.8026
G01 X19.0324 Y28.7013
G01 X19.0676 Y28.6031
G01 X19.1122 Y28.5087
G01 X19.1658 Y28.4192
G01 X19.2280 Y28.3354
G01 X19.2981 Y28.2581
G01 X19.3754 Y28.1880
G01 X19.4592 Y28.1258
G01 X19.5487 Y28.0722
G01 X19.6431 Y28.0276
G01 X19.7413 Y27.9924
G01 X19.8426 Y27.9671
G01 X19.9458 Y27.9517
G01 X20.0469 Y27.9467
G01 X20.0531 Y27.9467
G00 Z2.0000
G00 X20.0531 Y30.4867
G01 F60.00
G01 Z-0.0500
G01 F120.00
G01 X20.1543 Y30.4917
G01 X20.2575 Y30.5071
G01 X20.3587 Y30.5324
G01 X20.4570 Y30.5676
G01 X20.5513 Y30.6122
G01 X20.6408 Y30.6658
G01 X20.7246 Y30.7280
G01 X20.8020 Y30.7981
G01 X20.8720 Y30.8754
G01 X20.9342 Y30.9592
G01 X20.9879 Y31.0487
G01 X21.0325 Y31.1431
G01 X21.0676 Y31.2413
G01 X21.0930 Y31.3426
G01 X21.1083 Y31.4458
G01 X21.1134 Y31.5500
G01 X21.1083 Y31.6543
G01 X21.0930 Y31.7575
G01 X21.0676 Y31.8587
G01 X21.0325 Y31.9570
G01 X20.9879 Y32.0513
G01 X20.9342 Y32.1408
G01 X20.8720 Y32.2246
G01 X20.8020 Y32.3020
G01 X20.7246 Y32.3720
G01 X20.6408 Y32.4342
G01 X20.5513 Y32.4879
G01 X20.4570 Y32.5325
G01 X20.3587 Y32.5676
G01 X20.2575 Y32.5930
G01 X20.1543 Y32.6083
G01 X20.0500 Y32.6134
G01 X19.9458 Y32.6083
G01 X19.8426 Y32.5930
G01 X19.7413 Y32.5676
G01 X19.6431 Y32.5325
G01 X19.5487 Y32.4879
G01 X19.4592 Y32.4342
G01 X19.3754 Y32.3720
G01 X19.2981 Y32.3020
G01 X19.2280 Y32.2246
G01 X19.1658 Y32.1408
G01 X19.1122 Y32.0513
G01 X19.0676 Y31.9570
G01 X19.0324 Y31.8587
G01 X19.0071 Y31.7575
G01 X18.9917 Y31.6543
G01 X18.9866 Y31.5500
G01 X18.9917 Y31.4458
G01 X19.0071 Y31.3426
G01 X19.0324 Y31.2413
G01 X19.0676 Y31.1431
G01 X19.1122 Y31.0487
G01 X19.1658 Y30.9592
G01 X19.2280 Y30.8754
G01 X19.2981 Y30.7981
G01 X19.3754 Y30.7280
G01 X19.4592 Y30.6658
G01 X19.5487 Y30.6122
G01 X19.6431 Y30.5676
G01 X19.7413 Y30.5324
G01 X19.8426 Y30.5071
G01 X19.9458 Y30.4917
G01 X20.0469 Y30.4867
G01 X20.0531 Y30.4867
G00 Z2.0000
G00 X20.0531 Y33.0267
G01 F60.00
G01 Z-0.0500
G01 F120.00
G01 X20.1543 Y33.0317
G01 X20.2575 Y33.0471
G01 X20.3587 Y33.0724
G01 X20.4570 Y33.1076
G01 X20.5513 Y33.1522
G01 X20.6408 Y33.2058
G01 X20.7246 Y33.2680
G01 X20.8020 Y33.3381
G01 X20.8720 Y33.4154
G01 X20.9342 Y33.4992
G01 X20.9879 Y33.5887
G01 X21.0325 Y33.6831
G01 X21.0676 Y33.7813
G01 X21.0930 Y33.8826
G01 X21.1083 Y33.9858
G01 X21.1134 Y34.0900
G01 X21.1083 Y34.1943
G01 X21.0930 Y34.2975
G01 X21.0676 Y34.3987
G01 X21.0325 Y34.4970
G01 X20.9879 Y34.5913
G01 X20.9342 Y34.6808
G01 X20.8720 Y34.7646
G01 X20.8020 Y34.8420
G01 X20.7246 Y34.9120
G01 X20.6408 Y34.9742
G01 X20.5513 Y35.0279
G01 X20.4570 Y35.0725
G01 X20.3587 Y35.1076
G01 X20.2575 Y35.1330
G01 X20.1543 Y35.1483
G01 X20.0500 Y35.1534
G01 X19.9458 Y35.1483
G01 X19.8426 Y35.1330
G01 X19.7413 Y35.1076
G01 X19.6431 Y35.0725
G01 X19.5487 Y35.0279
G01 X19.4592 Y34.9742
G01 X19.3754 Y34.9120
G01 X19.2981 Y34.8420
G01 X19.2280 Y34.7646
G01 X19.1658 Y34.6808
G01 X19.1122 Y34.5913
G01 X19.0676 Y34.4970
G01 X19.0324 Y34.3987
G01 X19.0071 Y34.2975
G01 X18.9917 Y34.1943
G01 X18.9866 Y34.0900
G01 X18.9917 Y33.9858
G01 X19.0071 Y33.8826
G01 X19.0324 Y33.7813
G01 X19.0676 Y33.6831
G01 X19.1122 Y33.5887
G01 X19.1658 Y33.4992
G01 X19.2280 Y33.4154
G01 X19.2981 Y33.3381
G01 X19.3754 Y33.2680
G01 X19.4592 Y33.2058
G01 X19.5487 Y33.1522
G01 X19.6431 Y33.1076
G01 X19.7413 Y33.0724
G01 X19.8426 Y33.0471
G01 X19.9458 Y33.0317
G01 X20.0469 Y33.0267
G01 X20.0531 Y33.0267
G00 Z2.0000
G00 X22.7161 Y30.4675
G01 F60.00
G01 Z-0.0500
G01 F120.00
G01 X22.6552 Y30.4222
G01 X22.5779 Y30.3522
G01 X22.5078 Y30.2748
G01 X22.4448 Y30.1897
G01 X22.3920 Y30.1015
G01 X22.3474 Y30.0072
G01 X22.3122 Y29.9089
G01 X22.2866 Y29.8062
G01 X22.2715 Y29.7045
G01 X22.2664 Y29.6002
G01 X22.2715 Y29.4960
G01 X22.2869 Y29.3928
G01 X22.3122 Y29.2915
G01 X22.3474 Y29.1933
G01 X22.3920 Y29.0989
G01 X22.4465 Y29.0081
G01 X22.5078 Y28.9256
G01 X22.5779 Y28.8483
G01 X22.6552 Y28.7782
G01 X22.7390 Y28.7160
G01 X22.8285 Y28.6624
G01 X22.9229 Y28.6178
G01 X23.0211 Y28.5826
G01 X23.1224 Y28.5573
G01 X23.2256 Y28.5419
G01 X23.3298 Y28.5368
G01 X23.4341 Y28.5419
G01 X23.5373 Y28.5573
G01 X23.6385 Y28.5826
G01 X23.7368 Y28.6178
G01 X23.8311 Y28.6624
G01 X23.9219 Y28.7169
G01 X24.0020 Y28.7763
G01 X24.0068 Y28.7802
G01 X24.0818 Y28.8483
G01 X24.1498 Y28.9233
G01 X24.1538 Y28.9281
G01 X24.2140 Y29.0094
G01 X24.2677 Y29.0989
G01 X24.3123 Y29.1933
G01 X24.3465 Y29.2886
G01 X24.3483 Y29.2945
G01 X24.3728 Y29.3928
G01 X24.3877 Y29.4929
G01 X24.3883 Y29.4991
G01 X24.3932 Y29.6002
G01 X24.3881 Y29.7045
G01 X24.3733 Y29.8046
G01 X24.3721 Y29.8107
G01 X24.3474 Y29.9089
G01 X24.3134 Y30.0043
G01 X24.3110 Y30.0100
G01 X24.2684 Y30.1001
G01 X24.2140 Y30.1910
G01 X24.1538 Y30.2724
G01 X24.1498 Y30.2772
G01 X24.0839 Y30.3499
G01 X24.0795 Y30.3543
G01 X24.0044 Y30.4222
G01 X23.9435 Y30.4675
G01 X23.9435 Y33.8302
G01 X26.1221 Y36.0088
G01 X29.4063 Y36.0088
G01 X39.4716 Y25.9436
G01 X39.5162 Y25.9031
G01 X39.5633 Y25.8682
G01 X39.6135 Y25.8378
G01 X39.6190 Y25.8349
G01 X39.6707 Y25.8106
G01 X39.7274 Y25.7903
G01 X39.7828 Y25.7763
G01 X39.7889 Y25.7751
G01 X39.8454 Y25.7668
G01 X39.9024 Y25.7639
G01 X41.7902 Y25.7638
G01 X41.8355 Y25.7029
G01 X41.9034 Y25.6278
G01 X41.9078 Y25.6234
G01 X41.9829 Y25.5555
G01 X42.0642 Y25.4951
G01 X42.0694 Y25.4917
G01 X42.1562 Y25.4397
G01 X42.2477 Y25.3963
G01 X42.2535 Y25.3940
G01 X42.3488 Y25.3599
G01 X42.4470 Y25.3352
G01 X42.4531 Y25.3340
G01 X42.5533 Y25.3192
G01 X42.6544 Y25.3142
G01 X42.6606 Y25.3142
G01 X42.7602 Y25.3191
G01 X42.8619 Y25.3340
G01 X42.8680 Y25.3352
G01 X42.9662 Y25.3599
G01 X43.0645 Y25.3951
G01 X43.1588 Y25.4397
G01 X43.2457 Y25.4917
G01 X43.2509 Y25.4951
G01 X43.3297 Y25.5536
G01 X43.3345 Y25.5575
G01 X43.4095 Y25.6256
G01 X43.4795 Y25.7029
G01 X43.5417 Y25.7867
G01 X43.5938 Y25.8735
G01 X43.5968 Y25.8790
G01 X43.6387 Y25.9677
G01 X43.6411 Y25.9735
G01 X43.6751 Y26.0688
G01 X43.7005 Y26.1701
G01 X43.7158 Y26.2733
G01 X43.7209 Y26.3775
G01 X43.7158 Y26.4818
G01 X43.7005 Y26.5850
G01 X43.6751 Y26.6862
G01 X43.6400 Y26.7845
G01 X43.5954 Y26.8788
G01 X43.5417 Y26.9683
G01 X43.4795 Y27.0521
G01 X43.4095 Y27.1295
G01 X43.3321 Y27.1995
G01 X43.2483 Y27.2617
G01 X43.1588 Y27.3154
G01 X43.0645 Y27.3600
G01 X42.9662 Y27.3951
G01 X42.8665 Y27.4202
G01 X42.7648 Y27.4354
G01 X42.7587 Y27.4360
G01 X42.6575 Y27.4409
G01 X42.5533 Y27.4358
G01 X42.4531 Y27.4210
G01 X42.4470 Y27.4198
G01 X42.3488 Y27.3951
G01 X42.2520 Y27.3606
G01 X42.1590 Y27.3168
G01 X42.1535 Y27.3138
G01 X42.0667 Y27.2617
G01 X41.9841 Y27.2005
G01 X41.9078 Y27.1316
G01 X41.9034 Y27.1272
G01 X41.8355 Y27.0521
G01 X41.7902 Y26.9912
G01 X40.1597 Y26.9912
G01 X30.0945 Y37.0565
G01 X30.0522 Y37.0949
G01 X30.0474 Y37.0988
G01 X30.0015 Y37.1328
G01 X29.9498 Y37.1637
G01 X29.8968 Y37.1889
G01 X29.8791 Y37.1954
G01 X29.8387 Y37.2098
G01 X29.7802 Y37.2244
G01 X29.7207 Y37.2332
G01 X29.6605 Y37.2362
G01 X25.8648 Y37.2361
G01 X25.8078 Y37.2332
G01 X25.7482 Y37.2244
G01 X25.6898 Y37.2098
G01 X25.6331 Y37.1895
G01 X25.5786 Y37.1637
G01 X25.5270 Y37.1328
G01 X25.4786 Y37.0969
G01 X25.4351 Y37.0575
G01 X22.8959 Y34.5184
G01 X22.8554 Y34.4737
G01 X22.8196 Y34.4254
G01 X22.7886 Y34.3737
G01 X22.7629 Y34.3193
G01 X22.7426 Y34.2626
G01 X22.7279 Y34.2041
G01 X22.7191 Y34.1446
G01 X22.7161 Y34.0844
G01 X22.7161 Y30.4675
G00 Z2.0000
G00 X27.6731 Y30.4867
G01 F60.00
G01 Z-0.0500
G01 F120.00
G01 X27.7743 Y30.4917
G01 X27.8775 Y30.5071
G01 X27.9787 Y30.5324
G01 X28.0770 Y30.5676
G01 X28.1713 Y30.6122
G01 X28.2608 Y30.6658
G01 X28.3446 Y30.7280
G01 X28.4220 Y30.7981
G01 X28.4920 Y30.8754
G01 X28.5542 Y30.9592
G01 X28.6079 Y31.0487
G01 X28.6525 Y31.1431
G01 X28.6876 Y31.2413
G01 X28.7130 Y31.3426
G01 X28.7283 Y31.4458
G01 X28.7334 Y31.5500
G01 X28.7283 Y31.6543
G01 X28.7130 Y31.7575
G01 X28.6876 Y31.8587
G01 X28.6525 Y31.9570
G01 X28.6079 Y32.0513
G01 X28.5542 Y32.1408
G01 X28.4920 Y32.2246
G01 X28.4220 Y32.3020
G01 X28.3446 Y32.3720
G01 X28.2608 Y32.4342
G01 X28.1713 Y32.4879
G01 X28.0770 Y32.5325
G01 X27.9787 Y32.5676
G01 X27.8775 Y32.5930
G01 X27.7743 Y32.6083
G01 X27.6700 Y32.6134
G01 X27.5658 Y32.6083
G01 X27.4626 Y32.5930
G01 X27.3613 Y32.5676
G01 X27.2631 Y32.5325
G01 X27.1687 Y32.4879
G01 X27.0792 Y32.4342
G01 X26.9954 Y32.3720
G01 X26.9181 Y32.3020
G01 X26.8480 Y32.2246
G01 X26.7858 Y32.1408
G01 X26.7322 Y32.0513
G01 X26.6876 Y31.9570
G01 X26.6524 Y31.8587
G01 X26.6271 Y31.7575
G01 X26.6117 Y31.6543
G01 X26.6066 Y31.5500
G01 X26.6117 Y31.4458
G01 X26.6271 Y31.3426
G01 X26.6524 Y31.2413
G01 X26.6876 Y31.1431
G01 X26.7322 Y31.0487
G01 X26.7858 Y30.9592
G01 X26.8480 Y30.8754
G01 X26.9181 Y30.7981
G01 X26.9954 Y30.7280
G01 X27.0792 Y30.6658
G01 X27.1687 Y30.6122
G01 X27.2631 Y30.5676
G01 X27.3613 Y30.5324
G01 X27.4626 Y30.5071
G01 X27.5658 Y30.4917
G01 X27.6669 Y30.4867
G01 X27.6731 Y30.4867
G00 Z2.0000
G00 X27.6731 Y27.9467
G01 F60.00
G01 Z-0.0500
G01 F120.00
G01 X27.7743 Y27.9517
G01 X27.8775 Y27.9671
G01 X27.9787 Y27.9924
G01 X28.0770 Y28.0276
G01 X28.1713 Y28.0722
G01 X28.2608 Y28.1258
G01 X28.3446 Y28.1880
G01 X28.4220 Y28.2581
G01 X28.4920 Y28.3354
G01 X28.5542 Y28.4192
G01 X28.6079 Y28.5087
G01 X28.6525 Y28.6031
G01 X28.6876 Y28.7013
G01 X28.7130 Y28.8026
G01 X28.7283 Y28.9058
G01 X28.7334 Y29.0100
G01 X28.7283 Y29.1143
G01 X28.7130 Y29.2175
G01 X28.6876 Y29.3187
G01 X28.6525 Y29.4170
G01 X28.6079 Y29.5113
G01 X28.5542 Y29.6008
G01 X28.4920 Y29.6846
G01 X28.4220 Y29.7620
G01 X28.3446 Y29.8320
G01 X28.2608 Y29.8942
G01 X28.1713 Y29.9479
G01 X28.0770 Y29.9925
G01 X27.9787 Y30.0276
G01 X27.8775 Y30.0530
G01 X27.7743 Y30.0683
G01 X27.6700 Y30.0734
G01 X27.5658 Y30.0683
G01 X27.4626 Y30.0530
G01 X27.3613 Y30.0276
G01 X27.2631 Y29.9925
G01 X27.1687 Y29.9479
G01 X27.0792 Y29.8942
G01 X26.9954 Y29.8320
G01 X26.9181 Y29.7620
G01 X26.8480 Y29.6846
G01 X26.7858 Y29.6008
G01 X26.7322 Y29.5113
G01 X26.6876 Y29.4170
G01 X26.6524 Y29.3187
G01 X26.6271 Y29.2175
G01 X26.6117 Y29.1143
G01 X26.6066 Y29.0100
G01 X26.6117 Y28.9058
G01 X26.6271 Y28.8026
G01 X26.6524 Y28.7013
G01 X26.6876 Y28.6031
G01 X26.7322 Y28.5087
G01 X26.7858 Y28.4192
G01 X26.8480 Y28.3354
G01 X26.9181 Y28.2581
G01 X26.9954 Y28.1880
G01 X27.0792 Y28.1258
G01 X27.1687 Y28.0722
G01 X27.2631 Y28.0276
G01 X27.3613 Y27.9924
G01 X27.4626 Y27.9671
G01 X27.5658 Y27.9517
G01 X27.6669 Y27.9467
G01 X27.6731 Y27.9467
G00 Z2.0000
G00 X27.6731 Y25.4067
G01 F60.00
G01 Z-0.0500
G01 F120.00
G01 X27.7743 Y25.4117
G01 X27.8775 Y25.4271
G01 X27.9787 Y25.4524
G01 X28.0770 Y25.4876
G01 X28.1713 Y25.5322
G01 X28.2608 Y25.5858
G01 X28.3446 Y25.6480
G01 X28.4220 Y25.7181
G01 X28.4920 Y25.7954
G01 X28.5542 Y25.8792
G01 X28.6079 Y25.9687
G01 X28.6525 Y26.0631
G01 X28.6876 Y26.1613
G01 X28.7130 Y26.2626
G01 X28.7283 Y26.3658
G01 X28.7334 Y26.4700
G01 X28.7283 Y26.5743
G01 X28.7130 Y26.6775
G01 X28.6876 Y26.7787
G01 X28.6525 Y26.8770
G01 X28.6079 Y26.9713
G01 X28.5542 Y27.0608
G01 X28.4920 Y27.1446
G01 X28.4220 Y27.2220
G01 X28.3446 Y27.2920
G01 X28.2608 Y27.3542
G01 X28.1713 Y27.4079
G01 X28.0770 Y27.4525
G01 X27.9787 Y27.4876
G01 X27.8775 Y27.5130
G01 X27.7743 Y27.5283
G01 X27.6700 Y27.5334
G01 X27.5658 Y27.5283
G01 X27.4626 Y27.5130
G01 X27.3613 Y27.4876
G01 X27.2631 Y27.4525
G01 X27.1687 Y27.4079
G01 X27.0792 Y27.3542
G01 X26.9954 Y27.2920
G01 X26.9181 Y27.2220
G01 X26.8480 Y27.1446
G01 X26.7858 Y27.0608
G01 X26.7322 Y26.9713
G01 X26.6876 Y26.8770
G01 X26.6524 Y26.7787
G01 X26.6271 Y26.6775
G01 X26.6117 Y26.5743
G01 X26.6066 Y26.4700
G01 X26.6117 Y26.3658
G01 X26.6271 Y26.2626
G01 X26.6524 Y26.1613
G01 X26.6876 Y26.0631
G01 X26.7322 Y25.9687
G01 X26.7858 Y25.8792
G01 X26.8480 Y25.7954
G01 X26.9181 Y25.7181
G01 X26.9954 Y25.6480
G01 X27.0792 Y25.5858
G01 X27.1687 Y25.5322
G01 X27.2631 Y25.4876
G01 X27.3613 Y25.4524
G01 X27.4626 Y25.4271
G01 X27.5658 Y25.4117
G01 X27.6669 Y25.4067
G01 X27.6731 Y25.4067
G00 Z2.0000
G00 X27.6731 Y22.8667
G01 F60.00
G01 Z-0.0500
G01 F120.00
G01 X27.7743 Y22.8717
G01 X27.8775 Y22.8871
G01 X27.9787 Y22.9124
G01 X28.0770 Y22.9476
G01 X28.1713 Y22.9922
G01 X28.2608 Y23.0458
G01 X28.3446 Y23.1080
G01 X28.4220 Y23.1781
G01 X28.4920 Y23.2554
G01 X28.5542 Y23.3392
G01 X28.6079 Y23.4287
G01 X28.6525 Y23.5231
G01 X28.6876 Y23.6213
G01 X28.7130 Y23.7226
G01 X28.7283 Y23.8258
G01 X28.7334 Y23.9300
G01 X28.7283 Y24.0343
G01 X28.7130 Y24.1375
G01 X28.6876 Y24.2387
G01 X28.6525 Y24.3370
G01 X28.6079 Y24.4313
G01 X28.5542 Y24.5208
G01 X28.4920 Y24.6046
G01 X28.4220 Y24.6820
G01 X28.3446 Y24.7520
G01 X28.2608 Y24.8142
G01 X28.1713 Y24.8679
G01 X28.0770 Y24.9125
G01 X27.9787 Y24.9476
G01 X27.8775 Y24.9730
G01 X27.7743 Y24.9883
G01 X27.6700 Y24.9934
G01 X27.5658 Y24.9883
G01 X27.4626 Y24.9730
G01 X27.3613 Y24.9476
G01 X27.2631 Y24.9125
G01 X27.1687 Y24.8679
G01 X27.0792 Y24.8142
G01 X26.9954 Y24.7520
G01 X26.9181 Y24.6820
G01 X26.8480 Y24.6046
G01 X26.7858 Y24.5208
G01 X26.7322 Y24.4313
G01 X26.6876 Y24.3370
G01 X26.6524 Y24.2387
G01 X26.6271 Y24.1375
G01 X26.6117 Y24.0343
G01 X26.6066 Y23.9300
G01 X26.6117 Y23.8258
G01 X26.6271 Y23.7226
G01 X26.6524 Y23.6213
G01 X26.6876 Y23.5231
G01 X26.7322 Y23.4287
G01 X26.7858 Y23.3392
G01 X26.8480 Y23.2554
G01 X26.9181 Y23.1781
G01 X26.9954 Y23.1080
G01 X27.0792 Y23.0458
G01 X27.1687 Y22.9922
G01 X27.2631 Y22.9476
G01 X27.3613 Y22.9124
G01 X27.4626 Y22.8871
G01 X27.5658 Y22.8717
G01 X27.6669 Y22.8667
G01 X27.6731 Y22.8667
G00 Z2.0000
G00 X27.6731 Y20.3267
G01 F60.00
G01 Z-0.0500
G01 F120.00
G01 X27.7743 Y20.3317
G01 X27.8775 Y20.3471
G01 X27.9787 Y20.3724
G01 X28.0770 Y20.4076
G01 X28.1713 Y20.4522
G01 X28.2608 Y20.5058
G01 X28.3446 Y20.5680
G01 X28.4220 Y20.6381
G01 X28.4920 Y20.7154
G01 X28.5542 Y20.7992
G01 X28.6079 Y20.8887
G01 X28.6525 Y20.9831
G01 X28.6876 Y21.0813
G01 X28.7130 Y21.1826
G01 X28.7283 Y21.2858
G01 X28.7334 Y21.3900
G01 X28.7283 Y21.4943
G01 X28.7130 Y21.5975
G01 X28.6876 Y21.6987
G01 X28.6525 Y21.7970
G01 X28.6079 Y21.8913
G01 X28.5542 Y21.9808
G01 X28.4920 Y22.0646
G01 X28.4220 Y22.1420
G01 X28.3446 Y22.2120
G01 X28.2608 Y22.2742
G01 X28.1713 Y22.3279
G01 X28.0770 Y22.3725
G01 X27.9787 Y22.4076
G01 X27.8775 Y22.4330
G01 X27.7743 Y22.4483
G01 X27.6700 Y22.4534
G01 X27.5658 Y22.4483
G01 X27.4626 Y22.4330
G01 X27.3613 Y22.4076
G01 X27.2631 Y22.3725
G01 X27.1687 Y22.3279
G01 X27.0792 Y22.2742
G01 X26.9954 Y22.2120
G01 X26.9181 Y22.1420
G01 X26.8480 Y22.0646
G01 X26.7858 Y21.9808
G01 X26.7322 Y21.8913
G01 X26.6876 Y21.7970
G01 X26.6524 Y21.6987
G01 X26.6271 Y21.5975
G01 X26.6117 Y21.4943
G01 X26.6066 Y21.3900
G01 X26.6117 Y21.2858
G01 X26.6271 Y21.1826
G01 X26.6524 Y21.0813
G01 X26.6876 Y20.9831
G01 X26.7322 Y20.8887
G01 X26.7858 Y20.7992
G01 X26.8480 Y20.7154
G01 X26.9181 Y20.6381
G01 X26.9954 Y20.5680
G01 X27.0792 Y20.5058
G01 X27.1687 Y20.4522
G01 X27.2631 Y20.4076
G01 X27.3613 Y20.3724
G01 X27.4626 Y20.3471
G01 X27.5658 Y20.3317
G01 X27.6669 Y20.3267
G01 X27.6731 Y20.3267
G00 Z2.0000
G00 X27.6731 Y17.7867
G01 F60.00
G01 Z-0.0500
G01 F120.00
G01 X27.7743 Y17.7917
G01 X27.8775 Y17.8071
G01 X27.9787 Y17.8324
G01 X28.0770 Y17.8676
G01 X28.1713 Y17.9122
G01 X28.2608 Y17.9658
G01 X28.3446 Y18.0280
G01 X28.4220 Y18.0981
G01 X28.4920 Y18.1754
G01 X28.5542 Y18.2592
G01 X28.6079 Y18.3487
G01 X28.6525 Y18.4431
G01 X28.6876 Y18.5413
G01 X28.7130 Y18.6426
G01 X28.7283 Y18.7458
G01 X28.7334 Y18.8500
G01 X28.7283 Y18.9543
G01 X28.7130 Y19.0575
G01 X28.6876 Y19.1587
G01 X28.6525 Y19.2570
G01 X28.6079 Y19.3513
G01 X28.5542 Y19.4408
G01 X28.4920 Y19.5246
G01 X28.4220 Y19.6020
G01 X28.3446 Y19.6720
G01 X28.2608 Y19.7342
G01 X28.1713 Y19.7879
G01 X28.0770 Y19.8325
G01 X27.9787 Y19.8676
G01 X27.8775 Y19.8930
G01 X27.7743 Y19.9083
G01 X27.6700 Y19.9134
G01 X27.5658 Y19.9083
G01 X27.4626 Y19.8930
G01 X27.3613 Y19.8676
G01 X27.2631 Y19.8325
G01 X27.1687 Y19.7879
G01 X27.0792 Y19.7342
G01 X26.9954 Y19.6720
G01 X26.9181 Y19.6020
G01 X26.8480 Y19.5246
G01 X26.7858 Y19.4408
G01 X26.7322 Y19.3513
G01 X26.6876 Y19.2570
G01 X26.6524 Y19.1587
G01 X26.6271 Y19.0575
G01 X26.6117 Y18.9543
G01 X26.6066 Y18.8500
G01 X26.6117 Y18.7458
G01 X26.6271 Y18.6426
G01 X26.6524 Y18.5413
G01 X26.6876 Y18.4431
G01 X26.7322 Y18.3487
G01 X26.7858 Y18.2592
G01 X26.8480 Y18.1754
G01 X26.9181 Y18.0981
G01 X26.9954 Y18.0280
G01 X27.0792 Y17.9658
G01 X27.1687 Y17.9122
G01 X27.2631 Y17.8676
G01 X27.3613 Y17.8324
G01 X27.4626 Y17.8071
G01 X27.5658 Y17.7917
G01 X27.6669 Y17.7867
G01 X27.6731 Y17.7867
G00 Z2.0000
G00 X26.6700 Y15.2466
G01 F60.00
G01 Z-0.0500
G01 F120.00
G01 X28.6700 Y15.2466
G01 X28.6762 Y15.2469
G01 X28.6824 Y15.2478
G01 X28.6884 Y15.2494
G01 X28.6943 Y15.2515
G01 X28.6999 Y15.2541
G01 X28.7052 Y15.2573
G01 X28.7102 Y15.2610
G01 X28.7159 Y15.2663
G01 X28.7200 Y15.2710
G01 X28.7236 Y15.2761
G01 X28.7267 Y15.2815
G01 X28.7292 Y15.2872
G01 X28.7311 Y15.2931
G01 X28.7325 Y15.2992
G01 X28.7334 Y15.3100
G01 X28.7334 Y17.3100
G01 X28.7331 Y17.3162
G01 X28.7322 Y17.3224
G01 X28.7307 Y17.3284
G01 X28.7286 Y17.3343
G01 X28.7259 Y17.3399
G01 X28.7227 Y17.3452
G01 X28.7190 Y17.3502
G01 X28.7137 Y17.3559
G01 X28.7090 Y17.3600
G01 X28.7039 Y17.3636
G01 X28.6985 Y17.3667
G01 X28.6928 Y17.3692
G01 X28.6869 Y17.3711
G01 X28.6809 Y17.3725
G01 X28.6700 Y17.3734
G01 X26.6700 Y17.3734
G01 X26.6638 Y17.3731
G01 X26.6577 Y17.3722
G01 X26.6516 Y17.3707
G01 X26.6458 Y17.3686
G01 X26.6401 Y17.3659
G01 X26.6335 Y17.3619
G01 X26.6286 Y17.3580
G01 X26.6241 Y17.3537
G01 X26.6200 Y17.3490
G01 X26.6165 Y17.3439
G01 X26.6134 Y17.3385
G01 X26.6109 Y17.3328
G01 X26.6078 Y17.3224
G01 X26.6069 Y17.3162
G01 X26.6066 Y17.3100
G01 X26.6066 Y15.3085
G01 X26.6071 Y15.3023
G01 X26.6082 Y15.2961
G01 X26.6098 Y15.2901
G01 X26.6121 Y15.2843
G01 X26.6149 Y15.2788
G01 X26.6182 Y15.2735
G01 X26.6220 Y15.2686
G01 X26.6263 Y15.2641
G01 X26.6310 Y15.2600
G01 X26.6361 Y15.2565
G01 X26.6415 Y15.2534
G01 X26.6472 Y15.2509
G01 X26.6531 Y15.2489
G01 X26.6592 Y15.2476
G01 X26.6700 Y15.2466
G00 Z2.0000
G00 X27.6731 Y33.0267
G01 F60.00
G01 Z-0.0500
G01 F120.00
G01 X27.7743 Y33.0317
G01 X27.8775 Y33.0471
G01 X27.9787 Y33.0724
G01 X28.0770 Y33.1076
G01 X28.1713 Y33.1522
G01 X28.2608 Y33.2058
G01 X28.3446 Y33.2680
G01 X28.4220 Y33.3381
G01 X28.4920 Y33.4154
G01 X28.5542 Y33.4992
G01 X28.6079 Y33.5887
G01 X28.6525 Y33.6831
G01 X28.6876 Y33.7813
G01 X28.7130 Y33.8826
G01 X28.7283 Y33.9858
G01 X28.7334 Y34.0900
G01 X28.7283 Y34.1943
G01 X28.7130 Y34.2975
G01 X28.6876 Y34.3987
G01 X28.6525 Y34.4970
G01 X28.6079 Y34.5913
G01 X28.5542 Y34.6808
G01 X28.4920 Y34.7646
G01 X28.4220 Y34.8420
G01 X28.3446 Y34.9120
G01 X28.2608 Y34.9742
G01 X28.1713 Y35.0279
G01 X28.0770 Y35.0725
G01 X27.9787 Y35.1076
G01 X27.8775 Y35.1330
G01 X27.7743 Y35.1483
G01 X27.6700 Y35.1534
G01 X27.5658 Y35.1483
G01 X27.4626 Y35.1330
G01 X27.3613 Y35.1076
G01 X27.2631 Y35.0725
G01 X27.1687 Y35.0279
G01 X27.0792 Y34.9742
G01 X26.9954 Y34.9120
G01 X26.9181 Y34.8420
G01 X26.8480 Y34.7646
G01 X26.7858 Y34.6808
G01 X26.7322 Y34.5913
G01 X26.6876 Y34.4970
G01 X26.6524 Y34.3987
G01 X26.6271 Y34.2975
G01 X26.6117 Y34.1943
G01 X26.6066 Y34.0900
G01 X26.6117 Y33.9858
G01 X26.6271 Y33.8826
G01 X26.6524 Y33.7813
G01 X26.6876 Y33.6831
G01 X26.7322 Y33.5887
G01 X26.7858 Y33.4992
G01 X26.8480 Y33.4154
G01 X26.9181 Y33.3381
G01 X26.9954 Y33.2680
G01 X27.0792 Y33.2058
G01 X27.1687 Y33.1522
G01 X27.2631 Y33.1076
G01 X27.3613 Y33.0724
G01 X27.4626 Y33.0471
G01 X27.5658 Y33.0317
G01 X27.6669 Y33.0267
G01 X27.6731 Y33.0267
G00 Z2.0000
G00 X42.8338 Y40.8518
G01 F60.00
G01 Z-0.0500
G01 F120.00
G01 X42.9291 Y40.8177
G01 X43.0273 Y40.7930
G01 X43.0334 Y40.7918
G01 X43.1336 Y40.7770
G01 X43.2347 Y40.7720
G01 X43.2409 Y40.7720
G01 X43.3421 Y40.7770
G01 X43.4422 Y40.7918
G01 X43.4483 Y40.7930
G01 X43.5465 Y40.8177
G01 X43.6419 Y40.8518
G01 X43.6476 Y40.8541
G01 X43.7391 Y40.8975
G01 X43.8260 Y40.9495
G01 X43.8312 Y40.9529
G01 X43.9124 Y41.0133
G01 X43.9875 Y41.0812
G01 X43.9919 Y41.0856
G01 X44.0598 Y41.1607
G01 X44.1202 Y41.2420
G01 X44.1237 Y41.2472
G01 X44.1757 Y41.3340
G01 X44.2209 Y41.4298
G01 X44.2554 Y41.5266
G01 X44.2801 Y41.6248
G01 X44.2813 Y41.6309
G01 X44.2961 Y41.7311
G01 X44.3011 Y41.8322
G01 X44.3011 Y41.8384
G01 X44.2961 Y41.9396
G01 X44.2850 Y42.0147
G01 X44.6211 Y42.3507
G01 X62.8041 Y42.3507
G01 X64.4019 Y40.7529
G01 X64.4019 Y35.5541
G01 X64.3410 Y35.5088
G01 X64.2637 Y35.4388
G01 X64.1936 Y35.3614
G01 X64.1323 Y35.2789
G01 X64.0778 Y35.1881
G01 X64.0344 Y35.0966
G01 X64.0321 Y35.0909
G01 X63.9976 Y34.9940
G01 X63.9727 Y34.8943
G01 X63.9573 Y34.7911
G01 X63.9522 Y34.6868
G01 X63.9571 Y34.5857
G01 X63.9577 Y34.5795
G01 X63.9721 Y34.4824
G01 X63.9733 Y34.4763
G01 X63.9980 Y34.3781
G01 X64.0332 Y34.2799
G01 X64.0778 Y34.1855
G01 X64.1298 Y34.0987
G01 X64.1332 Y34.0935
G01 X64.1936 Y34.0122
G01 X64.2637 Y33.9349
G01 X64.3387 Y33.8668
G01 X64.3435 Y33.8629
G01 X64.4223 Y33.8044
G01 X64.4275 Y33.8010
G01 X64.5143 Y33.7490
G01 X64.6087 Y33.7044
G01 X64.7069 Y33.6692
G01 X64.8051 Y33.6445
G01 X64.8112 Y33.6433
G01 X64.9083 Y33.6289
G01 X64.9145 Y33.6283
G01 X65.0156 Y33.6234
G01 X65.1168 Y33.6283
G01 X65.1229 Y33.6289
G01 X65.2200 Y33.6433
G01 X65.2261 Y33.6445
G01 X65.3243 Y33.6692
G01 X65.4226 Y33.7044
G01 X65.5169 Y33.7490
G01 X65.6038 Y33.8010
G01 X65.6090 Y33.8044
G01 X65.6902 Y33.8648
G01 X65.7653 Y33.9327
G01 X65.7697 Y33.9371
G01 X65.8376 Y34.0122
G01 X65.8998 Y34.0960
G01 X65.9535 Y34.1855
G01 X65.9968 Y34.2770
G01 X65.9992 Y34.2828
G01 X66.0337 Y34.3796
G01 X66.0586 Y34.4794
G01 X66.0735 Y34.5795
G01 X66.0741 Y34.5857
G01 X66.0790 Y34.6868
G01 X66.0739 Y34.7911
G01 X66.0591 Y34.8912
G01 X66.0579 Y34.8973
G01 X66.0341 Y34.9925
G01 X66.0323 Y34.9985
G01 X65.9981 Y35.0938
G01 X65.9549 Y35.1853
G01 X65.9519 Y35.1908
G01 X65.9015 Y35.2750
G01 X65.8980 Y35.2802
G01 X65.8376 Y35.3614
G01 X65.7676 Y35.4388
G01 X65.6902 Y35.5088
G01 X65.6293 Y35.5541
G01 X65.6293 Y41.0071
G01 X65.6266 Y41.0642
G01 X65.6260 Y41.0704
G01 X65.6175 Y41.1268
G01 X65.6029 Y41.1853
G01 X65.5826 Y41.2420
G01 X65.5582 Y41.2936
G01 X65.5553 Y41.2991
G01 X65.5259 Y41.3481
G01 X65.4919 Y41.3940
G01 X65.4880 Y41.3988
G01 X65.4506 Y41.4399
G01 X63.4923 Y43.3984
G01 X63.4500 Y43.4368
G01 X63.4452 Y43.4407
G01 X63.3993 Y43.4747
G01 X63.3503 Y43.5041
G01 X63.3448 Y43.5070
G01 X63.2932 Y43.5314
G01 X63.2350 Y43.5521
G01 X63.1780 Y43.5663
G01 X63.1216 Y43.5748
G01 X63.1154 Y43.5754
G01 X63.0583 Y43.5781
G01 X44.3669 Y43.5781
G01 X44.3052 Y43.5750
G01 X44.2472 Y43.5663
G01 X44.1918 Y43.5525
G01 X44.1858 Y43.5507
G01 X44.1321 Y43.5314
G01 X44.0804 Y43.5070
G01 X44.0749 Y43.5041
G01 X44.0260 Y43.4747
G01 X43.9788 Y43.4398
G01 X43.9330 Y43.3984
G01 X43.4172 Y42.8825
G01 X43.3421 Y42.8936
G01 X43.2378 Y42.8987
G01 X43.1336 Y42.8936
G01 X43.0304 Y42.8783
G01 X42.9291 Y42.8529
G01 X42.8309 Y42.8178
G01 X42.7365 Y42.7732
G01 X42.6483 Y42.7204
G01 X42.5632 Y42.6573
G01 X42.4881 Y42.5894
G01 X42.4837 Y42.5850
G01 X42.4158 Y42.5099
G01 X42.3554 Y42.4287
G01 X42.3520 Y42.4235
G01 X42.3000 Y42.3366
G01 X42.2554 Y42.2423
G01 X42.2202 Y42.1440
G01 X42.1949 Y42.0428
G01 X42.1799 Y41.9426
G01 X42.1793 Y41.9365
G01 X42.1744 Y41.8353
G01 X42.1793 Y41.7342
G01 X42.1799 Y41.7280
G01 X42.1943 Y41.6309
G01 X42.1955 Y41.6248
G01 X42.2202 Y41.5266
G01 X42.2543 Y41.4313
G01 X42.2566 Y41.4255
G01 X42.3000 Y41.3340
G01 X42.3536 Y41.2445
G01 X42.4158 Y41.1607
G01 X42.4859 Y41.0834
G01 X42.5632 Y41.0133
G01 X42.6470 Y40.9511
G01 X42.7365 Y40.8975
G01 X42.8280 Y40.8541
G01 X42.8338 Y40.8518
G00 Z2.0000
G00 X44.8500 Y39.6466
G01 F60.00
G01 Z-0.0500
G01 F120.00
G01 X47.2500 Y39.6466
G01 X47.2609 Y39.6476
G01 X47.2714 Y39.6503
G01 X47.2771 Y39.6527
G01 X47.2826 Y39.6556
G01 X47.2914 Y39.6620
G01 X47.2959 Y39.6663
G01 X47.3000 Y39.6710
G01 X47.3036 Y39.6761
G01 X47.3073 Y39.6829
G01 X47.3097 Y39.6887
G01 X47.3119 Y39.6961
G01 X47.3129 Y39.7023
G01 X47.3134 Y39.7100
G01 X47.3134 Y41.7100
G01 X47.3125 Y41.7209
G01 X47.3111 Y41.7269
G01 X47.3092 Y41.7328
G01 X47.3044 Y41.7426
G01 X47.2980 Y41.7514
G01 X47.2937 Y41.7559
G01 X47.2890 Y41.7600
G01 X47.2839 Y41.7636
G01 X47.2771 Y41.7673
G01 X47.2714 Y41.7697
G01 X47.2639 Y41.7719
G01 X47.2562 Y41.7731
G01 X47.2500 Y41.7734
G01 X44.8500 Y41.7734
G01 X44.8392 Y41.7725
G01 X44.8287 Y41.7697
G01 X44.8229 Y41.7673
G01 X44.8174 Y41.7644
G01 X44.8086 Y41.7580
G01 X44.8030 Y41.7526
G01 X44.7991 Y41.7478
G01 X44.7956 Y41.7426
G01 X44.7927 Y41.7371
G01 X44.7898 Y41.7299
G01 X44.7882 Y41.7239
G01 X44.7869 Y41.7162
G01 X44.7866 Y41.7100
G01 X44.7866 Y39.7085
G01 X44.7871 Y39.7023
G01 X44.7882 Y39.6961
G01 X44.7898 Y39.6901
G01 X44.7921 Y39.6843
G01 X44.7949 Y39.6788
G01 X44.7982 Y39.6735
G01 X44.8020 Y39.6686
G01 X44.8063 Y39.6641
G01 X44.8110 Y39.6600
G01 X44.8161 Y39.6565
G01 X44.8258 Y39.6515
G01 X44.8316 Y39.6494
G01 X44.8377 Y39.6478
G01 X44.8438 Y39.6469
G01 X44.8500 Y39.6466
G00 Z2.0000
G00 X45.4460 Y37.1865
G01 F60.00
G01 Z-0.0500
G01 F120.00
G01 X45.5413 Y37.1524
G01 X45.6395 Y37.1277
G01 X45.6456 Y37.1265
G01 X45.7427 Y37.1121
G01 X45.7489 Y37.1115
G01 X45.8500 Y37.1066
G01 X46.2516 Y37.1066
G01 X46.3543 Y37.1117
G01 X46.4575 Y37.1271
G01 X46.5587 Y37.1524
G01 X46.6570 Y37.1876
G01 X46.7513 Y37.2322
G01 X46.8382 Y37.2842
G01 X46.8434 Y37.2876
G01 X46.9222 Y37.3461
G01 X46.9270 Y37.3500
G01 X47.0020 Y37.4181
G01 X47.0720 Y37.4954
G01 X47.1342 Y37.5792
G01 X47.1879 Y37.6687
G01 X47.2325 Y37.7631
G01 X47.2676 Y37.8613
G01 X47.2930 Y37.9626
G01 X47.3083 Y38.0658
G01 X47.3134 Y38.1700
G01 X47.3083 Y38.2743
G01 X47.2930 Y38.3775
G01 X47.2676 Y38.4787
G01 X47.2325 Y38.5770
G01 X47.1879 Y38.6713
G01 X47.1342 Y38.7608
G01 X47.0720 Y38.8446
G01 X47.0020 Y38.9220
G01 X46.9246 Y38.9920
G01 X46.8434 Y39.0524
G01 X46.8382 Y39.0559
G01 X46.7513 Y39.1079
G01 X46.6598 Y39.1512
G01 X46.6541 Y39.1536
G01 X46.5587 Y39.1876
G01 X46.4575 Y39.2130
G01 X46.3543 Y39.2283
G01 X46.2516 Y39.2334
G01 X45.8500 Y39.2334
G01 X45.7473 Y39.2284
G01 X45.6426 Y39.2130
G01 X45.5413 Y39.1876
G01 X45.4431 Y39.1525
G01 X45.3487 Y39.1079
G01 X45.2592 Y39.0542
G01 X45.1754 Y38.9920
G01 X45.0981 Y38.9220
G01 X45.0280 Y38.8446
G01 X44.9658 Y38.7608
G01 X44.9137 Y38.6740
G01 X44.9108 Y38.6685
G01 X44.8676 Y38.5770
G01 X44.8334 Y38.4817
G01 X44.8316 Y38.4757
G01 X44.8071 Y38.3775
G01 X44.7917 Y38.2743
G01 X44.7867 Y38.1731
G01 X44.7867 Y38.1669
G01 X44.7917 Y38.0658
G01 X44.8065 Y37.9656
G01 X44.8077 Y37.9595
G01 X44.8316 Y37.8643
G01 X44.8334 Y37.8584
G01 X44.8676 Y37.7631
G01 X44.9122 Y37.6687
G01 X44.9658 Y37.5792
G01 X45.0261 Y37.4979
G01 X45.0300 Y37.4931
G01 X45.0959 Y37.4203
G01 X45.1003 Y37.4159
G01 X45.1754 Y37.3480
G01 X45.2567 Y37.2876
G01 X45.2619 Y37.2842
G01 X45.3487 Y37.2322
G01 X45.4402 Y37.1888
G01 X45.4460 Y37.1865
G00 Z2.0000
G00 X45.4460 Y34.6465
G01 F60.00
G01 Z-0.0500
G01 F120.00
G01 X45.5413 Y34.6124
G01 X45.6395 Y34.5877
G01 X45.6456 Y34.5865
G01 X45.7427 Y34.5721
G01 X45.7489 Y34.5715
G01 X45.8500 Y34.5666
G01 X46.2516 Y34.5666
G01 X46.3543 Y34.5717
G01 X46.4575 Y34.5871
G01 X46.5587 Y34.6124
G01 X46.6570 Y34.6476
G01 X46.7513 Y34.6922
G01 X46.8382 Y34.7442
G01 X46.8434 Y34.7476
G01 X46.9222 Y34.8061
G01 X46.9270 Y34.8100
G01 X47.0020 Y34.8781
G01 X47.0720 Y34.9554
G01 X47.1342 Y35.0392
G01 X47.1879 Y35.1287
G01 X47.2325 Y35.2231
G01 X47.2676 Y35.3213
G01 X47.2930 Y35.4226
G01 X47.3083 Y35.5258
G01 X47.3134 Y35.6300
G01 X47.3083 Y35.7343
G01 X47.2930 Y35.8375
G01 X47.2676 Y35.9387
G01 X47.2325 Y36.0370
G01 X47.1879 Y36.1313
G01 X47.1342 Y36.2208
G01 X47.0720 Y36.3046
G01 X47.0020 Y36.3820
G01 X46.9246 Y36.4520
G01 X46.8434 Y36.5124
G01 X46.8382 Y36.5159
G01 X46.7513 Y36.5679
G01 X46.6598 Y36.6112
G01 X46.6541 Y36.6136
G01 X46.5587 Y36.6476
G01 X46.4575 Y36.6730
G01 X46.3543 Y36.6883
G01 X46.2516 Y36.6934
G01 X45.8500 Y36.6934
G01 X45.7473 Y36.6884
G01 X45.6426 Y36.6730
G01 X45.5413 Y36.6476
G01 X45.4431 Y36.6125
G01 X45.3487 Y36.5679
G01 X45.2592 Y36.5142
G01 X45.1754 Y36.4520
G01 X45.0981 Y36.3820
G01 X45.0280 Y36.3046
G01 X44.9658 Y36.2208
G01 X44.9137 Y36.1340
G01 X44.9108 Y36.1285
G01 X44.8676 Y36.0370
G01 X44.8334 Y35.9417
G01 X44.8316 Y35.9357
G01 X44.8071 Y35.8375
G01 X44.7917 Y35.7343
G01 X44.7867 Y35.6331
G01 X44.7867 Y35.6269
G01 X44.7917 Y35.5258
G01 X44.8065 Y35.4256
G01 X44.8077 Y35.4195
G01 X44.8316 Y35.3243
G01 X44.8334 Y35.3184
G01 X44.8676 Y35.2231
G01 X44.9122 Y35.1287
G01 X44.9658 Y35.0392
G01 X45.0261 Y34.9579
G01 X45.0300 Y34.9531
G01 X45.0959 Y34.8803
G01 X45.1003 Y34.8759
G01 X45.1754 Y34.8080
G01 X45.2567 Y34.7476
G01 X45.2619 Y34.7442
G01 X45.3487 Y34.6922
G01 X45.4402 Y34.6488
G01 X45.4460 Y34.6465
G00 Z2.0000
G00 X45.4460 Y32.1065
G01 F60.00
G01 Z-0.0500
G01 F120.00
G01 X45.5413 Y32.0724
G01 X45.6395 Y32.0477
G01 X45.6456 Y32.0465
G01 X45.7427 Y32.0321
G01 X45.7489 Y32.0315
G01 X45.8500 Y32.0266
G01 X46.2516 Y32.0266
G01 X46.3543 Y32.0317
G01 X46.4575 Y32.0471
G01 X46.5587 Y32.0724
G01 X46.6570 Y32.1076
G01 X46.7513 Y32.1522
G01 X46.8382 Y32.2042
G01 X46.8434 Y32.2076
G01 X46.9222 Y32.2661
G01 X46.9270 Y32.2700
G01 X47.0020 Y32.3381
G01 X47.0720 Y32.4154
G01 X47.1342 Y32.4992
G01 X47.1879 Y32.5887
G01 X47.2325 Y32.6831
G01 X47.2676 Y32.7813
G01 X47.2930 Y32.8826
G01 X47.3083 Y32.9858
G01 X47.3134 Y33.0900
G01 X47.3083 Y33.1943
G01 X47.2930 Y33.2975
G01 X47.2676 Y33.3987
G01 X47.2325 Y33.4970
G01 X47.1879 Y33.5913
G01 X47.1342 Y33.6808
G01 X47.0720 Y33.7646
G01 X47.0020 Y33.8420
G01 X46.9246 Y33.9120
G01 X46.8434 Y33.9724
G01 X46.8382 Y33.9759
G01 X46.7513 Y34.0279
G01 X46.6598 Y34.0712
G01 X46.6541 Y34.0736
G01 X46.5587 Y34.1076
G01 X46.4575 Y34.1330
G01 X46.3543 Y34.1483
G01 X46.2516 Y34.1534
G01 X45.8500 Y34.1534
G01 X45.7473 Y34.1484
G01 X45.6426 Y34.1330
G01 X45.5413 Y34.1076
G01 X45.4431 Y34.0725
G01 X45.3487 Y34.0279
G01 X45.2592 Y33.9742
G01 X45.1754 Y33.9120
G01 X45.0981 Y33.8420
G01 X45.0280 Y33.7646
G01 X44.9658 Y33.6808
G01 X44.9137 Y33.5940
G01 X44.9108 Y33.5885
G01 X44.8676 Y33.4970
G01 X44.8334 Y33.4017
G01 X44.8316 Y33.3957
G01 X44.8071 Y33.2975
G01 X44.7917 Y33.1943
G01 X44.7867 Y33.0931
G01 X44.7867 Y33.0869
G01 X44.7917 Y32.9858
G01 X44.8065 Y32.8856
G01 X44.8077 Y32.8795
G01 X44.8316 Y32.7843
G01 X44.8334 Y32.7784
G01 X44.8676 Y32.6831
G01 X44.9122 Y32.5887
G01 X44.9658 Y32.4992
G01 X45.0261 Y32.4179
G01 X45.0300 Y32.4131
G01 X45.0959 Y32.3403
G01 X45.1003 Y32.3359
G01 X45.1754 Y32.2680
G01 X45.2567 Y32.2076
G01 X45.2619 Y32.2042
G01 X45.3487 Y32.1522
G01 X45.4402 Y32.1088
G01 X45.4460 Y32.1065
G00 Z2.0000
G00 X45.4460 Y29.5665
G01 F60.00
G01 Z-0.0500
G01 F120.00
G01 X45.5413 Y29.5324
G01 X45.6395 Y29.5077
G01 X45.6456 Y29.5065
G01 X45.7427 Y29.4921
G01 X45.7489 Y29.4915
G01 X45.8500 Y29.4866
G01 X46.2516 Y29.4866
G01 X46.3543 Y29.4917
G01 X46.4575 Y29.5071
G01 X46.5587 Y29.5324
G01 X46.6570 Y29.5676
G01 X46.7513 Y29.6122
G01 X46.8382 Y29.6642
G01 X46.8434 Y29.6676
G01 X46.9222 Y29.7261
G01 X46.9270 Y29.7300
G01 X47.0020 Y29.7981
G01 X47.0720 Y29.8754
G01 X47.1342 Y29.9592
G01 X47.1879 Y30.0487
G01 X47.2325 Y30.1431
G01 X47.2676 Y30.2413
G01 X47.2930 Y30.3426
G01 X47.3083 Y30.4458
G01 X47.3134 Y30.5500
G01 X47.3083 Y30.6543
G01 X47.2930 Y30.7575
G01 X47.2676 Y30.8587
G01 X47.2325 Y30.9570
G01 X47.1879 Y31.0513
G01 X47.1342 Y31.1408
G01 X47.0720 Y31.2246
G01 X47.0020 Y31.3020
G01 X46.9246 Y31.3720
G01 X46.8434 Y31.4324
G01 X46.8382 Y31.4359
G01 X46.7513 Y31.4879
G01 X46.6598 Y31.5312
G01 X46.6541 Y31.5336
G01 X46.5587 Y31.5676
G01 X46.4575 Y31.5930
G01 X46.3543 Y31.6083
G01 X46.2516 Y31.6134
G01 X45.8500 Y31.6134
G01 X45.7473 Y31.6084
G01 X45.6426 Y31.5930
G01 X45.5413 Y31.5676
G01 X45.4431 Y31.5325
G01 X45.3487 Y31.4879
G01 X45.2592 Y31.4342
G01 X45.1754 Y31.3720
G01 X45.0981 Y31.3020
G01 X45.0280 Y31.2246
G01 X44.9658 Y31.1408
G01 X44.9137 Y31.0540
G01 X44.9108 Y31.0485
G01 X44.8676 Y30.9570
G01 X44.8334 Y30.8617
G01 X44.8316 Y30.8557
G01 X44.8071 Y30.7575
G01 X44.7917 Y30.6543
G01 X44.7867 Y30.5531
G01 X44.7867 Y30.5469
G01 X44.7917 Y30.4458
G01 X44.8065 Y30.3456
G01 X44.8077 Y30.3395
G01 X44.8316 Y30.2443
G01 X44.8334 Y30.2384
G01 X44.8676 Y30.1431
G01 X44.9122 Y30.0487
G01 X44.9658 Y29.9592
G01 X45.0261 Y29.8779
G01 X45.0300 Y29.8731
G01 X45.0959 Y29.8003
G01 X45.1003 Y29.7959
G01 X45.1754 Y29.7280
G01 X45.2567 Y29.6676
G01 X45.2619 Y29.6642
G01 X45.3487 Y29.6122
G01 X45.4402 Y29.5688
G01 X45.4460 Y29.5665
G00 Z2.0000
G00 X45.4460 Y27.0265
G01 F60.00
G01 Z-0.0500
G01 F120.00
G01 X45.5413 Y26.9924
G01 X45.6395 Y26.9677
G01 X45.6456 Y26.9665
G01 X45.7427 Y26.9521
G01 X45.7489 Y26.9515
G01 X45.8500 Y26.9466
G01 X46.2516 Y26.9466
G01 X46.3543 Y26.9517
G01 X46.4575 Y26.9671
G01 X46.5587 Y26.9924
G01 X46.6570 Y27.0276
G01 X46.7513 Y27.0722
G01 X46.8382 Y27.1242
G01 X46.8434 Y27.1276
G01 X46.9222 Y27.1861
G01 X46.9270 Y27.1900
G01 X47.0020 Y27.2581
G01 X47.0720 Y27.3354
G01 X47.1342 Y27.4192
G01 X47.1879 Y27.5087
G01 X47.2325 Y27.6031
G01 X47.2676 Y27.7013
G01 X47.2930 Y27.8026
G01 X47.3083 Y27.9058
G01 X47.3134 Y28.0100
G01 X47.3083 Y28.1143
G01 X47.2930 Y28.2175
G01 X47.2676 Y28.3187
G01 X47.2325 Y28.4170
G01 X47.1879 Y28.5113
G01 X47.1342 Y28.6008
G01 X47.0720 Y28.6846
G01 X47.0020 Y28.7620
G01 X46.9246 Y28.8320
G01 X46.8434 Y28.8924
G01 X46.8382 Y28.8959
G01 X46.7513 Y28.9479
G01 X46.6598 Y28.9912
G01 X46.6541 Y28.9936
G01 X46.5587 Y29.0276
G01 X46.4575 Y29.0530
G01 X46.3543 Y29.0683
G01 X46.2516 Y29.0734
G01 X45.8500 Y29.0734
G01 X45.7473 Y29.0684
G01 X45.6426 Y29.0530
G01 X45.5413 Y29.0276
G01 X45.4431 Y28.9925
G01 X45.3487 Y28.9479
G01 X45.2592 Y28.8942
G01 X45.1754 Y28.8320
G01 X45.0981 Y28.7620
G01 X45.0280 Y28.6846
G01 X44.9658 Y28.6008
G01 X44.9137 Y28.5140
G01 X44.9108 Y28.5085
G01 X44.8676 Y28.4170
G01 X44.8334 Y28.3217
G01 X44.8316 Y28.3157
G01 X44.8071 Y28.2175
G01 X44.7917 Y28.1143
G01 X44.7867 Y28.0131
G01 X44.7867 Y28.0069
G01 X44.7917 Y27.9058
G01 X44.8065 Y27.8056
G01 X44.8077 Y27.7995
G01 X44.8316 Y27.7043
G01 X44.8334 Y27.6984
G01 X44.8676 Y27.6031
G01 X44.9122 Y27.5087
G01 X44.9658 Y27.4192
G01 X45.0261 Y27.3379
G01 X45.0300 Y27.3331
G01 X45.0959 Y27.2603
G01 X45.1003 Y27.2559
G01 X45.1754 Y27.1880
G01 X45.2567 Y27.1276
G01 X45.2619 Y27.1242
G01 X45.3487 Y27.0722
G01 X45.4402 Y27.0288
G01 X45.4460 Y27.0265
G00 Z2.0000
G00 X45.4460 Y24.4865
G01 F60.00
G01 Z-0.0500
G01 F120.00
G01 X45.5413 Y24.4524
G01 X45.6395 Y24.4277
G01 X45.6456 Y24.4265
G01 X45.7427 Y24.4121
G01 X45.7489 Y24.4115
G01 X45.8500 Y24.4066
G01 X46.2516 Y24.4066
G01 X46.3543 Y24.4117
G01 X46.4575 Y24.4271
G01 X46.5587 Y24.4524
G01 X46.6570 Y24.4876
G01 X46.7513 Y24.5322
G01 X46.8382 Y24.5842
G01 X46.8434 Y24.5876
G01 X46.9222 Y24.6461
G01 X46.9270 Y24.6500
G01 X47.0020 Y24.7181
G01 X47.0720 Y24.7954
G01 X47.1342 Y24.8792
G01 X47.1879 Y24.9687
G01 X47.2325 Y25.0631
G01 X47.2676 Y25.1613
G01 X47.2930 Y25.2626
G01 X47.3083 Y25.3658
G01 X47.3134 Y25.4700
G01 X47.3083 Y25.5743
G01 X47.2930 Y25.6775
G01 X47.2676 Y25.7787
G01 X47.2325 Y25.8770
G01 X47.1879 Y25.9713
G01 X47.1342 Y26.0608
G01 X47.0720 Y26.1446
G01 X47.0020 Y26.2220
G01 X46.9246 Y26.2920
G01 X46.8434 Y26.3524
G01 X46.8382 Y26.3559
G01 X46.7513 Y26.4079
G01 X46.6598 Y26.4512
G01 X46.6541 Y26.4536
G01 X46.5587 Y26.4876
G01 X46.4575 Y26.5130
G01 X46.3543 Y26.5283
G01 X46.2516 Y26.5334
G01 X45.8500 Y26.5334
G01 X45.7473 Y26.5284
G01 X45.6426 Y26.5130
G01 X45.5413 Y26.4876
G01 X45.4431 Y26.4525
G01 X45.3487 Y26.4079
G01 X45.2592 Y26.3542
G01 X45.1754 Y26.2920
G01 X45.0981 Y26.2220
G01 X45.0280 Y26.1446
G01 X44.9658 Y26.0608
G01 X44.9137 Y25.9740
G01 X44.9108 Y25.9685
G01 X44.8676 Y25.8770
G01 X44.8334 Y25.7817
G01 X44.8316 Y25.7757
G01 X44.8071 Y25.6775
G01 X44.7917 Y25.5743
G01 X44.7867 Y25.4731
G01 X44.7867 Y25.4669
G01 X44.7917 Y25.3658
G01 X44.8065 Y25.2656
G01 X44.8077 Y25.2595
G01 X44.8316 Y25.1643
G01 X44.8334 Y25.1584
G01 X44.8676 Y25.0631
G01 X44.9122 Y24.9687
G01 X44.9658 Y24.8792
G01 X45.0261 Y24.7979
G01 X45.0300 Y24.7931
G01 X45.0959 Y24.7203
G01 X45.1003 Y24.7159
G01 X45.1754 Y24.6480
G01 X45.2567 Y24.5876
G01 X45.2619 Y24.5842
G01 X45.3487 Y24.5322
G01 X45.4402 Y24.4888
G01 X45.4460 Y24.4865
G00 Z2.0000
G00 X45.4460 Y21.9465
G01 F60.00
G01 Z-0.0500
G01 F120.00
G01 X45.5413 Y21.9124
G01 X45.6395 Y21.8877
G01 X45.6456 Y21.8865
G01 X45.7427 Y21.8721
G01 X45.7489 Y21.8715
G01 X45.8500 Y21.8666
G01 X46.2516 Y21.8666
G01 X46.3543 Y21.8717
G01 X46.4575 Y21.8871
G01 X46.5587 Y21.9124
G01 X46.6570 Y21.9476
G01 X46.7513 Y21.9922
G01 X46.8382 Y22.0442
G01 X46.8434 Y22.0476
G01 X46.9222 Y22.1061
G01 X46.9270 Y22.1100
G01 X47.0020 Y22.1781
G01 X47.0720 Y22.2554
G01 X47.1342 Y22.3392
G01 X47.1879 Y22.4287
G01 X47.2325 Y22.5231
G01 X47.2676 Y22.6213
G01 X47.2930 Y22.7226
G01 X47.3083 Y22.8258
G01 X47.3134 Y22.9300
G01 X47.3083 Y23.0343
G01 X47.2930 Y23.1375
G01 X47.2676 Y23.2387
G01 X47.2325 Y23.3370
G01 X47.1879 Y23.4313
G01 X47.1342 Y23.5208
G01 X47.0720 Y23.6046
G01 X47.0020 Y23.6820
G01 X46.9246 Y23.7520
G01 X46.8434 Y23.8124
G01 X46.8382 Y23.8159
G01 X46.7513 Y23.8679
G01 X46.6598 Y23.9112
G01 X46.6541 Y23.9136
G01 X46.5587 Y23.9476
G01 X46.4575 Y23.9730
G01 X46.3543 Y23.9883
G01 X46.2516 Y23.9934
G01 X45.8500 Y23.9934
G01 X45.7473 Y23.9884
G01 X45.6426 Y23.9730
G01 X45.5413 Y23.9476
G01 X45.4431 Y23.9125
G01 X45.3487 Y23.8679
G01 X45.2592 Y23.8142
G01 X45.1754 Y23.7520
G01 X45.0981 Y23.6820
G01 X45.0280 Y23.6046
G01 X44.9658 Y23.5208
G01 X44.9137 Y23.4340
G01 X44.9108 Y23.4285
G01 X44.8676 Y23.3370
G01 X44.8334 Y23.2417
G01 X44.8316 Y23.2357
G01 X44.8071 Y23.1375
G01 X44.7917 Y23.0343
G01 X44.7867 Y22.9331
G01 X44.7867 Y22.9269
G01 X44.7917 Y22.8258
G01 X44.8065 Y22.7256
G01 X44.8077 Y22.7195
G01 X44.8316 Y22.6243
G01 X44.8334 Y22.6184
G01 X44.8676 Y22.5231
G01 X44.9122 Y22.4287
G01 X44.9658 Y22.3392
G01 X45.0261 Y22.2579
G01 X45.0300 Y22.2531
G01 X45.0959 Y22.1803
G01 X45.1003 Y22.1759
G01 X45.1754 Y22.1080
G01 X45.2567 Y22.0476
G01 X45.2619 Y22.0442
G01 X45.3487 Y21.9922
G01 X45.4402 Y21.9488
G01 X45.4460 Y21.9465
G00 Z2.0000
G00 X45.4460 Y19.4065
G01 F60.00
G01 Z-0.0500
G01 F120.00
G01 X45.5413 Y19.3724
G01 X45.6395 Y19.3477
G01 X45.6456 Y19.3465
G01 X45.7427 Y19.3321
G01 X45.7489 Y19.3315
G01 X45.8500 Y19.3266
G01 X46.2516 Y19.3266
G01 X46.3543 Y19.3317
G01 X46.4575 Y19.3471
G01 X46.5587 Y19.3724
G01 X46.6570 Y19.4076
G01 X46.7513 Y19.4522
G01 X46.8382 Y19.5042
G01 X46.8434 Y19.5076
G01 X46.9222 Y19.5661
G01 X46.9270 Y19.5700
G01 X47.0020 Y19.6381
G01 X47.0720 Y19.7154
G01 X47.1342 Y19.7992
G01 X47.1879 Y19.8887
G01 X47.2325 Y19.9831
G01 X47.2676 Y20.0813
G01 X47.2930 Y20.1826
G01 X47.3083 Y20.2858
G01 X47.3134 Y20.3900
G01 X47.3083 Y20.4943
G01 X47.2930 Y20.5975
G01 X47.2676 Y20.6987
G01 X47.2325 Y20.7970
G01 X47.1879 Y20.8913
G01 X47.1342 Y20.9808
G01 X47.0720 Y21.0646
G01 X47.0020 Y21.1420
G01 X46.9246 Y21.2120
G01 X46.8434 Y21.2724
G01 X46.8382 Y21.2759
G01 X46.7513 Y21.3279
G01 X46.6598 Y21.3712
G01 X46.6541 Y21.3736
G01 X46.5587 Y21.4076
G01 X46.4575 Y21.4330
G01 X46.3543 Y21.4483
G01 X46.2516 Y21.4534
G01 X45.8500 Y21.4534
G01 X45.7473 Y21.4484
G01 X45.6426 Y21.4330
G01 X45.5413 Y21.4076
G01 X45.4431 Y21.3725
G01 X45.3487 Y21.3279
G01 X45.2592 Y21.2742
G01 X45.1754 Y21.2120
G01 X45.0981 Y21.1420
G01 X45.0280 Y21.0646
G01 X44.9658 Y20.9808
G01 X44.9137 Y20.8940
G01 X44.9108 Y20.8885
G01 X44.8676 Y20.7970
G01 X44.8334 Y20.7017
G01 X44.8316 Y20.6957
G01 X44.8071 Y20.5975
G01 X44.7917 Y20.4943
G01 X44.7867 Y20.3931
G01 X44.7867 Y20.3869
G01 X44.7917 Y20.2858
G01 X44.8065 Y20.1856
G01 X44.8077 Y20.1795
G01 X44.8316 Y20.0843
G01 X44.8334 Y20.0784
G01 X44.8676 Y19.9831
G01 X44.9122 Y19.8887
G01 X44.9658 Y19.7992
G01 X45.0261 Y19.7179
G01 X45.0300 Y19.7131
G01 X45.0959 Y19.6403
G01 X45.1003 Y19.6359
G01 X45.1754 Y19.5680
G01 X45.2567 Y19.5076
G01 X45.2619 Y19.5042
G01 X45.3487 Y19.4522
G01 X45.4402 Y19.4088
G01 X45.4460 Y19.4065
G00 Z2.0000
G00 X45.4460 Y16.8665
G01 F60.00
G01 Z-0.0500
G01 F120.00
G01 X45.5413 Y16.8324
G01 X45.6395 Y16.8077
G01 X45.6456 Y16.8065
G01 X45.7427 Y16.7921
G01 X45.7489 Y16.7915
G01 X45.8500 Y16.7866
G01 X46.2516 Y16.7866
G01 X46.3543 Y16.7917
G01 X46.4575 Y16.8071
G01 X46.5587 Y16.8324
G01 X46.6570 Y16.8676
G01 X46.7513 Y16.9122
G01 X46.8382 Y16.9642
G01 X46.8434 Y16.9676
G01 X46.9222 Y17.0261
G01 X46.9270 Y17.0300
G01 X47.0020 Y17.0981
G01 X47.0720 Y17.1754
G01 X47.1342 Y17.2592
G01 X47.1879 Y17.3487
G01 X47.2325 Y17.4431
G01 X47.2676 Y17.5413
G01 X47.2930 Y17.6426
G01 X47.3083 Y17.7458
G01 X47.3134 Y17.8500
G01 X47.3083 Y17.9543
G01 X47.2930 Y18.0575
G01 X47.2676 Y18.1587
G01 X47.2325 Y18.2570
G01 X47.1879 Y18.3513
G01 X47.1342 Y18.4408
G01 X47.0720 Y18.5246
G01 X47.0020 Y18.6020
G01 X46.9246 Y18.6720
G01 X46.8434 Y18.7324
G01 X46.8382 Y18.7359
G01 X46.7513 Y18.7879
G01 X46.6598 Y18.8312
G01 X46.6541 Y18.8336
G01 X46.5587 Y18.8676
G01 X46.4575 Y18.8930
G01 X46.3543 Y18.9083
G01 X46.2516 Y18.9134
G01 X45.8500 Y18.9134
G01 X45.7473 Y18.9084
G01 X45.6426 Y18.8930
G01 X45.5413 Y18.8676
G01 X45.4431 Y18.8325
G01 X45.3487 Y18.7879
G01 X45.2592 Y18.7342
G01 X45.1754 Y18.6720
G01 X45.0981 Y18.6020
G01 X45.0280 Y18.5246
G01 X44.9658 Y18.4408
G01 X44.9137 Y18.3540
G01 X44.9108 Y18.3485
G01 X44.8676 Y18.2570
G01 X44.8334 Y18.1617
G01 X44.8316 Y18.1557
G01 X44.8071 Y18.0575
G01 X44.7917 Y17.9543
G01 X44.7867 Y17.8531
G01 X44.7867 Y17.8469
G01 X44.7917 Y17.7458
G01 X44.8065 Y17.6456
G01 X44.8077 Y17.6395
G01 X44.8316 Y17.5443
G01 X44.8334 Y17.5384
G01 X44.8676 Y17.4431
G01 X44.9122 Y17.3487
G01 X44.9658 Y17.2592
G01 X45.0261 Y17.1779
G01 X45.0300 Y17.1731
G01 X45.0959 Y17.1003
G01 X45.1003 Y17.0959
G01 X45.1754 Y17.0280
G01 X45.2567 Y16.9676
G01 X45.2619 Y16.9642
G01 X45.3487 Y16.9122
G01 X45.4402 Y16.8688
G01 X45.4460 Y16.8665
G00 Z2.0000
G00 X45.4460 Y14.3265
G01 F60.00
G01 Z-0.0500
G01 F120.00
G01 X45.5413 Y14.2924
G01 X45.6395 Y14.2677
G01 X45.6456 Y14.2665
G01 X45.7427 Y14.2521
G01 X45.7489 Y14.2515
G01 X45.8500 Y14.2466
G01 X46.2516 Y14.2466
G01 X46.3543 Y14.2517
G01 X46.4575 Y14.2671
G01 X46.5587 Y14.2924
G01 X46.6570 Y14.3276
G01 X46.7513 Y14.3722
G01 X46.8382 Y14.4242
G01 X46.8434 Y14.4276
G01 X46.9222 Y14.4861
G01 X46.9270 Y14.4900
G01 X47.0020 Y14.5581
G01 X47.0720 Y14.6354
G01 X47.1342 Y14.7192
G01 X47.1879 Y14.8087
G01 X47.2325 Y14.9031
G01 X47.2676 Y15.0013
G01 X47.2930 Y15.1026
G01 X47.3083 Y15.2058
G01 X47.3134 Y15.3100
G01 X47.3083 Y15.4143
G01 X47.2930 Y15.5175
G01 X47.2676 Y15.6187
G01 X47.2325 Y15.7170
G01 X47.1879 Y15.8113
G01 X47.1342 Y15.9008
G01 X47.0720 Y15.9846
G01 X47.0020 Y16.0620
G01 X46.9246 Y16.1320
G01 X46.8434 Y16.1924
G01 X46.8382 Y16.1959
G01 X46.7513 Y16.2479
G01 X46.6598 Y16.2912
G01 X46.6541 Y16.2936
G01 X46.5587 Y16.3276
G01 X46.4575 Y16.3530
G01 X46.3543 Y16.3683
G01 X46.2516 Y16.3734
G01 X45.8500 Y16.3734
G01 X45.7473 Y16.3684
G01 X45.6426 Y16.3530
G01 X45.5413 Y16.3276
G01 X45.4431 Y16.2925
G01 X45.3487 Y16.2479
G01 X45.2592 Y16.1942
G01 X45.1754 Y16.1320
G01 X45.0981 Y16.0620
G01 X45.0280 Y15.9846
G01 X44.9658 Y15.9008
G01 X44.9137 Y15.8140
G01 X44.9108 Y15.8085
G01 X44.8676 Y15.7170
G01 X44.8334 Y15.6217
G01 X44.8316 Y15.6157
G01 X44.8071 Y15.5175
G01 X44.7917 Y15.4143
G01 X44.7867 Y15.3131
G01 X44.7867 Y15.3069
G01 X44.7917 Y15.2058
G01 X44.8065 Y15.1056
G01 X44.8077 Y15.0995
G01 X44.8316 Y15.0043
G01 X44.8334 Y14.9984
G01 X44.8676 Y14.9031
G01 X44.9122 Y14.8087
G01 X44.9658 Y14.7192
G01 X45.0261 Y14.6379
G01 X45.0300 Y14.6331
G01 X45.0959 Y14.5603
G01 X45.1003 Y14.5559
G01 X45.1754 Y14.4880
G01 X45.2567 Y14.4276
G01 X45.2619 Y14.4242
G01 X45.3487 Y14.3722
G01 X45.4402 Y14.3288
G01 X45.4460 Y14.3265
G00 Z2.0000
G00 X45.4460 Y11.7865
G01 F60.00
G01 Z-0.0500
G01 F120.00
G01 X45.5413 Y11.7524
G01 X45.6395 Y11.7277
G01 X45.6456 Y11.7265
G01 X45.7427 Y11.7121
G01 X45.7489 Y11.7115
G01 X45.8500 Y11.7066
G01 X46.2516 Y11.7066
G01 X46.3543 Y11.7117
G01 X46.4575 Y11.7271
G01 X46.5587 Y11.7524
G01 X46.6570 Y11.7876
G01 X46.7513 Y11.8322
G01 X46.8382 Y11.8842
G01 X46.8434 Y11.8876
G01 X46.9222 Y11.9461
G01 X46.9270 Y11.9500
G01 X47.0020 Y12.0181
G01 X47.0720 Y12.0954
G01 X47.1342 Y12.1792
G01 X47.1879 Y12.2687
G01 X47.2325 Y12.3631
G01 X47.2676 Y12.4613
G01 X47.2930 Y12.5626
G01 X47.3083 Y12.6658
G01 X47.3134 Y12.7700
G01 X47.3083 Y12.8743
G01 X47.2930 Y12.9775
G01 X47.2676 Y13.0787
G01 X47.2325 Y13.1770
G01 X47.1879 Y13.2713
G01 X47.1342 Y13.3608
G01 X47.0720 Y13.4446
G01 X47.0020 Y13.5220
G01 X46.9246 Y13.5920
G01 X46.8434 Y13.6524
G01 X46.8382 Y13.6559
G01 X46.7513 Y13.7079
G01 X46.6598 Y13.7512
G01 X46.6541 Y13.7536
G01 X46.5587 Y13.7876
G01 X46.4575 Y13.8130
G01 X46.3543 Y13.8283
G01 X46.2516 Y13.8334
G01 X45.8500 Y13.8334
G01 X45.7473 Y13.8284
G01 X45.6426 Y13.8130
G01 X45.5413 Y13.7876
G01 X45.4431 Y13.7525
G01 X45.3487 Y13.7079
G01 X45.2592 Y13.6542
G01 X45.1754 Y13.5920
G01 X45.0981 Y13.5220
G01 X45.0280 Y13.4446
G01 X44.9658 Y13.3608
G01 X44.9137 Y13.2740
G01 X44.9108 Y13.2685
G01 X44.8676 Y13.1770
G01 X44.8334 Y13.0817
G01 X44.8316 Y13.0757
G01 X44.8071 Y12.9775
G01 X44.7917 Y12.8743
G01 X44.7867 Y12.7731
G01 X44.7867 Y12.7669
G01 X44.7917 Y12.6658
G01 X44.8065 Y12.5656
G01 X44.8077 Y12.5595
G01 X44.8316 Y12.4643
G01 X44.8334 Y12.4584
G01 X44.8676 Y12.3631
G01 X44.9122 Y12.2687
G01 X44.9658 Y12.1792
G01 X45.0261 Y12.0979
G01 X45.0300 Y12.0931
G01 X45.0959 Y12.0203
G01 X45.1003 Y12.0159
G01 X45.1754 Y11.9480
G01 X45.2567 Y11.8876
G01 X45.2619 Y11.8842
G01 X45.3487 Y11.8322
G01 X45.4402 Y11.7888
G01 X45.4460 Y11.7865
G00 Z2.0000
G00 X45.4460 Y9.2465
G01 F60.00
G01 Z-0.0500
G01 F120.00
G01 X45.5413 Y9.2124
G01 X45.6395 Y9.1877
G01 X45.6456 Y9.1865
G01 X45.7427 Y9.1721
G01 X45.7489 Y9.1715
G01 X45.8500 Y9.1666
G01 X46.2516 Y9.1666
G01 X46.3543 Y9.1717
G01 X46.4575 Y9.1871
G01 X46.5587 Y9.2124
G01 X46.6570 Y9.2476
G01 X46.7513 Y9.2922
G01 X46.8382 Y9.3442
G01 X46.8434 Y9.3476
G01 X46.9222 Y9.4061
G01 X46.9270 Y9.4100
G01 X47.0020 Y9.4781
G01 X47.0720 Y9.5554
G01 X47.1342 Y9.6392
G01 X47.1879 Y9.7287
G01 X47.2325 Y9.8231
G01 X47.2676 Y9.9213
G01 X47.2930 Y10.0226
G01 X47.3083 Y10.1258
G01 X47.3134 Y10.2300
G01 X47.3083 Y10.3343
G01 X47.2930 Y10.4375
G01 X47.2676 Y10.5387
G01 X47.2325 Y10.6370
G01 X47.1879 Y10.7313
G01 X47.1342 Y10.8208
G01 X47.0720 Y10.9046
G01 X47.0020 Y10.9820
G01 X46.9246 Y11.0520
G01 X46.8434 Y11.1124
G01 X46.8382 Y11.1159
G01 X46.7513 Y11.1679
G01 X46.6598 Y11.2112
G01 X46.6541 Y11.2136
G01 X46.5587 Y11.2476
G01 X46.4575 Y11.2730
G01 X46.3543 Y11.2883
G01 X46.2516 Y11.2934
G01 X45.8500 Y11.2934
G01 X45.7473 Y11.2884
G01 X45.6426 Y11.2730
G01 X45.5413 Y11.2476
G01 X45.4431 Y11.2125
G01 X45.3487 Y11.1679
G01 X45.2592 Y11.1142
G01 X45.1754 Y11.0520
G01 X45.0981 Y10.9820
G01 X45.0280 Y10.9046
G01 X44.9658 Y10.8208
G01 X44.9137 Y10.7340
G01 X44.9108 Y10.7285
G01 X44.8676 Y10.6370
G01 X44.8334 Y10.5417
G01 X44.8316 Y10.5357
G01 X44.8071 Y10.4375
G01 X44.7917 Y10.3343
G01 X44.7867 Y10.2331
G01 X44.7867 Y10.2269
G01 X44.7917 Y10.1258
G01 X44.8065 Y10.0256
G01 X44.8077 Y10.0195
G01 X44.8316 Y9.9243
G01 X44.8334 Y9.9184
G01 X44.8676 Y9.8231
G01 X44.9122 Y9.7287
G01 X44.9658 Y9.6392
G01 X45.0261 Y9.5579
G01 X45.0300 Y9.5531
G01 X45.0959 Y9.4803
G01 X45.1003 Y9.4759
G01 X45.1754 Y9.4080
G01 X45.2567 Y9.3476
G01 X45.2619 Y9.3442
G01 X45.3487 Y9.2922
G01 X45.4402 Y9.2488
G01 X45.4460 Y9.2465
G00 Z2.0000
G00 X45.4460 Y6.7065
G01 F60.00
G01 Z-0.0500
G01 F120.00
G01 X45.5413 Y6.6724
G01 X45.6395 Y6.6477
G01 X45.6456 Y6.6465
G01 X45.7427 Y6.6321
G01 X45.7489 Y6.6315
G01 X45.8500 Y6.6266
G01 X46.2516 Y6.6266
G01 X46.3543 Y6.6317
G01 X46.4575 Y6.6471
G01 X46.5587 Y6.6724
G01 X46.6570 Y6.7076
G01 X46.7513 Y6.7522
G01 X46.8382 Y6.8042
G01 X46.8434 Y6.8076
G01 X46.9222 Y6.8661
G01 X46.9270 Y6.8700
G01 X47.0020 Y6.9381
G01 X47.0720 Y7.0154
G01 X47.1342 Y7.0992
G01 X47.1879 Y7.1887
G01 X47.2325 Y7.2831
G01 X47.2676 Y7.3813
G01 X47.2930 Y7.4826
G01 X47.3083 Y7.5858
G01 X47.3134 Y7.6900
G01 X47.3083 Y7.7943
G01 X47.2930 Y7.8975
G01 X47.2676 Y7.9987
G01 X47.2325 Y8.0970
G01 X47.1879 Y8.1913
G01 X47.1342 Y8.2808
G01 X47.0720 Y8.3646
G01 X47.0020 Y8.4420
G01 X46.9246 Y8.5120
G01 X46.8434 Y8.5724
G01 X46.8382 Y8.5759
G01 X46.7513 Y8.6279
G01 X46.6598 Y8.6712
G01 X46.6541 Y8.6736
G01 X46.5587 Y8.7076
G01 X46.4575 Y8.7330
G01 X46.3543 Y8.7483
G01 X46.2516 Y8.7534
G01 X45.8500 Y8.7534
G01 X45.7473 Y8.7484
G01 X45.6426 Y8.7330
G01 X45.5413 Y8.7076
G01 X45.4431 Y8.6725
G01 X45.3487 Y8.6279
G01 X45.2592 Y8.5742
G01 X45.1754 Y8.5120
G01 X45.0981 Y8.4420
G01 X45.0280 Y8.3646
G01 X44.9658 Y8.2808
G01 X44.9137 Y8.1940
G01 X44.9108 Y8.1885
G01 X44.8676 Y8.0970
G01 X44.8334 Y8.0017
G01 X44.8316 Y7.9957
G01 X44.8071 Y7.8975
G01 X44.7917 Y7.7943
G01 X44.7867 Y7.6931
G01 X44.7867 Y7.6869
G01 X44.7917 Y7.5858
G01 X44.8065 Y7.4856
G01 X44.8077 Y7.4795
G01 X44.8316 Y7.3843
G01 X44.8334 Y7.3784
G01 X44.8676 Y7.2831
G01 X44.9122 Y7.1887
G01 X44.9658 Y7.0992
G01 X45.0261 Y7.0179
G01 X45.0300 Y7.0131
G01 X45.0959 Y6.9403
G01 X45.1003 Y6.9359
G01 X45.1754 Y6.8680
G01 X45.2567 Y6.8076
G01 X45.2619 Y6.8042
G01 X45.3487 Y6.7522
G01 X45.4402 Y6.7088
G01 X45.4460 Y6.7065
G00 Z2.0000
G00 X47.9460 Y0.7876
G01 F60.00
G01 Z-0.0500
G01 F120.00
G01 X48.0413 Y0.7535
G01 X48.1426 Y0.7282
G01 X48.2458 Y0.7128
G01 X48.3469 Y0.7078
G01 X48.3531 Y0.7078
G01 X48.4512 Y0.7126
G01 X48.4573 Y0.7132
G01 X48.5575 Y0.7282
G01 X48.6587 Y0.7535
G01 X48.7570 Y0.7887
G01 X48.8485 Y0.8319
G01 X48.8540 Y0.8348
G01 X48.9382 Y0.8853
G01 X48.9434 Y0.8887
G01 X49.0246 Y0.9491
G01 X49.1020 Y1.0192
G01 X49.1720 Y1.0965
G01 X49.2173 Y1.1574
G01 X63.5911 Y1.1574
G01 X63.6513 Y1.1604
G01 X63.7108 Y1.1692
G01 X63.7693 Y1.1839
G01 X63.8231 Y1.2030
G01 X63.8288 Y1.2054
G01 X63.8804 Y1.2299
G01 X63.9321 Y1.2609
G01 X63.9804 Y1.2967
G01 X64.0251 Y1.3372
G01 X75.6312 Y12.9434
G01 X75.6992 Y12.9191
G01 X75.7989 Y12.8941
G01 X75.9052 Y12.8783
G01 X76.0079 Y12.8733
G01 X76.1091 Y12.8782
G01 X76.1152 Y12.8788
G01 X76.2169 Y12.8941
G01 X76.3166 Y12.9191
G01 X76.4120 Y12.9532
G01 X76.4177 Y12.9555
G01 X76.5092 Y12.9989
G01 X76.5961 Y13.0509
G01 X76.6013 Y13.0543
G01 X76.6825 Y13.1147
G01 X76.7599 Y13.1848
G01 X76.8279 Y13.2598
G01 X76.8319 Y13.2646
G01 X76.8921 Y13.3459
G01 X76.9458 Y13.4354
G01 X76.9891 Y13.5269
G01 X76.9915 Y13.5327
G01 X77.0255 Y13.6280
G01 X77.0509 Y13.7293
G01 X77.0662 Y13.8325
G01 X77.0712 Y13.9336
G01 X77.0712 Y13.9398
G01 X77.0662 Y14.0410
G01 X77.0509 Y14.1442
G01 X77.0264 Y14.2424
G01 X77.0246 Y14.2484
G01 X76.9915 Y14.3408
G01 X76.9891 Y14.3465
G01 X76.9458 Y14.4380
G01 X76.8938 Y14.5249
G01 X76.8903 Y14.5301
G01 X76.8319 Y14.6089
G01 X76.8279 Y14.6137
G01 X76.7599 Y14.6887
G01 X76.6825 Y14.7587
G01 X76.5987 Y14.8209
G01 X76.5119 Y14.8730
G01 X76.5064 Y14.8760
G01 X76.4177 Y14.9179
G01 X76.4120 Y14.9203
G01 X76.3166 Y14.9543
G01 X76.2184 Y14.9790
G01 X76.2123 Y14.9802
G01 X76.1122 Y14.9950
G01 X76.0079 Y15.0001
G01 X75.9037 Y14.9950
G01 X75.8035 Y14.9802
G01 X75.7974 Y14.9790
G01 X75.7022 Y14.9552
G01 X75.6963 Y14.9534
G01 X75.6010 Y14.9192
G01 X75.5094 Y14.8760
G01 X75.5039 Y14.8730
G01 X75.4171 Y14.8209
G01 X75.3321 Y14.7577
G01 X75.2560 Y14.6887
G01 X75.1859 Y14.6113
G01 X75.1237 Y14.5275
G01 X75.0694 Y14.4366
G01 X75.0255 Y14.3437
G01 X74.9899 Y14.2439
G01 X74.9647 Y14.1427
G01 X74.9498 Y14.0425
G01 X74.9473 Y13.9952
G01 X63.3369 Y2.3848
G01 X49.2173 Y2.3848
G01 X49.1720 Y2.4457
G01 X49.1041 Y2.5208
G01 X49.0997 Y2.5252
G01 X49.0246 Y2.5931
G01 X48.9434 Y2.6535
G01 X48.9382 Y2.6570
G01 X48.8513 Y2.7090
G01 X48.7584 Y2.7530
G01 X48.6587 Y2.7887
G01 X48.5605 Y2.8134
G01 X48.5544 Y2.8146
G01 X48.4543 Y2.8294
G01 X48.3531 Y2.8344
G01 X48.3469 Y2.8344
G01 X48.2458 Y2.8294
G01 X48.1426 Y2.8141
G01 X48.0443 Y2.7896
G01 X48.0384 Y2.7878
G01 X47.9460 Y2.7547
G01 X47.9402 Y2.7523
G01 X47.8487 Y2.7090
G01 X47.7592 Y2.6553
G01 X47.6754 Y2.5931
G01 X47.5981 Y2.5231
G01 X47.5280 Y2.4457
G01 X47.4676 Y2.3645
G01 X47.4642 Y2.3593
G01 X47.4137 Y2.2751
G01 X47.4108 Y2.2696
G01 X47.3676 Y2.1781
G01 X47.3324 Y2.0798
G01 X47.3071 Y1.9786
G01 X47.2921 Y1.8784
G01 X47.2915 Y1.8723
G01 X47.2867 Y1.7742
G01 X47.2867 Y1.7680
G01 X47.2917 Y1.6669
G01 X47.3071 Y1.5637
G01 X47.3324 Y1.4624
G01 X47.3665 Y1.3671
G01 X47.3688 Y1.3613
G01 X47.4108 Y1.2726
G01 X47.4137 Y1.2671
G01 X47.4658 Y1.1803
G01 X47.5280 Y1.0965
G01 X47.5981 Y1.0192
G01 X47.6731 Y0.9511
G01 X47.6779 Y0.9472
G01 X47.7567 Y0.8887
G01 X47.7619 Y0.8853
G01 X47.8487 Y0.8333
G01 X47.9402 Y0.7899
G01 X47.9460 Y0.7876
G00 Z2.0000
G00 X57.1217 Y3.0630
G01 F60.00
G01 Z-0.0500
G01 F120.00
G01 X57.2170 Y3.0289
G01 X57.3183 Y3.0036
G01 X57.4215 Y2.9882
G01 X57.5226 Y2.9832
G01 X57.5288 Y2.9832
G01 X57.6269 Y2.9880
G01 X57.6330 Y2.9886
G01 X57.7332 Y3.0036
G01 X57.8344 Y3.0289
G01 X57.9327 Y3.0641
G01 X58.0242 Y3.1073
G01 X58.0297 Y3.1102
G01 X58.1139 Y3.1607
G01 X58.1191 Y3.1641
G01 X58.2003 Y3.2245
G01 X58.2777 Y3.2946
G01 X58.3477 Y3.3719
G01 X58.3930 Y3.4328
G01 X63.7312 Y3.4329
G01 X63.7898 Y3.4358
G01 X63.8463 Y3.4441
G01 X63.8524 Y3.4453
G01 X63.9078 Y3.4593
G01 X63.9645 Y3.4796
G01 X64.0161 Y3.5039
G01 X64.0216 Y3.5068
G01 X64.0718 Y3.5372
G01 X64.1189 Y3.5721
G01 X64.1636 Y3.6126
G01 X74.5808 Y14.0299
G01 X74.6202 Y14.0734
G01 X74.6543 Y14.1192
G01 X74.6577 Y14.1244
G01 X74.6870 Y14.1734
G01 X74.7115 Y14.2250
G01 X74.7139 Y14.2308
G01 X74.7321 Y14.2816
G01 X74.7339 Y14.2876
G01 X74.7477 Y14.3430
G01 X74.7565 Y14.4026
G01 X74.7595 Y14.4612
G01 X74.7595 Y14.5310
G01 X75.5783 Y15.3498
G01 X75.6443 Y15.3103
G01 X75.7387 Y15.2657
G01 X75.8369 Y15.2305
G01 X75.9366 Y15.2055
G01 X76.0414 Y15.1898
G01 X76.1425 Y15.1848
G01 X76.1487 Y15.1848
G01 X76.2514 Y15.1900
G01 X76.3531 Y15.2052
G01 X76.4543 Y15.2305
G01 X76.5526 Y15.2657
G01 X76.6441 Y15.3089
G01 X76.6496 Y15.3118
G01 X76.7338 Y15.3623
G01 X76.7390 Y15.3657
G01 X76.8202 Y15.4261
G01 X76.8986 Y15.4973
G01 X76.9676 Y15.5735
G01 X77.0298 Y15.6573
G01 X77.0835 Y15.7468
G01 X77.1268 Y15.8383
G01 X77.1292 Y15.8441
G01 X77.1623 Y15.9365
G01 X77.1641 Y15.9424
G01 X77.1886 Y16.0407
G01 X77.2039 Y16.1439
G01 X77.2090 Y16.2481
G01 X77.2039 Y16.3524
G01 X77.1886 Y16.4556
G01 X77.1641 Y16.5538
G01 X77.1623 Y16.5598
G01 X77.1292 Y16.6522
G01 X77.1268 Y16.6579
G01 X77.0835 Y16.7494
G01 X77.0289 Y16.8402
G01 X76.9676 Y16.9227
G01 X76.8976 Y17.0001
G01 X76.8202 Y17.0701
G01 X76.7390 Y17.1305
G01 X76.7338 Y17.1340
G01 X76.6469 Y17.1860
G01 X76.5554 Y17.2293
G01 X76.5497 Y17.2317
G01 X76.4543 Y17.2657
G01 X76.3561 Y17.2904
G01 X76.3500 Y17.2916
G01 X76.2529 Y17.3060
G01 X76.2468 Y17.3066
G01 X76.1456 Y17.3115
G01 X76.0414 Y17.3064
G01 X75.9382 Y17.2911
G01 X75.8369 Y17.2657
G01 X75.7387 Y17.2306
G01 X75.6443 Y17.1860
G01 X75.5548 Y17.1323
G01 X75.4735 Y17.0721
G01 X75.4687 Y17.0681
G01 X75.3937 Y17.0001
G01 X75.3256 Y16.9251
G01 X75.3217 Y16.9203
G01 X75.2632 Y16.8415
G01 X75.2598 Y16.8363
G01 X75.2078 Y16.7494
G01 X75.1768 Y16.6841
G01 X73.7119 Y15.2193
G01 X73.6714 Y15.1746
G01 X73.6356 Y15.1263
G01 X73.6046 Y15.0746
G01 X73.5789 Y15.0202
G01 X73.5586 Y14.9635
G01 X73.5439 Y14.9050
G01 X73.5351 Y14.8455
G01 X73.5322 Y14.7869
G01 X73.5321 Y14.7169
G01 X63.4754 Y4.6602
G01 X58.3930 Y4.6602
G01 X58.3477 Y4.7211
G01 X58.2777 Y4.7985
G01 X58.2003 Y4.8685
G01 X58.1191 Y4.9289
G01 X58.1139 Y4.9324
G01 X58.0297 Y4.9828
G01 X58.0242 Y4.9858
G01 X57.9327 Y5.0290
G01 X57.8374 Y5.0632
G01 X57.8314 Y5.0650
G01 X57.7362 Y5.0888
G01 X57.7301 Y5.0900
G01 X57.6300 Y5.1048
G01 X57.5257 Y5.1099
G01 X57.4246 Y5.1050
G01 X57.4184 Y5.1044
G01 X57.3183 Y5.0895
G01 X57.2200 Y5.0650
G01 X57.2141 Y5.0632
G01 X57.1217 Y5.0301
G01 X57.1159 Y5.0277
G01 X57.0244 Y4.9844
G01 X56.9349 Y4.9307
G01 X56.8511 Y4.8685
G01 X56.7760 Y4.8006
G01 X56.7716 Y4.7962
G01 X56.7037 Y4.7211
G01 X56.6415 Y4.6373
G01 X56.5894 Y4.5505
G01 X56.5865 Y4.5450
G01 X56.5433 Y4.4535
G01 X56.5081 Y4.3552
G01 X56.4834 Y4.2570
G01 X56.4822 Y4.2509
G01 X56.4678 Y4.1538
G01 X56.4672 Y4.1477
G01 X56.4623 Y4.0465
G01 X56.4672 Y3.9454
G01 X56.4678 Y3.9392
G01 X56.4822 Y3.8421
G01 X56.4834 Y3.8360
G01 X56.5081 Y3.7378
G01 X56.5433 Y3.6396
G01 X56.5879 Y3.5452
G01 X56.6399 Y3.4584
G01 X56.6433 Y3.4532
G01 X56.7018 Y3.3744
G01 X56.7057 Y3.3696
G01 X56.7738 Y3.2946
G01 X56.8511 Y3.2245
G01 X56.9349 Y3.1623
G01 X57.0217 Y3.1102
G01 X57.0272 Y3.1073
G01 X57.1159 Y3.0653
G01 X57.1217 Y3.0630
G00 Z2.0000
G00 X57.8481 Y5.5121
G01 F60.00
G01 Z-0.0500
G01 F120.00
G01 X57.9434 Y5.4780
G01 X58.0416 Y5.4533
G01 X58.0477 Y5.4521
G01 X58.1479 Y5.4373
G01 X58.2490 Y5.4323
G01 X58.2552 Y5.4323
G01 X58.3564 Y5.4373
G01 X58.4315 Y5.4484
G01 X58.8656 Y5.0143
G01 X58.9079 Y4.9759
G01 X58.9127 Y4.9719
G01 X58.9586 Y4.9380
G01 X59.0075 Y4.9085
G01 X59.0130 Y4.9056
G01 X59.0647 Y4.8813
G01 X59.1184 Y4.8620
G01 X59.1244 Y4.8601
G01 X59.1798 Y4.8463
G01 X59.2394 Y4.8375
G01 X59.2995 Y4.8345
G01 X63.1249 Y4.8346
G01 X63.1835 Y4.8375
G01 X63.2400 Y4.8458
G01 X63.2461 Y4.8470
G01 X63.3015 Y4.8610
G01 X63.3582 Y4.8813
G01 X63.4098 Y4.9056
G01 X63.4153 Y4.9085
G01 X63.4655 Y4.9389
G01 X63.5126 Y4.9738
G01 X63.5573 Y5.0143
G01 X67.6619 Y9.1189
G01 X67.7023 Y9.1635
G01 X67.7382 Y9.2119
G01 X67.7676 Y9.2608
G01 X67.7705 Y9.2663
G01 X67.7949 Y9.3180
G01 X67.8142 Y9.3717
G01 X67.8160 Y9.3777
G01 X67.8298 Y9.4331
G01 X67.8385 Y9.4911
G01 X67.8416 Y9.5528
G01 X67.8416 Y10.2319
G01 X73.1995 Y15.5898
G01 X73.2746 Y15.5787
G01 X73.3757 Y15.5737
G01 X73.3819 Y15.5737
G01 X73.4831 Y15.5787
G01 X73.5832 Y15.5935
G01 X73.5893 Y15.5947
G01 X73.6875 Y15.6194
G01 X73.7829 Y15.6535
G01 X73.7886 Y15.6558
G01 X73.8801 Y15.6992
G01 X73.9670 Y15.7512
G01 X73.9722 Y15.7546
G01 X74.0534 Y15.8150
G01 X74.1285 Y15.8829
G01 X74.1329 Y15.8873
G01 X74.1998 Y15.9612
G01 X74.2630 Y16.0462
G01 X74.3151 Y16.1330
G01 X74.3181 Y16.1385
G01 X74.3600 Y16.2272
G01 X74.3624 Y16.2330
G01 X74.3964 Y16.3283
G01 X74.4218 Y16.4296
G01 X74.4371 Y16.5328
G01 X74.4421 Y16.6339
G01 X74.4421 Y16.6401
G01 X74.4373 Y16.7382
G01 X74.4367 Y16.7443
G01 X74.4218 Y16.8445
G01 X74.3964 Y16.9457
G01 X74.3613 Y17.0440
G01 X74.3181 Y17.1355
G01 X74.3151 Y17.1410
G01 X74.2621 Y17.2291
G01 X74.2008 Y17.3116
G01 X74.1329 Y17.3867
G01 X74.1285 Y17.3911
G01 X74.0534 Y17.4590
G01 X73.9722 Y17.5194
G01 X73.9670 Y17.5229
G01 X73.8828 Y17.5733
G01 X73.8773 Y17.5763
G01 X73.7858 Y17.6195
G01 X73.6875 Y17.6546
G01 X73.5863 Y17.6800
G01 X73.4831 Y17.6953
G01 X73.3788 Y17.7004
G01 X73.2746 Y17.6953
G01 X73.1714 Y17.6800
G01 X73.0731 Y17.6555
G01 X73.0672 Y17.6537
G01 X72.9719 Y17.6195
G01 X72.8803 Y17.5763
G01 X72.8748 Y17.5733
G01 X72.7907 Y17.5229
G01 X72.7855 Y17.5194
G01 X72.7042 Y17.4590
G01 X72.6269 Y17.3890
G01 X72.5568 Y17.3116
G01 X72.4964 Y17.2304
G01 X72.4930 Y17.2252
G01 X72.4410 Y17.1383
G01 X72.3976 Y17.0468
G01 X72.3953 Y17.0411
G01 X72.3617 Y16.9472
G01 X72.3359 Y16.8445
G01 X72.3209 Y16.7443
G01 X72.3203 Y16.7382
G01 X72.3155 Y16.6401
G01 X72.3155 Y16.6339
G01 X72.3205 Y16.5328
G01 X72.3316 Y16.4577
G01 X66.7940 Y10.9201
G01 X66.7526 Y10.8742
G01 X66.7177 Y10.8271
G01 X66.6882 Y10.7781
G01 X66.6853 Y10.7726
G01 X66.6610 Y10.7210
G01 X66.6417 Y10.6672
G01 X66.6398 Y10.6613
G01 X66.6260 Y10.6058
G01 X66.6174 Y10.5478
G01 X66.6142 Y10.4861
G01 X66.6142 Y9.8070
G01 X62.8691 Y6.0619
G01 X59.5537 Y6.0619
G01 X59.2993 Y6.3163
G01 X59.3104 Y6.3914
G01 X59.3154 Y6.4925
G01 X59.3154 Y6.4987
G01 X59.3106 Y6.5968
G01 X59.3100 Y6.6029
G01 X59.2951 Y6.7031
G01 X59.2697 Y6.8043
G01 X59.2346 Y6.9026
G01 X59.1914 Y6.9941
G01 X59.1884 Y6.9996
G01 X59.1363 Y7.0864
G01 X59.0761 Y7.1678
G01 X59.0721 Y7.1726
G01 X59.0051 Y7.2464
G01 X58.9267 Y7.3176
G01 X58.8429 Y7.3798
G01 X58.7534 Y7.4335
G01 X58.6619 Y7.4768
G01 X58.6562 Y7.4792
G01 X58.5608 Y7.5132
G01 X58.4626 Y7.5379
G01 X58.4565 Y7.5391
G01 X58.3594 Y7.5535
G01 X58.3533 Y7.5541
G01 X58.2521 Y7.5590
G01 X58.1479 Y7.5539
G01 X58.0447 Y7.5386
G01 X57.9464 Y7.5141
G01 X57.9405 Y7.5123
G01 X57.8481 Y7.4792
G01 X57.8423 Y7.4768
G01 X57.7508 Y7.4335
G01 X57.6613 Y7.3798
G01 X57.5775 Y7.3176
G01 X57.5002 Y7.2476
G01 X57.4301 Y7.1702
G01 X57.3697 Y7.0890
G01 X57.3663 Y7.0838
G01 X57.3158 Y6.9996
G01 X57.3129 Y6.9941
G01 X57.2697 Y6.9026
G01 X57.2345 Y6.8043
G01 X57.2092 Y6.7031
G01 X57.1942 Y6.6029
G01 X57.1936 Y6.5968
G01 X57.1888 Y6.4987
G01 X57.1888 Y6.4925
G01 X57.1938 Y6.3914
G01 X57.2092 Y6.2882
G01 X57.2345 Y6.1869
G01 X57.2686 Y6.0916
G01 X57.2709 Y6.0858
G01 X57.3129 Y5.9971
G01 X57.3158 Y5.9916
G01 X57.3679 Y5.9048
G01 X57.4301 Y5.8210
G01 X57.5002 Y5.7437
G01 X57.5752 Y5.6756
G01 X57.5800 Y5.6717
G01 X57.6588 Y5.6132
G01 X57.6640 Y5.6098
G01 X57.7508 Y5.5578
G01 X57.8423 Y5.5144
G01 X57.8481 Y5.5121
G00 Z2.0000
G00 X60.6860 Y6.7065
G01 F60.00
G01 Z-0.0500
G01 F120.00
G01 X60.7813 Y6.6724
G01 X60.8795 Y6.6477
G01 X60.8856 Y6.6465
G01 X60.9827 Y6.6321
G01 X60.9889 Y6.6315
G01 X61.0900 Y6.6266
G01 X61.4916 Y6.6266
G01 X61.5943 Y6.6317
G01 X61.6975 Y6.6471
G01 X61.7987 Y6.6724
G01 X61.8970 Y6.7076
G01 X61.9913 Y6.7522
G01 X62.0782 Y6.8042
G01 X62.0834 Y6.8076
G01 X62.1622 Y6.8661
G01 X62.1670 Y6.8700
G01 X62.2420 Y6.9381
G01 X62.3120 Y7.0154
G01 X62.3742 Y7.0992
G01 X62.4279 Y7.1887
G01 X62.4725 Y7.2831
G01 X62.5076 Y7.3813
G01 X62.5330 Y7.4826
G01 X62.5483 Y7.5858
G01 X62.5534 Y7.6900
G01 X62.5483 Y7.7943
G01 X62.5330 Y7.8975
G01 X62.5076 Y7.9987
G01 X62.4725 Y8.0970
G01 X62.4279 Y8.1913
G01 X62.3742 Y8.2808
G01 X62.3120 Y8.3646
G01 X62.2420 Y8.4420
G01 X62.1646 Y8.5120
G01 X62.0834 Y8.5724
G01 X62.0782 Y8.5759
G01 X61.9913 Y8.6279
G01 X61.8998 Y8.6712
G01 X61.8941 Y8.6736
G01 X61.7987 Y8.7076
G01 X61.6975 Y8.7330
G01 X61.5943 Y8.7483
G01 X61.4916 Y8.7534
G01 X61.0900 Y8.7534
G01 X60.9873 Y8.7484
G01 X60.8826 Y8.7330
G01 X60.7813 Y8.7076
G01 X60.6831 Y8.6725
G01 X60.5887 Y8.6279
G01 X60.4992 Y8.5742
G01 X60.4154 Y8.5120
G01 X60.3381 Y8.4420
G01 X60.2680 Y8.3646
G01 X60.2058 Y8.2808
G01 X60.1537 Y8.1940
G01 X60.1508 Y8.1885
G01 X60.1076 Y8.0970
G01 X60.0734 Y8.0017
G01 X60.0716 Y7.9957
G01 X60.0471 Y7.8975
G01 X60.0317 Y7.7943
G01 X60.0267 Y7.6931
G01 X60.0267 Y7.6869
G01 X60.0317 Y7.5858
G01 X60.0465 Y7.4856
G01 X60.0477 Y7.4795
G01 X60.0716 Y7.3843
G01 X60.0734 Y7.3784
G01 X60.1076 Y7.2831
G01 X60.1522 Y7.1887
G01 X60.2058 Y7.0992
G01 X60.2661 Y7.0179
G01 X60.2700 Y7.0131
G01 X60.3359 Y6.9403
G01 X60.3403 Y6.9359
G01 X60.4154 Y6.8680
G01 X60.4967 Y6.8076
G01 X60.5019 Y6.8042
G01 X60.5887 Y6.7522
G01 X60.6802 Y6.7088
G01 X60.6860 Y6.7065
G00 Z2.0000
G00 X60.6860 Y9.2465
G01 F60.00
G01 Z-0.0500
G01 F120.00
G01 X60.7813 Y9.2124
G01 X60.8795 Y9.1877
G01 X60.8856 Y9.1865
G01 X60.9827 Y9.1721
G01 X60.9889 Y9.1715
G01 X61.0900 Y9.1666
G01 X61.4916 Y9.1666
G01 X61.5943 Y9.1717
G01 X61.6975 Y9.1871
G01 X61.7987 Y9.2124
G01 X61.8970 Y9.2476
G01 X61.9913 Y9.2922
G01 X62.0782 Y9.3442
G01 X62.0834 Y9.3476
G01 X62.1622 Y9.4061
G01 X62.1670 Y9.4100
G01 X62.2420 Y9.4781
G01 X62.3120 Y9.5554
G01 X62.3742 Y9.6392
G01 X62.4279 Y9.7287
G01 X62.4725 Y9.8231
G01 X62.5076 Y9.9213
G01 X62.5330 Y10.0226
G01 X62.5483 Y10.1258
G01 X62.5534 Y10.2300
G01 X62.5483 Y10.3343
G01 X62.5330 Y10.4375
G01 X62.5076 Y10.5387
G01 X62.4725 Y10.6370
G01 X62.4279 Y10.7313
G01 X62.3742 Y10.8208
G01 X62.3120 Y10.9046
G01 X62.2420 Y10.9820
G01 X62.1646 Y11.0520
G01 X62.0834 Y11.1124
G01 X62.0782 Y11.1159
G01 X61.9913 Y11.1679
G01 X61.8998 Y11.2112
G01 X61.8941 Y11.2136
G01 X61.7987 Y11.2476
G01 X61.6975 Y11.2730
G01 X61.5943 Y11.2883
G01 X61.4916 Y11.2934
G01 X61.0900 Y11.2934
G01 X60.9873 Y11.2884
G01 X60.8826 Y11.2730
G01 X60.7813 Y11.2476
G01 X60.6831 Y11.2125
G01 X60.5887 Y11.1679
G01 X60.4992 Y11.1142
G01 X60.4154 Y11.0520
G01 X60.3381 Y10.9820
G01 X60.2680 Y10.9046
G01 X60.2058 Y10.8208
G01 X60.1537 Y10.7340
G01 X60.1508 Y10.7285
G01 X60.1076 Y10.6370
G01 X60.0734 Y10.5417
G01 X60.0716 Y10.5357
G01 X60.0471 Y10.4375
G01 X60.0317 Y10.3343
G01 X60.0267 Y10.2331
G01 X60.0267 Y10.2269
G01 X60.0317 Y10.1258
G01 X60.0465 Y10.0256
G01 X60.0477 Y10.0195
G01 X60.0716 Y9.9243
G01 X60.0734 Y9.9184
G01 X60.1076 Y9.8231
G01 X60.1522 Y9.7287
G01 X60.2058 Y9.6392
G01 X60.2661 Y9.5579
G01 X60.2700 Y9.5531
G01 X60.3359 Y9.4803
G01 X60.3403 Y9.4759
G01 X60.4154 Y9.4080
G01 X60.4967 Y9.3476
G01 X60.5019 Y9.3442
G01 X60.5887 Y9.2922
G01 X60.6802 Y9.2488
G01 X60.6860 Y9.2465
G00 Z2.0000
G00 X60.6860 Y11.7865
G01 F60.00
G01 Z-0.0500
G01 F120.00
G01 X60.7813 Y11.7524
G01 X60.8795 Y11.7277
G01 X60.8856 Y11.7265
G01 X60.9827 Y11.7121
G01 X60.9889 Y11.7115
G01 X61.0900 Y11.7066
G01 X61.4916 Y11.7066
G01 X61.5943 Y11.7117
G01 X61.6975 Y11.7271
G01 X61.7987 Y11.7524
G01 X61.8970 Y11.7876
G01 X61.9913 Y11.8322
G01 X62.0782 Y11.8842
G01 X62.0834 Y11.8876
G01 X62.1622 Y11.9461
G01 X62.1670 Y11.9500
G01 X62.2420 Y12.0181
G01 X62.3120 Y12.0954
G01 X62.3742 Y12.1792
G01 X62.4279 Y12.2687
G01 X62.4725 Y12.3631
G01 X62.5076 Y12.4613
G01 X62.5330 Y12.5626
G01 X62.5483 Y12.6658
G01 X62.5534 Y12.7700
G01 X62.5483 Y12.8743
G01 X62.5330 Y12.9775
G01 X62.5076 Y13.0787
G01 X62.4725 Y13.1770
G01 X62.4279 Y13.2713
G01 X62.3742 Y13.3608
G01 X62.3120 Y13.4446
G01 X62.2420 Y13.5220
G01 X62.1646 Y13.5920
G01 X62.0834 Y13.6524
G01 X62.0782 Y13.6559
G01 X61.9913 Y13.7079
G01 X61.8998 Y13.7512
G01 X61.8941 Y13.7536
G01 X61.7987 Y13.7876
G01 X61.6975 Y13.8130
G01 X61.5943 Y13.8283
G01 X61.4916 Y13.8334
G01 X61.0900 Y13.8334
G01 X60.9873 Y13.8284
G01 X60.8826 Y13.8130
G01 X60.7813 Y13.7876
G01 X60.6831 Y13.7525
G01 X60.5887 Y13.7079
G01 X60.4992 Y13.6542
G01 X60.4154 Y13.5920
G01 X60.3381 Y13.5220
G01 X60.2680 Y13.4446
G01 X60.2058 Y13.3608
G01 X60.1537 Y13.2740
G01 X60.1508 Y13.2685
G01 X60.1076 Y13.1770
G01 X60.0734 Y13.0817
G01 X60.0716 Y13.0757
G01 X60.0471 Y12.9775
G01 X60.0317 Y12.8743
G01 X60.0267 Y12.7731
G01 X60.0267 Y12.7669
G01 X60.0317 Y12.6658
G01 X60.0465 Y12.5656
G01 X60.0477 Y12.5595
G01 X60.0716 Y12.4643
G01 X60.0734 Y12.4584
G01 X60.1076 Y12.3631
G01 X60.1522 Y12.2687
G01 X60.2058 Y12.1792
G01 X60.2661 Y12.0979
G01 X60.2700 Y12.0931
G01 X60.3359 Y12.0203
G01 X60.3403 Y12.0159
G01 X60.4154 Y11.9480
G01 X60.4967 Y11.8876
G01 X60.5019 Y11.8842
G01 X60.5887 Y11.8322
G01 X60.6802 Y11.7888
G01 X60.6860 Y11.7865
G00 Z2.0000
G00 X60.6860 Y14.3265
G01 F60.00
G01 Z-0.0500
G01 F120.00
G01 X60.7813 Y14.2924
G01 X60.8795 Y14.2677
G01 X60.8856 Y14.2665
G01 X60.9827 Y14.2521
G01 X60.9889 Y14.2515
G01 X61.0900 Y14.2466
G01 X61.4916 Y14.2466
G01 X61.5943 Y14.2517
G01 X61.6975 Y14.2671
G01 X61.7987 Y14.2924
G01 X61.8970 Y14.3276
G01 X61.9913 Y14.3722
G01 X62.0782 Y14.4242
G01 X62.0834 Y14.4276
G01 X62.1622 Y14.4861
G01 X62.1670 Y14.4900
G01 X62.2420 Y14.5581
G01 X62.3120 Y14.6354
G01 X62.3742 Y14.7192
G01 X62.4279 Y14.8087
G01 X62.4725 Y14.9031
G01 X62.5076 Y15.0013
G01 X62.5330 Y15.1026
G01 X62.5483 Y15.2058
G01 X62.5534 Y15.3100
G01 X62.5483 Y15.4143
G01 X62.5330 Y15.5175
G01 X62.5076 Y15.6187
G01 X62.4725 Y15.7170
G01 X62.4279 Y15.8113
G01 X62.3742 Y15.9008
G01 X62.3120 Y15.9846
G01 X62.2420 Y16.0620
G01 X62.1646 Y16.1320
G01 X62.0834 Y16.1924
G01 X62.0782 Y16.1959
G01 X61.9913 Y16.2479
G01 X61.8998 Y16.2912
G01 X61.8941 Y16.2936
G01 X61.7987 Y16.3276
G01 X61.6975 Y16.3530
G01 X61.5943 Y16.3683
G01 X61.4916 Y16.3734
G01 X61.0900 Y16.3734
G01 X60.9873 Y16.3684
G01 X60.8826 Y16.3530
G01 X60.7813 Y16.3276
G01 X60.6831 Y16.2925
G01 X60.5887 Y16.2479
G01 X60.4992 Y16.1942
G01 X60.4154 Y16.1320
G01 X60.3381 Y16.0620
G01 X60.2680 Y15.9846
G01 X60.2058 Y15.9008
G01 X60.1537 Y15.8140
G01 X60.1508 Y15.8085
G01 X60.1076 Y15.7170
G01 X60.0734 Y15.6217
G01 X60.0716 Y15.6157
G01 X60.0471 Y15.5175
G01 X60.0317 Y15.4143
G01 X60.0267 Y15.3131
G01 X60.0267 Y15.3069
G01 X60.0317 Y15.2058
G01 X60.0465 Y15.1056
G01 X60.0477 Y15.0995
G01 X60.0716 Y15.0043
G01 X60.0734 Y14.9984
G01 X60.1076 Y14.9031
G01 X60.1522 Y14.8087
G01 X60.2058 Y14.7192
G01 X60.2661 Y14.6379
G01 X60.2700 Y14.6331
G01 X60.3359 Y14.5603
G01 X60.3403 Y14.5559
G01 X60.4154 Y14.4880
G01 X60.4967 Y14.4276
G01 X60.5019 Y14.4242
G01 X60.5887 Y14.3722
G01 X60.6802 Y14.3288
G01 X60.6860 Y14.3265
G00 Z2.0000
G00 X60.6860 Y16.8665
G01 F60.00
G01 Z-0.0500
G01 F120.00
G01 X60.7813 Y16.8324
G01 X60.8795 Y16.8077
G01 X60.8856 Y16.8065
G01 X60.9827 Y16.7921
G01 X60.9889 Y16.7915
G01 X61.0900 Y16.7866
G01 X61.4916 Y16.7866
G01 X61.5943 Y16.7917
G01 X61.6975 Y16.8071
G01 X61.7987 Y16.8324
G01 X61.8970 Y16.8676
G01 X61.9913 Y16.9122
G01 X62.0782 Y16.9642
G01 X62.0834 Y16.9676
G01 X62.1622 Y17.0261
G01 X62.1670 Y17.0300
G01 X62.2420 Y17.0981
G01 X62.3120 Y17.1754
G01 X62.3742 Y17.2592
G01 X62.4279 Y17.3487
G01 X62.4725 Y17.4431
G01 X62.5076 Y17.5413
G01 X62.5330 Y17.6426
G01 X62.5483 Y17.7458
G01 X62.5534 Y17.8500
G01 X62.5483 Y17.9543
G01 X62.5330 Y18.0575
G01 X62.5076 Y18.1587
G01 X62.4725 Y18.2570
G01 X62.4279 Y18.3513
G01 X62.3742 Y18.4408
G01 X62.3120 Y18.5246
G01 X62.2420 Y18.6020
G01 X62.1646 Y18.6720
G01 X62.0834 Y18.7324
G01 X62.0782 Y18.7359
G01 X61.9913 Y18.7879
G01 X61.8998 Y18.8312
G01 X61.8941 Y18.8336
G01 X61.7987 Y18.8676
G01 X61.6975 Y18.8930
G01 X61.5943 Y18.9083
G01 X61.4916 Y18.9134
G01 X61.0900 Y18.9134
G01 X60.9873 Y18.9084
G01 X60.8826 Y18.8930
G01 X60.7813 Y18.8676
G01 X60.6831 Y18.8325
G01 X60.5887 Y18.7879
G01 X60.4992 Y18.7342
G01 X60.4154 Y18.6720
G01 X60.3381 Y18.6020
G01 X60.2680 Y18.5246
G01 X60.2058 Y18.4408
G01 X60.1537 Y18.3540
G01 X60.1508 Y18.3485
G01 X60.1076 Y18.2570
G01 X60.0734 Y18.1617
G01 X60.0716 Y18.1557
G01 X60.0471 Y18.0575
G01 X60.0317 Y17.9543
G01 X60.0267 Y17.8531
G01 X60.0267 Y17.8469
G01 X60.0317 Y17.7458
G01 X60.0465 Y17.6456
G01 X60.0477 Y17.6395
G01 X60.0716 Y17.5443
G01 X60.0734 Y17.5384
G01 X60.1076 Y17.4431
G01 X60.1522 Y17.3487
G01 X60.2058 Y17.2592
G01 X60.2661 Y17.1779
G01 X60.2700 Y17.1731
G01 X60.3359 Y17.1003
G01 X60.3403 Y17.0959
G01 X60.4154 Y17.0280
G01 X60.4967 Y16.9676
G01 X60.5019 Y16.9642
G01 X60.5887 Y16.9122
G01 X60.6802 Y16.8688
G01 X60.6860 Y16.8665
G00 Z2.0000
G00 X60.6860 Y19.4065
G01 F60.00
G01 Z-0.0500
G01 F120.00
G01 X60.7813 Y19.3724
G01 X60.8795 Y19.3477
G01 X60.8856 Y19.3465
G01 X60.9827 Y19.3321
G01 X60.9889 Y19.3315
G01 X61.0900 Y19.3266
G01 X61.4916 Y19.3266
G01 X61.5943 Y19.3317
G01 X61.6975 Y19.3471
G01 X61.7987 Y19.3724
G01 X61.8970 Y19.4076
G01 X61.9913 Y19.4522
G01 X62.0782 Y19.5042
G01 X62.0834 Y19.5076
G01 X62.1622 Y19.5661
G01 X62.1670 Y19.5700
G01 X62.2420 Y19.6381
G01 X62.3120 Y19.7154
G01 X62.3742 Y19.7992
G01 X62.4279 Y19.8887
G01 X62.4725 Y19.9831
G01 X62.5076 Y20.0813
G01 X62.5330 Y20.1826
G01 X62.5483 Y20.2858
G01 X62.5534 Y20.3900
G01 X62.5483 Y20.4943
G01 X62.5330 Y20.5975
G01 X62.5076 Y20.6987
G01 X62.4725 Y20.7970
G01 X62.4279 Y20.8913
G01 X62.3742 Y20.9808
G01 X62.3120 Y21.0646
G01 X62.2420 Y21.1420
G01 X62.1646 Y21.2120
G01 X62.0834 Y21.2724
G01 X62.0782 Y21.2759
G01 X61.9913 Y21.3279
G01 X61.8998 Y21.3712
G01 X61.8941 Y21.3736
G01 X61.7987 Y21.4076
G01 X61.6975 Y21.4330
G01 X61.5943 Y21.4483
G01 X61.4916 Y21.4534
G01 X61.0900 Y21.4534
G01 X60.9873 Y21.4484
G01 X60.8826 Y21.4330
G01 X60.7813 Y21.4076
G01 X60.6831 Y21.3725
G01 X60.5887 Y21.3279
G01 X60.4992 Y21.2742
G01 X60.4154 Y21.2120
G01 X60.3381 Y21.1420
G01 X60.2680 Y21.0646
G01 X60.2058 Y20.9808
G01 X60.1537 Y20.8940
G01 X60.1508 Y20.8885
G01 X60.1076 Y20.7970
G01 X60.0734 Y20.7017
G01 X60.0716 Y20.6957
G01 X60.0471 Y20.5975
G01 X60.0317 Y20.4943
G01 X60.0267 Y20.3931
G01 X60.0267 Y20.3869
G01 X60.0317 Y20.2858
G01 X60.0465 Y20.1856
G01 X60.0477 Y20.1795
G01 X60.0716 Y20.0843
G01 X60.0734 Y20.0784
G01 X60.1076 Y19.9831
G01 X60.1522 Y19.8887
G01 X60.2058 Y19.7992
G01 X60.2661 Y19.7179
G01 X60.2700 Y19.7131
G01 X60.3359 Y19.6403
G01 X60.3403 Y19.6359
G01 X60.4154 Y19.5680
G01 X60.4967 Y19.5076
G01 X60.5019 Y19.5042
G01 X60.5887 Y19.4522
G01 X60.6802 Y19.4088
G01 X60.6860 Y19.4065
G00 Z2.0000
G00 X60.6860 Y21.9465
G01 F60.00
G01 Z-0.0500
G01 F120.00
G01 X60.7813 Y21.9124
G01 X60.8795 Y21.8877
G01 X60.8856 Y21.8865
G01 X60.9827 Y21.8721
G01 X60.9889 Y21.8715
G01 X61.0900 Y21.8666
G01 X61.4916 Y21.8666
G01 X61.5943 Y21.8717
G01 X61.6975 Y21.8871
G01 X61.7987 Y21.9124
G01 X61.8970 Y21.9476
G01 X61.9913 Y21.9922
G01 X62.0782 Y22.0442
G01 X62.0834 Y22.0476
G01 X62.1622 Y22.1061
G01 X62.1670 Y22.1100
G01 X62.2420 Y22.1781
G01 X62.3120 Y22.2554
G01 X62.3742 Y22.3392
G01 X62.4279 Y22.4287
G01 X62.4725 Y22.5231
G01 X62.5076 Y22.6213
G01 X62.5330 Y22.7226
G01 X62.5483 Y22.8258
G01 X62.5534 Y22.9300
G01 X62.5483 Y23.0343
G01 X62.5330 Y23.1375
G01 X62.5076 Y23.2387
G01 X62.4725 Y23.3370
G01 X62.4279 Y23.4313
G01 X62.3742 Y23.5208
G01 X62.3120 Y23.6046
G01 X62.2420 Y23.6820
G01 X62.1646 Y23.7520
G01 X62.0834 Y23.8124
G01 X62.0782 Y23.8159
G01 X61.9913 Y23.8679
G01 X61.8998 Y23.9112
G01 X61.8941 Y23.9136
G01 X61.7987 Y23.9476
G01 X61.6975 Y23.9730
G01 X61.5943 Y23.9883
G01 X61.4916 Y23.9934
G01 X61.0900 Y23.9934
G01 X60.9873 Y23.9884
G01 X60.8826 Y23.9730
G01 X60.7813 Y23.9476
G01 X60.6831 Y23.9125
G01 X60.5887 Y23.8679
G01 X60.4992 Y23.8142
G01 X60.4154 Y23.7520
G01 X60.3381 Y23.6820
G01 X60.2680 Y23.6046
G01 X60.2058 Y23.5208
G01 X60.1537 Y23.4340
G01 X60.1508 Y23.4285
G01 X60.1076 Y23.3370
G01 X60.0734 Y23.2417
G01 X60.0716 Y23.2357
G01 X60.0471 Y23.1375
G01 X60.0317 Y23.0343
G01 X60.0267 Y22.9331
G01 X60.0267 Y22.9269
G01 X60.0317 Y22.8258
G01 X60.0465 Y22.7256
G01 X60.0477 Y22.7195
G01 X60.0716 Y22.6243
G01 X60.0734 Y22.6184
G01 X60.1076 Y22.5231
G01 X60.1522 Y22.4287
G01 X60.2058 Y22.3392
G01 X60.2661 Y22.2579
G01 X60.2700 Y22.2531
G01 X60.3359 Y22.1803
G01 X60.3403 Y22.1759
G01 X60.4154 Y22.1080
G01 X60.4967 Y22.0476
G01 X60.5019 Y22.0442
G01 X60.5887 Y21.9922
G01 X60.6802 Y21.9488
G01 X60.6860 Y21.9465
G00 Z2.0000
G00 X60.6860 Y24.4865
G01 F60.00
G01 Z-0.0500
G01 F120.00
G01 X60.7813 Y24.4524
G01 X60.8795 Y24.4277
G01 X60.8856 Y24.4265
G01 X60.9827 Y24.4121
G01 X60.9889 Y24.4115
G01 X61.0900 Y24.4066
G01 X61.4916 Y24.4066
G01 X61.5943 Y24.4117
G01 X61.6975 Y24.4271
G01 X61.7987 Y24.4524
G01 X61.8970 Y24.4876
G01 X61.9913 Y24.5322
G01 X62.0782 Y24.5842
G01 X62.0834 Y24.5876
G01 X62.1622 Y24.6461
G01 X62.1670 Y24.6500
G01 X62.2420 Y24.7181
G01 X62.3120 Y24.7954
G01 X62.3742 Y24.8792
G01 X62.4279 Y24.9687
G01 X62.4725 Y25.0631
G01 X62.5076 Y25.1613
G01 X62.5330 Y25.2626
G01 X62.5483 Y25.3658
G01 X62.5534 Y25.4700
G01 X62.5483 Y25.5743
G01 X62.5330 Y25.6775
G01 X62.5076 Y25.7787
G01 X62.4725 Y25.8770
G01 X62.4279 Y25.9713
G01 X62.3742 Y26.0608
G01 X62.3120 Y26.1446
G01 X62.2420 Y26.2220
G01 X62.1646 Y26.2920
G01 X62.0834 Y26.3524
G01 X62.0782 Y26.3559
G01 X61.9913 Y26.4079
G01 X61.8998 Y26.4512
G01 X61.8941 Y26.4536
G01 X61.7987 Y26.4876
G01 X61.6975 Y26.5130
G01 X61.5943 Y26.5283
G01 X61.4916 Y26.5334
G01 X61.0900 Y26.5334
G01 X60.9873 Y26.5284
G01 X60.8826 Y26.5130
G01 X60.7813 Y26.4876
G01 X60.6831 Y26.4525
G01 X60.5887 Y26.4079
G01 X60.4992 Y26.3542
G01 X60.4154 Y26.2920
G01 X60.3381 Y26.2220
G01 X60.2680 Y26.1446
G01 X60.2058 Y26.0608
G01 X60.1537 Y25.9740
G01 X60.1508 Y25.9685
G01 X60.1076 Y25.8770
G01 X60.0734 Y25.7817
G01 X60.0716 Y25.7757
G01 X60.0471 Y25.6775
G01 X60.0317 Y25.5743
G01 X60.0267 Y25.4731
G01 X60.0267 Y25.4669
G01 X60.0317 Y25.3658
G01 X60.0465 Y25.2656
G01 X60.0477 Y25.2595
G01 X60.0716 Y25.1643
G01 X60.0734 Y25.1584
G01 X60.1076 Y25.0631
G01 X60.1522 Y24.9687
G01 X60.2058 Y24.8792
G01 X60.2661 Y24.7979
G01 X60.2700 Y24.7931
G01 X60.3359 Y24.7203
G01 X60.3403 Y24.7159
G01 X60.4154 Y24.6480
G01 X60.4967 Y24.5876
G01 X60.5019 Y24.5842
G01 X60.5887 Y24.5322
G01 X60.6802 Y24.4888
G01 X60.6860 Y24.4865
G00 Z2.0000
G00 X60.6860 Y27.0265
G01 F60.00
G01 Z-0.0500
G01 F120.00
G01 X60.7813 Y26.9924
G01 X60.8795 Y26.9677
G01 X60.8856 Y26.9665
G01 X60.9827 Y26.9521
G01 X60.9889 Y26.9515
G01 X61.0900 Y26.9466
G01 X61.4916 Y26.9466
G01 X61.5943 Y26.9517
G01 X61.6975 Y26.9671
G01 X61.7987 Y26.9924
G01 X61.8970 Y27.0276
G01 X61.9913 Y27.0722
G01 X62.0782 Y27.1242
G01 X62.0834 Y27.1276
G01 X62.1622 Y27.1861
G01 X62.1670 Y27.1900
G01 X62.2420 Y27.2581
G01 X62.3120 Y27.3354
G01 X62.3742 Y27.4192
G01 X62.4279 Y27.5087
G01 X62.4725 Y27.6031
G01 X62.5076 Y27.7013
G01 X62.5330 Y27.8026
G01 X62.5483 Y27.9058
G01 X62.5534 Y28.0100
G01 X62.5483 Y28.1143
G01 X62.5330 Y28.2175
G01 X62.5076 Y28.3187
G01 X62.4725 Y28.4170
G01 X62.4279 Y28.5113
G01 X62.3742 Y28.6008
G01 X62.3120 Y28.6846
G01 X62.2420 Y28.7620
G01 X62.1646 Y28.8320
G01 X62.0834 Y28.8924
G01 X62.0782 Y28.8959
G01 X61.9913 Y28.9479
G01 X61.8998 Y28.9912
G01 X61.8941 Y28.9936
G01 X61.7987 Y29.0276
G01 X61.6975 Y29.0530
G01 X61.5943 Y29.0683
G01 X61.4916 Y29.0734
G01 X61.0900 Y29.0734
G01 X60.9873 Y29.0684
G01 X60.8826 Y29.0530
G01 X60.7813 Y29.0276
G01 X60.6831 Y28.9925
G01 X60.5887 Y28.9479
G01 X60.4992 Y28.8942
G01 X60.4154 Y28.8320
G01 X60.3381 Y28.7620
G01 X60.2680 Y28.6846
G01 X60.2058 Y28.6008
G01 X60.1537 Y28.5140
G01 X60.1508 Y28.5085
G01 X60.1076 Y28.4170
G01 X60.0734 Y28.3217
G01 X60.0716 Y28.3157
G01 X60.0471 Y28.2175
G01 X60.0317 Y28.1143
G01 X60.0267 Y28.0131
G01 X60.0267 Y28.0069
G01 X60.0317 Y27.9058
G01 X60.0465 Y27.8056
G01 X60.0477 Y27.7995
G01 X60.0716 Y27.7043
G01 X60.0734 Y27.6984
G01 X60.1076 Y27.6031
G01 X60.1522 Y27.5087
G01 X60.2058 Y27.4192
G01 X60.2661 Y27.3379
G01 X60.2700 Y27.3331
G01 X60.3359 Y27.2603
G01 X60.3403 Y27.2559
G01 X60.4154 Y27.1880
G01 X60.4967 Y27.1276
G01 X60.5019 Y27.1242
G01 X60.5887 Y27.0722
G01 X60.6802 Y27.0288
G01 X60.6860 Y27.0265
G00 Z2.0000
G00 X60.6860 Y29.5665
G01 F60.00
G01 Z-0.0500
G01 F120.00
G01 X60.7813 Y29.5324
G01 X60.8795 Y29.5077
G01 X60.8856 Y29.5065
G01 X60.9827 Y29.4921
G01 X60.9889 Y29.4915
G01 X61.0900 Y29.4866
G01 X61.4916 Y29.4866
G01 X61.5943 Y29.4917
G01 X61.6975 Y29.5071
G01 X61.7987 Y29.5324
G01 X61.8970 Y29.5676
G01 X61.9913 Y29.6122
G01 X62.0782 Y29.6642
G01 X62.0834 Y29.6676
G01 X62.1622 Y29.7261
G01 X62.1670 Y29.7300
G01 X62.2420 Y29.7981
G01 X62.3120 Y29.8754
G01 X62.3742 Y29.9592
G01 X62.4279 Y30.0487
G01 X62.4725 Y30.1431
G01 X62.5076 Y30.2413
G01 X62.5330 Y30.3426
G01 X62.5483 Y30.4458
G01 X62.5534 Y30.5500
G01 X62.5483 Y30.6543
G01 X62.5330 Y30.7575
G01 X62.5076 Y30.8587
G01 X62.4725 Y30.9570
G01 X62.4279 Y31.0513
G01 X62.3742 Y31.1408
G01 X62.3120 Y31.2246
G01 X62.2420 Y31.3020
G01 X62.1646 Y31.3720
G01 X62.0834 Y31.4324
G01 X62.0782 Y31.4359
G01 X61.9913 Y31.4879
G01 X61.8998 Y31.5312
G01 X61.8941 Y31.5336
G01 X61.7987 Y31.5676
G01 X61.6975 Y31.5930
G01 X61.5943 Y31.6083
G01 X61.4916 Y31.6134
G01 X61.0900 Y31.6134
G01 X60.9873 Y31.6084
G01 X60.8826 Y31.5930
G01 X60.7813 Y31.5676
G01 X60.6831 Y31.5325
G01 X60.5887 Y31.4879
G01 X60.4992 Y31.4342
G01 X60.4154 Y31.3720
G01 X60.3381 Y31.3020
G01 X60.2680 Y31.2246
G01 X60.2058 Y31.1408
G01 X60.1537 Y31.0540
G01 X60.1508 Y31.0485
G01 X60.1076 Y30.9570
G01 X60.0734 Y30.8617
G01 X60.0716 Y30.8557
G01 X60.0471 Y30.7575
G01 X60.0317 Y30.6543
G01 X60.0267 Y30.5531
G01 X60.0267 Y30.5469
G01 X60.0317 Y30.4458
G01 X60.0465 Y30.3456
G01 X60.0477 Y30.3395
G01 X60.0716 Y30.2443
G01 X60.0734 Y30.2384
G01 X60.1076 Y30.1431
G01 X60.1522 Y30.0487
G01 X60.2058 Y29.9592
G01 X60.2661 Y29.8779
G01 X60.2700 Y29.8731
G01 X60.3359 Y29.8003
G01 X60.3403 Y29.7959
G01 X60.4154 Y29.7280
G01 X60.4967 Y29.6676
G01 X60.5019 Y29.6642
G01 X60.5887 Y29.6122
G01 X60.6802 Y29.5688
G01 X60.6860 Y29.5665
G00 Z2.0000
G00 X60.6860 Y32.1065
G01 F60.00
G01 Z-0.0500
G01 F120.00
G01 X60.7813 Y32.0724
G01 X60.8795 Y32.0477
G01 X60.8856 Y32.0465
G01 X60.9827 Y32.0321
G01 X60.9889 Y32.0315
G01 X61.0900 Y32.0266
G01 X61.4916 Y32.0266
G01 X61.5943 Y32.0317
G01 X61.6975 Y32.0471
G01 X61.7987 Y32.0724
G01 X61.8970 Y32.1076
G01 X61.9913 Y32.1522
G01 X62.0782 Y32.2042
G01 X62.0834 Y32.2076
G01 X62.1622 Y32.2661
G01 X62.1670 Y32.2700
G01 X62.2420 Y32.3381
G01 X62.3120 Y32.4154
G01 X62.3742 Y32.4992
G01 X62.4279 Y32.5887
G01 X62.4725 Y32.6831
G01 X62.5076 Y32.7813
G01 X62.5330 Y32.8826
G01 X62.5483 Y32.9858
G01 X62.5534 Y33.0900
G01 X62.5483 Y33.1943
G01 X62.5330 Y33.2975
G01 X62.5076 Y33.3987
G01 X62.4725 Y33.4970
G01 X62.4279 Y33.5913
G01 X62.3742 Y33.6808
G01 X62.3120 Y33.7646
G01 X62.2420 Y33.8420
G01 X62.1646 Y33.9120
G01 X62.0834 Y33.9724
G01 X62.0782 Y33.9759
G01 X61.9913 Y34.0279
G01 X61.8998 Y34.0712
G01 X61.8941 Y34.0736
G01 X61.7987 Y34.1076
G01 X61.6975 Y34.1330
G01 X61.5943 Y34.1483
G01 X61.4916 Y34.1534
G01 X61.0900 Y34.1534
G01 X60.9873 Y34.1484
G01 X60.8826 Y34.1330
G01 X60.7813 Y34.1076
G01 X60.6831 Y34.0725
G01 X60.5887 Y34.0279
G01 X60.4992 Y33.9742
G01 X60.4154 Y33.9120
G01 X60.3381 Y33.8420
G01 X60.2680 Y33.7646
G01 X60.2058 Y33.6808
G01 X60.1537 Y33.5940
G01 X60.1508 Y33.5885
G01 X60.1076 Y33.4970
G01 X60.0734 Y33.4017
G01 X60.0716 Y33.3957
G01 X60.0471 Y33.2975
G01 X60.0317 Y33.1943
G01 X60.0267 Y33.0931
G01 X60.0267 Y33.0869
G01 X60.0317 Y32.9858
G01 X60.0465 Y32.8856
G01 X60.0477 Y32.8795
G01 X60.0716 Y32.7843
G01 X60.0734 Y32.7784
G01 X60.1076 Y32.6831
G01 X60.1522 Y32.5887
G01 X60.2058 Y32.4992
G01 X60.2661 Y32.4179
G01 X60.2700 Y32.4131
G01 X60.3359 Y32.3403
G01 X60.3403 Y32.3359
G01 X60.4154 Y32.2680
G01 X60.4967 Y32.2076
G01 X60.5019 Y32.2042
G01 X60.5887 Y32.1522
G01 X60.6802 Y32.1088
G01 X60.6860 Y32.1065
G00 Z2.0000
G00 X60.6860 Y34.6465
G01 F60.00
G01 Z-0.0500
G01 F120.00
G01 X60.7813 Y34.6124
G01 X60.8795 Y34.5877
G01 X60.8856 Y34.5865
G01 X60.9827 Y34.5721
G01 X60.9889 Y34.5715
G01 X61.0900 Y34.5666
G01 X61.4916 Y34.5666
G01 X61.5943 Y34.5717
G01 X61.6975 Y34.5871
G01 X61.7987 Y34.6124
G01 X61.8970 Y34.6476
G01 X61.9913 Y34.6922
G01 X62.0782 Y34.7442
G01 X62.0834 Y34.7476
G01 X62.1622 Y34.8061
G01 X62.1670 Y34.8100
G01 X62.2420 Y34.8781
G01 X62.3120 Y34.9554
G01 X62.3742 Y35.0392
G01 X62.4279 Y35.1287
G01 X62.4725 Y35.2231
G01 X62.5076 Y35.3213
G01 X62.5330 Y35.4226
G01 X62.5483 Y35.5258
G01 X62.5534 Y35.6300
G01 X62.5483 Y35.7343
G01 X62.5330 Y35.8375
G01 X62.5076 Y35.9387
G01 X62.4725 Y36.0370
G01 X62.4279 Y36.1313
G01 X62.3742 Y36.2208
G01 X62.3120 Y36.3046
G01 X62.2420 Y36.3820
G01 X62.1646 Y36.4520
G01 X62.0834 Y36.5124
G01 X62.0782 Y36.5159
G01 X61.9913 Y36.5679
G01 X61.8998 Y36.6112
G01 X61.8941 Y36.6136
G01 X61.7987 Y36.6476
G01 X61.6975 Y36.6730
G01 X61.5943 Y36.6883
G01 X61.4916 Y36.6934
G01 X61.0900 Y36.6934
G01 X60.9873 Y36.6884
G01 X60.8826 Y36.6730
G01 X60.7813 Y36.6476
G01 X60.6831 Y36.6125
G01 X60.5887 Y36.5679
G01 X60.4992 Y36.5142
G01 X60.4154 Y36.4520
G01 X60.3381 Y36.3820
G01 X60.2680 Y36.3046
G01 X60.2058 Y36.2208
G01 X60.1537 Y36.1340
G01 X60.1508 Y36.1285
G01 X60.1076 Y36.0370
G01 X60.0734 Y35.9417
G01 X60.0716 Y35.9357
G01 X60.0471 Y35.8375
G01 X60.0317 Y35.7343
G01 X60.0267 Y35.6331
G01 X60.0267 Y35.6269
G01 X60.0317 Y35.5258
G01 X60.0465 Y35.4256
G01 X60.0477 Y35.4195
G01 X60.0716 Y35.3243
G01 X60.0734 Y35.3184
G01 X60.1076 Y35.2231
G01 X60.1522 Y35.1287
G01 X60.2058 Y35.0392
G01 X60.2661 Y34.9579
G01 X60.2700 Y34.9531
G01 X60.3359 Y34.8803
G01 X60.3403 Y34.8759
G01 X60.4154 Y34.8080
G01 X60.4967 Y34.7476
G01 X60.5019 Y34.7442
G01 X60.5887 Y34.6922
G01 X60.6802 Y34.6488
G01 X60.6860 Y34.6465
G00 Z2.0000
G00 X60.6860 Y37.1865
G01 F60.00
G01 Z-0.0500
G01 F120.00
G01 X60.7813 Y37.1524
G01 X60.8795 Y37.1277
G01 X60.8856 Y37.1265
G01 X60.9827 Y37.1121
G01 X60.9889 Y37.1115
G01 X61.0900 Y37.1066
G01 X61.4916 Y37.1066
G01 X61.5943 Y37.1117
G01 X61.6975 Y37.1271
G01 X61.7987 Y37.1524
G01 X61.8970 Y37.1876
G01 X61.9913 Y37.2322
G01 X62.0782 Y37.2842
G01 X62.0834 Y37.2876
G01 X62.1622 Y37.3461
G01 X62.1670 Y37.3500
G01 X62.2420 Y37.4181
G01 X62.3120 Y37.4954
G01 X62.3742 Y37.5792
G01 X62.4279 Y37.6687
G01 X62.4725 Y37.7631
G01 X62.5076 Y37.8613
G01 X62.5330 Y37.9626
G01 X62.5483 Y38.0658
G01 X62.5534 Y38.1700
G01 X62.5483 Y38.2743
G01 X62.5330 Y38.3775
G01 X62.5076 Y38.4787
G01 X62.4725 Y38.5770
G01 X62.4279 Y38.6713
G01 X62.3742 Y38.7608
G01 X62.3120 Y38.8446
G01 X62.2420 Y38.9220
G01 X62.1646 Y38.9920
G01 X62.0834 Y39.0524
G01 X62.0782 Y39.0559
G01 X61.9913 Y39.1079
G01 X61.8998 Y39.1512
G01 X61.8941 Y39.1536
G01 X61.7987 Y39.1876
G01 X61.6975 Y39.2130
G01 X61.5943 Y39.2283
G01 X61.4916 Y39.2334
G01 X61.0900 Y39.2334
G01 X60.9873 Y39.2284
G01 X60.8826 Y39.2130
G01 X60.7813 Y39.1876
G01 X60.6831 Y39.1525
G01 X60.5887 Y39.1079
G01 X60.4992 Y39.0542
G01 X60.4154 Y38.9920
G01 X60.3381 Y38.9220
G01 X60.2680 Y38.8446
G01 X60.2058 Y38.7608
G01 X60.1537 Y38.6740
G01 X60.1508 Y38.6685
G01 X60.1076 Y38.5770
G01 X60.0734 Y38.4817
G01 X60.0716 Y38.4757
G01 X60.0471 Y38.3775
G01 X60.0317 Y38.2743
G01 X60.0267 Y38.1731
G01 X60.0267 Y38.1669
G01 X60.0317 Y38.0658
G01 X60.0465 Y37.9656
G01 X60.0477 Y37.9595
G01 X60.0716 Y37.8643
G01 X60.0734 Y37.8584
G01 X60.1076 Y37.7631
G01 X60.1522 Y37.6687
G01 X60.2058 Y37.5792
G01 X60.2661 Y37.4979
G01 X60.2700 Y37.4931
G01 X60.3359 Y37.4203
G01 X60.3403 Y37.4159
G01 X60.4154 Y37.3480
G01 X60.4967 Y37.2876
G01 X60.5019 Y37.2842
G01 X60.5887 Y37.2322
G01 X60.6802 Y37.1888
G01 X60.6860 Y37.1865
G00 Z2.0000
G00 X60.6860 Y39.7265
G01 F60.00
G01 Z-0.0500
G01 F120.00
G01 X60.7813 Y39.6924
G01 X60.8795 Y39.6677
G01 X60.8856 Y39.6665
G01 X60.9827 Y39.6521
G01 X60.9889 Y39.6515
G01 X61.0900 Y39.6466
G01 X61.4916 Y39.6466
G01 X61.5943 Y39.6517
G01 X61.6975 Y39.6671
G01 X61.7987 Y39.6924
G01 X61.8970 Y39.7276
G01 X61.9913 Y39.7722
G01 X62.0782 Y39.8242
G01 X62.0834 Y39.8276
G01 X62.1622 Y39.8861
G01 X62.1670 Y39.8900
G01 X62.2420 Y39.9581
G01 X62.3120 Y40.0354
G01 X62.3742 Y40.1192
G01 X62.4279 Y40.2087
G01 X62.4725 Y40.3031
G01 X62.5076 Y40.4013
G01 X62.5330 Y40.5026
G01 X62.5483 Y40.6058
G01 X62.5534 Y40.7100
G01 X62.5483 Y40.8143
G01 X62.5330 Y40.9175
G01 X62.5076 Y41.0187
G01 X62.4725 Y41.1170
G01 X62.4279 Y41.2113
G01 X62.3742 Y41.3008
G01 X62.3120 Y41.3846
G01 X62.2420 Y41.4620
G01 X62.1646 Y41.5320
G01 X62.0834 Y41.5924
G01 X62.0782 Y41.5959
G01 X61.9913 Y41.6479
G01 X61.8998 Y41.6912
G01 X61.8941 Y41.6936
G01 X61.7987 Y41.7276
G01 X61.6975 Y41.7530
G01 X61.5943 Y41.7683
G01 X61.4916 Y41.7734
G01 X61.0900 Y41.7734
G01 X60.9873 Y41.7684
G01 X60.8826 Y41.7530
G01 X60.7813 Y41.7276
G01 X60.6831 Y41.6925
G01 X60.5887 Y41.6479
G01 X60.4992 Y41.5942
G01 X60.4154 Y41.5320
G01 X60.3381 Y41.4620
G01 X60.2680 Y41.3846
G01 X60.2058 Y41.3008
G01 X60.1537 Y41.2140
G01 X60.1508 Y41.2085
G01 X60.1076 Y41.1170
G01 X60.0734 Y41.0217
G01 X60.0716 Y41.0157
G01 X60.0471 Y40.9175
G01 X60.0317 Y40.8143
G01 X60.0267 Y40.7131
G01 X60.0267 Y40.7069
G01 X60.0317 Y40.6058
G01 X60.0465 Y40.5056
G01 X60.0477 Y40.4995
G01 X60.0716 Y40.4043
G01 X60.0734 Y40.3984
G01 X60.1076 Y40.3031
G01 X60.1522 Y40.2087
G01 X60.2058 Y40.1192
G01 X60.2661 Y40.0379
G01 X60.2700 Y40.0331
G01 X60.3359 Y39.9603
G01 X60.3403 Y39.9559
G01 X60.4154 Y39.8880
G01 X60.4967 Y39.8276
G01 X60.5019 Y39.8242
G01 X60.5887 Y39.7722
G01 X60.6802 Y39.7288
G01 X60.6860 Y39.7265
G00 Z2.0000
G00 X64.8006 Y30.4048
G01 F60.00
G01 Z-0.0500
G01 F120.00
G01 X64.8959 Y30.3707
G01 X64.9941 Y30.3460
G01 X65.0002 Y30.3448
G01 X65.1004 Y30.3300
G01 X65.2015 Y30.3250
G01 X65.2077 Y30.3250
G01 X65.3089 Y30.3300
G01 X65.4121 Y30.3454
G01 X65.5103 Y30.3699
G01 X65.5163 Y30.3717
G01 X65.6116 Y30.4059
G01 X65.7059 Y30.4505
G01 X65.7928 Y30.5025
G01 X65.7980 Y30.5059
G01 X65.8792 Y30.5663
G01 X65.9566 Y30.6364
G01 X66.0266 Y30.7137
G01 X66.0870 Y30.7950
G01 X66.0905 Y30.8002
G01 X66.1425 Y30.8870
G01 X66.1858 Y30.9785
G01 X66.1882 Y30.9843
G01 X66.2218 Y31.0782
G01 X66.2476 Y31.1809
G01 X66.2625 Y31.2810
G01 X66.2631 Y31.2872
G01 X66.2679 Y31.3852
G01 X66.2679 Y31.3914
G01 X66.2629 Y31.4926
G01 X66.2518 Y31.5677
G01 X72.1167 Y37.4325
G01 X72.1551 Y37.4748
G01 X72.1590 Y37.4796
G01 X72.1930 Y37.5255
G01 X72.2239 Y37.5771
G01 X72.2484 Y37.6287
G01 X72.2508 Y37.6345
G01 X72.2700 Y37.6883
G01 X72.2839 Y37.7437
G01 X72.2851 Y37.7498
G01 X72.2934 Y37.8063
G01 X72.2964 Y37.8664
G01 X72.2964 Y61.3547
G01 X72.2934 Y61.4149
G01 X72.2846 Y61.4744
G01 X72.2700 Y61.5329
G01 X72.2497 Y61.5896
G01 X72.2239 Y61.6440
G01 X72.1930 Y61.6957
G01 X72.1571 Y61.7440
G01 X72.1177 Y61.7875
G01 X69.3128 Y64.5926
G01 X69.2681 Y64.6330
G01 X69.2223 Y64.6671
G01 X69.2171 Y64.6705
G01 X69.1667 Y64.7006
G01 X69.1165 Y64.7243
G01 X69.1108 Y64.7267
G01 X69.0570 Y64.7459
G01 X69.0016 Y64.7598
G01 X68.9955 Y64.7610
G01 X68.9390 Y64.7693
G01 X68.8804 Y64.7723
G01 X65.5362 Y64.7723
G01 X65.4909 Y64.8332
G01 X65.4230 Y64.9083
G01 X65.4186 Y64.9127
G01 X65.3459 Y64.9786
G01 X65.3411 Y64.9826
G01 X65.2597 Y65.0428
G01 X65.1688 Y65.0972
G01 X65.0787 Y65.1398
G01 X65.0730 Y65.1422
G01 X64.9776 Y65.1762
G01 X64.8794 Y65.2009
G01 X64.8733 Y65.2021
G01 X64.7732 Y65.2169
G01 X64.6689 Y65.2220
G01 X64.5647 Y65.2169
G01 X64.4645 Y65.2021
G01 X64.4584 Y65.2009
G01 X64.3632 Y65.1771
G01 X64.3573 Y65.1753
G01 X64.2620 Y65.1411
G01 X64.1676 Y65.0965
G01 X64.0781 Y65.0428
G01 X63.9968 Y64.9826
G01 X63.9920 Y64.9786
G01 X63.9192 Y64.9127
G01 X63.9148 Y64.9083
G01 X63.8469 Y64.8332
G01 X63.7847 Y64.7494
G01 X63.7311 Y64.6599
G01 X63.6877 Y64.5684
G01 X63.6854 Y64.5627
G01 X63.6513 Y64.4673
G01 X63.6260 Y64.3661
G01 X63.6110 Y64.2659
G01 X63.6104 Y64.2598
G01 X63.6056 Y64.1617
G01 X63.6056 Y64.1555
G01 X63.6106 Y64.0544
G01 X63.6260 Y63.9512
G01 X63.6513 Y63.8499
G01 X63.6854 Y63.7546
G01 X63.6877 Y63.7488
G01 X63.7297 Y63.6601
G01 X63.7326 Y63.6546
G01 X63.7847 Y63.5678
G01 X63.8469 Y63.4840
G01 X63.9170 Y63.4067
G01 X63.9920 Y63.3386
G01 X63.9968 Y63.3347
G01 X64.0794 Y63.2736
G01 X64.1676 Y63.2208
G01 X64.2591 Y63.1774
G01 X64.2649 Y63.1751
G01 X64.3573 Y63.1420
G01 X64.3632 Y63.1402
G01 X64.4615 Y63.1157
G01 X64.5647 Y63.1003
G01 X64.6689 Y63.0952
G01 X64.7701 Y63.1001
G01 X64.7762 Y63.1007
G01 X64.8764 Y63.1157
G01 X64.9776 Y63.1410
G01 X65.0759 Y63.1762
G01 X65.1716 Y63.2215
G01 X65.2597 Y63.2744
G01 X65.3411 Y63.3347
G01 X65.3459 Y63.3386
G01 X65.4186 Y63.4045
G01 X65.4230 Y63.4089
G01 X65.4909 Y63.4840
G01 X65.5362 Y63.5449
G01 X68.6246 Y63.5449
G01 X71.0690 Y61.1005
G01 X71.0690 Y38.1206
G01 X65.3840 Y32.4355
G01 X65.3089 Y32.4466
G01 X65.2077 Y32.4516
G01 X65.2015 Y32.4516
G01 X65.1004 Y32.4466
G01 X65.0002 Y32.4318
G01 X64.9941 Y32.4306
G01 X64.8959 Y32.4059
G01 X64.7991 Y32.3714
G01 X64.7033 Y32.3262
G01 X64.6165 Y32.2742
G01 X64.6113 Y32.2707
G01 X64.5300 Y32.2103
G01 X64.4549 Y32.1424
G01 X64.4505 Y32.1380
G01 X64.3826 Y32.0629
G01 X64.3204 Y31.9791
G01 X64.2683 Y31.8923
G01 X64.2654 Y31.8868
G01 X64.2222 Y31.7953
G01 X64.1880 Y31.7000
G01 X64.1862 Y31.6940
G01 X64.1617 Y31.5958
G01 X64.1463 Y31.4926
G01 X64.1413 Y31.3914
G01 X64.1413 Y31.3852
G01 X64.1463 Y31.2841
G01 X64.1611 Y31.1839
G01 X64.1623 Y31.1778
G01 X64.1862 Y31.0826
G01 X64.1880 Y31.0767
G01 X64.2222 Y30.9814
G01 X64.2668 Y30.8870
G01 X64.3204 Y30.7975
G01 X64.3807 Y30.7162
G01 X64.3846 Y30.7114
G01 X64.4505 Y30.6386
G01 X64.4549 Y30.6342
G01 X64.5300 Y30.5663
G01 X64.6113 Y30.5059
G01 X64.6165 Y30.5025
G01 X64.7033 Y30.4505
G01 X64.7948 Y30.4071
G01 X64.8006 Y30.4048
G00 Z2.0000
G00 X78.6460 Y30.9865
G01 F60.00
G01 Z-0.0500
G01 F120.00
G01 X78.7413 Y30.9524
G01 X78.8426 Y30.9271
G01 X78.9458 Y30.9117
G01 X79.0500 Y30.9066
G01 X79.1543 Y30.9117
G01 X79.2575 Y30.9271
G01 X79.3587 Y30.9524
G01 X79.4570 Y30.9876
G01 X79.5513 Y31.0322
G01 X79.6408 Y31.0858
G01 X79.7246 Y31.1480
G01 X79.8020 Y31.2181
G01 X79.8720 Y31.2954
G01 X79.9342 Y31.3792
G01 X79.9879 Y31.4687
G01 X80.0325 Y31.5631
G01 X80.0676 Y31.6613
G01 X80.0930 Y31.7626
G01 X80.1083 Y31.8658
G01 X80.1134 Y31.9700
G01 X80.1083 Y32.0743
G01 X80.0930 Y32.1775
G01 X80.0676 Y32.2787
G01 X80.0325 Y32.3770
G01 X79.9879 Y32.4713
G01 X79.9342 Y32.5608
G01 X79.8720 Y32.6446
G01 X79.8020 Y32.7220
G01 X79.7246 Y32.7920
G01 X79.6408 Y32.8542
G01 X79.5513 Y32.9079
G01 X79.4570 Y32.9525
G01 X79.3587 Y32.9876
G01 X79.2575 Y33.0130
G01 X79.1543 Y33.0283
G01 X79.0500 Y33.0334
G01 X78.9458 Y33.0283
G01 X78.8426 Y33.0130
G01 X78.7413 Y32.9876
G01 X78.6431 Y32.9525
G01 X78.5487 Y32.9079
G01 X78.4592 Y32.8542
G01 X78.3754 Y32.7920
G01 X78.2981 Y32.7220
G01 X78.2280 Y32.6446
G01 X78.1658 Y32.5608
G01 X78.1122 Y32.4713
G01 X78.0676 Y32.3770
G01 X78.0324 Y32.2787
G01 X78.0071 Y32.1775
G01 X77.9917 Y32.0743
G01 X77.9866 Y31.9700
G01 X77.9917 Y31.8658
