(G-CODE GENERATED BY FLATCAM v8.994 - www.flatcam.org - Version Date: 2020/11/7)

(Name: AT28C64B-circuit-third-sol-Edge_Cuts.gbr_cutout_cnc)
(Type: G-code from Geometry)
(Units: MM)

(Created on Sunday, 08 September 2024 at 14:57)

(This preprocessor is the default preprocessor used by FlatCAM.)
(It is made to work with MACH3 compatible motion controllers.)

(TOOL DIAMETER: 2.0 mm)
(Feedrate_XY: 60.0 mm/min)
(Feedrate_Z: 60.0 mm/min)
(Feedrate rapids 1500.0 mm/min)

(Z_Cut: -1.5 mm)
(Z_Move: 2.0 mm)
(Z Start: None mm)
(Z End: 15.0 mm)
(X,Y End: 0.0000, 0.0000 mm)
(Steps per circle: 64)
(Preprocessor Geometry: Default_no_M6)

(X range:   58.1500 ...  101.2000  mm)
(Y range:   -1.1000 ...   79.2000  mm)

(Spindle Speed: 10000.0 RPM)
G21
G90
G94

G01 F60.00

M5
G00 Z15.0000
G00 X0.0000 Y0.0000
T1
(MSG, Change to Tool Dia = 2.0000)
M0
G00 Z15.0000
        
M03 S10000.0
G01 F60.00
G00 X58.1500 Y-1.1000
G01 F60.00
G01 Z-1.5000
G01 F60.00
G01 X100.1000 Y-1.1000
G01 X100.2079 Y-1.0947
G01 X100.3146 Y-1.0789
G01 X100.4194 Y-1.0526
G01 X100.5210 Y-1.0163
G01 X100.6186 Y-0.9701
G01 X100.7112 Y-0.9146
G01 X100.7979 Y-0.8503
G01 X100.8779 Y-0.7778
G01 X100.9504 Y-0.6978
G01 X101.0147 Y-0.6111
G01 X101.0702 Y-0.5185
G01 X101.1163 Y-0.4210
G01 X101.1527 Y-0.3193
G01 X101.1789 Y-0.2146
G01 X101.1948 Y-0.1078
G01 X101.2000 Y0.0000
G01 X101.2000 Y36.1500
G00 Z2.0000
G00 X101.2000 Y42.1500
G01 F60.00
G01 Z-1.5000
G01 F60.00
G01 X101.2000 Y78.1000
G01 X101.1948 Y78.2079
G01 X101.1789 Y78.3146
G01 X101.1527 Y78.4194
G01 X101.1163 Y78.5210
G01 X101.0702 Y78.6186
G01 X101.0147 Y78.7112
G01 X100.9504 Y78.7979
G01 X100.8779 Y78.8779
G01 X100.7979 Y78.9504
G01 X100.7112 Y79.0147
G01 X100.6186 Y79.0702
G01 X100.5210 Y79.1163
G01 X100.4194 Y79.1527
G01 X100.3146 Y79.1789
G01 X100.2079 Y79.1948
G01 X100.1000 Y79.2000
G01 X58.1500 Y79.2000
G00 Z2.0000
M05
G00 Z2.0000
G00 Z15.00
G00 X0.0 Y0.0


