(G-CODE GENERATED BY FLATCAM v8.994 - www.flatcam.org - Version Date: 2020/11/7)

(Name: AT28C64B-circuit-third-sol.drl_cnc)
(Type: G-code from Geometry)
(Units: MM)

(Created on Sunday, 08 September 2024 at 13:53)

(This preprocessor is the default preprocessor used by FlatCAM.)
(It is made to work with MACH3 compatible motion controllers.)


(TOOLS DIAMETER: )
(Tool: 1 -> Dia: 1.0)
(Tool: 2 -> Dia: 1.0)
(Tool: 3 -> Dia: 1.0)
(Tool: 4 -> Dia: 1.0)

(FEEDRATE Z: )
(Tool: 1 -> Feedrate: 60.0)
(Tool: 2 -> Feedrate: 60.0)
(Tool: 3 -> Feedrate: 60.0)
(Tool: 4 -> Feedrate: 60.0)

(FEEDRATE RAPIDS: )
(Tool: 1 -> Feedrate Rapids: 1500)
(Tool: 2 -> Feedrate Rapids: 1500)
(Tool: 3 -> Feedrate Rapids: 1500)
(Tool: 4 -> Feedrate Rapids: 1500)

(Z_CUT: )
(Tool: 1 -> Z_Cut: -1.2)
(Tool: 2 -> Z_Cut: -1.2)
(Tool: 3 -> Z_Cut: -1.2)
(Tool: 4 -> Z_Cut: -1.2)

(Tools Offset: )
(Tool: 4 -> Offset Z: 0.0)

(Z_MOVE: )
(Tool: 1 -> Z_Move: 2.0)
(Tool: 2 -> Z_Move: 2.0)
(Tool: 3 -> Z_Move: 2.0)
(Tool: 4 -> Z_Move: 2.0)

(Z Toolchange: 15 mm)
(X,Y Toolchange: 0.0000, 0.0000 mm)
(Z Start: None mm)
(Z End: 5.0 mm)
(X,Y End: 0.0000, 0.0000 mm)
(Steps per circle: 64)
(Preprocessor Excellon: Default_no_M6)

(X range:   14.5500 ...   94.6700  mm)
(Y range:    1.2710 ...   72.5500  mm)

(Spindle Speed: 10000 RPM)
G21
G90
G94

G01 F60.00

M5
G00 Z15.0000
T1
G00 X0.0000 Y0.0000                
(MSG, Change to Tool Dia = 1.0000 ||| Total drills for tool T1 = 118)
M0
G00 Z15.0000
        
G01 F60.00
M03 S10000
G00 X92.8510 Y53.3240
G01 Z-1.2000
G01 Z0
G00 Z2.0000
G00 X92.6620 Y40.6890
G01 Z-1.2000
G01 Z0
G00 Z2.0000
G00 X92.6620 Y40.6890
G01 Z-1.2000
G01 Z0
G00 Z2.0000
G00 X90.0500 Y34.0900
G01 Z-1.2000
G01 Z0
G00 Z2.0000
G00 X90.0500 Y34.0900
G01 Z-1.2000
G01 Z0
G00 Z2.0000
G00 X90.0500 Y31.5500
G01 Z-1.2000
G01 Z0
G00 Z2.0000
G00 X90.0500 Y31.5500
G01 Z-1.2000
G01 Z0
G00 Z2.0000
G00 X86.7700 Y29.6000
G01 Z-1.2000
G01 Z0
G00 Z2.0000
G00 X86.7700 Y29.6000
G01 Z-1.2000
G01 Z0
G00 Z2.0000
G00 X90.0500 Y29.0100
G01 Z-1.2000
G01 Z0
G00 Z2.0000
G00 X90.0500 Y29.0100
G01 Z-1.2000
G01 Z0
G00 Z2.0000
G00 X90.0500 Y26.4700
G01 Z-1.2000
G01 Z0
G00 Z2.0000
G00 X90.0500 Y26.4700
G01 Z-1.2000
G01 Z0
G00 Z2.0000
G00 X90.0500 Y23.9300
G01 Z-1.2000
G01 Z0
G00 Z2.0000
G00 X90.0500 Y23.9300
G01 Z-1.2000
G01 Z0
G00 Z2.0000
G00 X90.0500 Y21.3900
G01 Z-1.2000
G01 Z0
G00 Z2.0000
G00 X90.0500 Y21.3900
G01 Z-1.2000
G01 Z0
G00 Z2.0000
G00 X90.0500 Y18.8500
G01 Z-1.2000
G01 Z0
G00 Z2.0000
G00 X90.0500 Y18.8500
G01 Z-1.2000
G01 Z0
G00 Z2.0000
G00 X90.0500 Y16.3100
G01 Z-1.2000
G01 Z0
G00 Z2.0000
G00 X90.0500 Y16.3100
G01 Z-1.2000
G01 Z0
G00 Z2.0000
G00 X82.4300 Y16.3100
G01 Z-1.2000
G01 Z0
G00 Z2.0000
G00 X82.4300 Y16.3100
G01 Z-1.2000
G01 Z0
G00 Z2.0000
G00 X82.4300 Y18.8500
G01 Z-1.2000
G01 Z0
G00 Z2.0000
G00 X82.4300 Y18.8500
G01 Z-1.2000
G01 Z0
G00 Z2.0000
G00 X82.4300 Y21.3900
G01 Z-1.2000
G01 Z0
G00 Z2.0000
G00 X82.4300 Y21.3900
G01 Z-1.2000
G01 Z0
G00 Z2.0000
G00 X82.4300 Y23.9300
G01 Z-1.2000
G01 Z0
G00 Z2.0000
G00 X82.4300 Y23.9300
G01 Z-1.2000
G01 Z0
G00 Z2.0000
G00 X82.4300 Y26.4700
G01 Z-1.2000
G01 Z0
G00 Z2.0000
G00 X82.4300 Y26.4700
G01 Z-1.2000
G01 Z0
G00 Z2.0000
G00 X82.4300 Y29.0100
G01 Z-1.2000
G01 Z0
G00 Z2.0000
G00 X82.4300 Y29.0100
G01 Z-1.2000
G01 Z0
G00 Z2.0000
G00 X82.4300 Y31.5500
G01 Z-1.2000
G01 Z0
G00 Z2.0000
G00 X82.4300 Y31.5500
G01 Z-1.2000
G01 Z0
G00 Z2.0000
G00 X82.4300 Y34.0900
G01 Z-1.2000
G01 Z0
G00 Z2.0000
G00 X82.4300 Y34.0900
G01 Z-1.2000
G01 Z0
G00 Z2.0000
G00 X67.4430 Y26.3780
G01 Z-1.2000
G01 Z0
G00 Z2.0000
G00 X67.4430 Y26.3780
G01 Z-1.2000
G01 Z0
G00 Z2.0000
G00 X64.0500 Y28.0100
G01 Z-1.2000
G01 Z0
G00 Z2.0000
G00 X64.0500 Y28.0100
G01 Z-1.2000
G01 Z0
G00 Z2.0000
G00 X64.0500 Y25.4700
G01 Z-1.2000
G01 Z0
G00 Z2.0000
G00 X64.0500 Y25.4700
G01 Z-1.2000
G01 Z0
G00 Z2.0000
G00 X64.0500 Y22.9300
G01 Z-1.2000
G01 Z0
G00 Z2.0000
G00 X64.0500 Y22.9300
G01 Z-1.2000
G01 Z0
G00 Z2.0000
G00 X64.0500 Y20.3900
G01 Z-1.2000
G01 Z0
G00 Z2.0000
G00 X64.0500 Y20.3900
G01 Z-1.2000
G01 Z0
G00 Z2.0000
G00 X64.0500 Y17.8500
G01 Z-1.2000
G01 Z0
G00 Z2.0000
G00 X64.0500 Y17.8500
G01 Z-1.2000
G01 Z0
G00 Z2.0000
G00 X64.0500 Y15.3100
G01 Z-1.2000
G01 Z0
G00 Z2.0000
G00 X64.0500 Y15.3100
G01 Z-1.2000
G01 Z0
G00 Z2.0000
G00 X64.0500 Y12.7700
G01 Z-1.2000
G01 Z0
G00 Z2.0000
G00 X64.0500 Y12.7700
G01 Z-1.2000
G01 Z0
G00 Z2.0000
G00 X64.0500 Y10.2300
G01 Z-1.2000
G01 Z0
G00 Z2.0000
G00 X64.0500 Y10.2300
G01 Z-1.2000
G01 Z0
G00 Z2.0000
G00 X64.0500 Y7.6900
G01 Z-1.2000
G01 Z0
G00 Z2.0000
G00 X64.0500 Y7.6900
G01 Z-1.2000
G01 Z0
G00 Z2.0000
G00 X61.7500 Y1.7710
G01 Z-1.2000
G01 Z0
G00 Z2.0000
G00 X61.7500 Y1.7710
G01 Z-1.2000
G01 Z0
G00 Z2.0000
G00 X52.5740 Y4.0470
G01 Z-1.2000
G01 Z0
G00 Z2.0000
G00 X52.5740 Y4.0470
G01 Z-1.2000
G01 Z0
G00 Z2.0000
G00 X51.8480 Y6.4960
G01 Z-1.2000
G01 Z0
G00 Z2.0000
G00 X51.8480 Y6.4960
G01 Z-1.2000
G01 Z0
G00 Z2.0000
G00 X41.3920 Y2.4400
G01 Z-1.2000
G01 Z0
G00 Z2.0000
G00 X41.3920 Y2.4400
G01 Z-1.2000
G01 Z0
G00 Z2.0000
G00 X48.8100 Y7.6900
G01 Z-1.2000
G01 Z0
G00 Z2.0000
G00 X48.8100 Y7.6900
G01 Z-1.2000
G01 Z0
G00 Z2.0000
G00 X48.8100 Y10.2300
G01 Z-1.2000
G01 Z0
G00 Z2.0000
G00 X48.8100 Y10.2300
G01 Z-1.2000
G01 Z0
G00 Z2.0000
G00 X48.8100 Y12.7700
G01 Z-1.2000
G01 Z0
G00 Z2.0000
G00 X48.8100 Y12.7700
G01 Z-1.2000
G01 Z0
G00 Z2.0000
G00 X48.8100 Y15.3100
G01 Z-1.2000
G01 Z0
G00 Z2.0000
G00 X48.8100 Y15.3100
G01 Z-1.2000
G01 Z0
G00 Z2.0000
G00 X48.8100 Y17.8500
G01 Z-1.2000
G01 Z0
G00 Z2.0000
G00 X48.8100 Y17.8500
G01 Z-1.2000
G01 Z0
G00 Z2.0000
G00 X48.8100 Y20.3900
G01 Z-1.2000
G01 Z0
G00 Z2.0000
G00 X48.8100 Y20.3900
G01 Z-1.2000
G01 Z0
G00 Z2.0000
G00 X48.8100 Y22.9300
G01 Z-1.2000
G01 Z0
G00 Z2.0000
G00 X48.8100 Y22.9300
G01 Z-1.2000
G01 Z0
G00 Z2.0000
G00 X48.8100 Y25.4700
G01 Z-1.2000
G01 Z0
G00 Z2.0000
G00 X48.8100 Y25.4700
G01 Z-1.2000
G01 Z0
G00 Z2.0000
G00 X48.8100 Y28.0100
G01 Z-1.2000
G01 Z0
G00 Z2.0000
G00 X48.8100 Y28.0100
G01 Z-1.2000
G01 Z0
G00 Z2.0000
G00 X48.8100 Y30.5500
G01 Z-1.2000
G01 Z0
G00 Z2.0000
G00 X48.8100 Y30.5500
G01 Z-1.2000
G01 Z0
G00 Z2.0000
G00 X48.8100 Y33.0900
G01 Z-1.2000
G01 Z0
G00 Z2.0000
G00 X48.8100 Y33.0900
G01 Z-1.2000
G01 Z0
G00 Z2.0000
G00 X44.8950 Y31.3880
G01 Z-1.2000
G01 Z0
G00 Z2.0000
G00 X44.8950 Y31.3880
G01 Z-1.2000
G01 Z0
G00 Z2.0000
G00 X31.0500 Y29.4300
G01 Z-1.2000
G01 Z0
G00 Z2.0000
G00 X31.0500 Y29.4300
G01 Z-1.2000
G01 Z0
G00 Z2.0000
G00 X31.0500 Y26.8900
G01 Z-1.2000
G01 Z0
G00 Z2.0000
G00 X31.0500 Y26.8900
G01 Z-1.2000
G01 Z0
G00 Z2.0000
G00 X31.0500 Y24.3500
G01 Z-1.2000
G01 Z0
G00 Z2.0000
G00 X31.0500 Y24.3500
G01 Z-1.2000
G01 Z0
G00 Z2.0000
G00 X31.0500 Y21.8100
G01 Z-1.2000
G01 Z0
G00 Z2.0000
G00 X31.0500 Y21.8100
G01 Z-1.2000
G01 Z0
G00 Z2.0000
G00 X31.0500 Y19.2700
G01 Z-1.2000
G01 Z0
G00 Z2.0000
G00 X31.0500 Y19.2700
G01 Z-1.2000
G01 Z0
G00 Z2.0000
G00 X31.0500 Y16.7300
G01 Z-1.2000
G01 Z0
G00 Z2.0000
G00 X31.0500 Y16.7300
G01 Z-1.2000
G01 Z0
G00 Z2.0000
G00 X33.9540 Y16.2480
G01 Z-1.2000
G01 Z0
G00 Z2.0000
G00 X33.9540 Y16.2480
G01 Z-1.2000
G01 Z0
G00 Z2.0000
G00 X36.7210 Y16.6370
G01 Z-1.2000
G01 Z0
G00 Z2.0000
G00 X36.7210 Y16.6370
G01 Z-1.2000
G01 Z0
G00 Z2.0000
G00 X34.0920 Y13.9370
G01 Z-1.2000
G01 Z0
G00 Z2.0000
G00 X34.0920 Y13.9370
G01 Z-1.2000
G01 Z0
G00 Z2.0000
G00 X34.0150 Y11.6210
G01 Z-1.2000
G01 Z0
G00 Z2.0000
G00 X34.0150 Y11.6210
G01 Z-1.2000
G01 Z0
G00 Z2.0000
G00 X31.0500 Y11.6500
G01 Z-1.2000
G01 Z0
G00 Z2.0000
G00 X31.0500 Y11.6500
G01 Z-1.2000
G01 Z0
G00 Z2.0000
G00 X31.0500 Y14.1900
G01 Z-1.2000
G01 Z0
G00 Z2.0000
G00 X31.0500 Y14.1900
G01 Z-1.2000
G01 Z0
G00 Z2.0000
G00 X15.8100 Y11.6500
G01 Z-1.2000
G01 Z0
G00 Z2.0000
G00 X15.8100 Y11.6500
G01 Z-1.2000
G01 Z0
G00 Z2.0000
G00 X15.8100 Y14.1900
G01 Z-1.2000
G01 Z0
G00 Z2.0000
G00 X15.8100 Y14.1900
G01 Z-1.2000
G01 Z0
G00 Z2.0000
G00 X15.8100 Y16.7300
G01 Z-1.2000
G01 Z0
G00 Z2.0000
G00 X15.8100 Y16.7300
G01 Z-1.2000
G01 Z0
G00 Z2.0000
G00 X15.8100 Y19.2700
G01 Z-1.2000
G01 Z0
G00 Z2.0000
G00 X15.8100 Y19.2700
G01 Z-1.2000
G01 Z0
G00 Z2.0000
G00 X15.8100 Y21.8100
G01 Z-1.2000
G01 Z0
G00 Z2.0000
G00 X15.8100 Y21.8100
G01 Z-1.2000
G01 Z0
G00 Z2.0000
G00 X15.8100 Y24.3500
G01 Z-1.2000
G01 Z0
G00 Z2.0000
G00 X15.8100 Y24.3500
G01 Z-1.2000
G01 Z0
G00 Z2.0000
G00 X15.8100 Y26.8900
G01 Z-1.2000
G01 Z0
G00 Z2.0000
G00 X15.8100 Y26.8900
G01 Z-1.2000
G01 Z0
G00 Z2.0000
G00 X15.8100 Y29.4300
G01 Z-1.2000
G01 Z0
G00 Z2.0000
G00 X15.8100 Y29.4300
G01 Z-1.2000
G01 Z0
G00 Z2.0000
G00 X15.8100 Y31.9700
G01 Z-1.2000
G01 Z0
G00 Z2.0000
G00 X15.8100 Y31.9700
G01 Z-1.2000
G01 Z0
G00 Z2.0000
G00 X15.8100 Y34.5100
G01 Z-1.2000
G01 Z0
G00 Z2.0000
G00 X15.8100 Y34.5100
G01 Z-1.2000
G01 Z0
G00 Z2.0000
G00 X15.8100 Y37.0500
G01 Z-1.2000
G01 Z0
G00 Z2.0000
G00 X15.8100 Y37.0500
G01 Z-1.2000
G01 Z0
G00 Z2.0000
G00 X15.8100 Y39.5900
G01 Z-1.2000
G01 Z0
G00 Z2.0000
G00 X15.8100 Y39.5900
G01 Z-1.2000
G01 Z0
G00 Z2.0000
G00 X15.8100 Y42.1300
G01 Z-1.2000
G01 Z0
G00 Z2.0000
G00 X15.8100 Y42.1300
G01 Z-1.2000
G01 Z0
G00 Z2.0000
G00 X15.8100 Y44.6700
G01 Z-1.2000
G01 Z0
G00 Z2.0000
G00 X15.8100 Y44.6700
G01 Z-1.2000
G01 Z0
G00 Z2.0000
G00 X15.8100 Y47.2100
G01 Z-1.2000
G01 Z0
G00 Z2.0000
G00 X15.8100 Y47.2100
G01 Z-1.2000
G01 Z0
G00 Z2.0000
G00 X15.2850 Y61.0500
G01 Z-1.2000
G01 Z0
G00 Z2.0000
G00 X15.2850 Y61.0500
G01 Z-1.2000
G01 Z0
G00 Z2.0000
G00 X17.8250 Y61.0500
G01 Z-1.2000
G01 Z0
G00 Z2.0000
G00 X17.8250 Y61.0500
G01 Z-1.2000
G01 Z0
G00 Z2.0000
G00 X21.9700 Y61.0000
G01 Z-1.2000
G01 Z0
G00 Z2.0000
G00 X21.9700 Y61.0000
G01 Z-1.2000
G01 Z0
G00 Z2.0000
G00 X21.9700 Y66.5500
G01 Z-1.2000
G01 Z0
G00 Z2.0000
G00 X21.9700 Y66.5500
G01 Z-1.2000
G01 Z0
G00 Z2.0000
G00 X18.0900 Y66.5500
G01 Z-1.2000
G01 Z0
G00 Z2.0000
G00 X18.0900 Y66.5500
G01 Z-1.2000
G01 Z0
G00 Z2.0000
G00 X15.5500 Y66.5500
G01 Z-1.2000
G01 Z0
G00 Z2.0000
G00 X15.5500 Y66.5500
G01 Z-1.2000
G01 Z0
G00 Z2.0000
G00 X15.0500 Y72.0500
G01 Z-1.2000
G01 Z0
G00 Z2.0000
G00 X15.0500 Y72.0500
G01 Z-1.2000
G01 Z0
G00 Z2.0000
G00 X17.5900 Y72.0500
G01 Z-1.2000
G01 Z0
G00 Z2.0000
G00 X17.5900 Y72.0500
G01 Z-1.2000
G01 Z0
G00 Z2.0000
G00 X21.9700 Y72.0500
G01 Z-1.2000
G01 Z0
G00 Z2.0000
G00 X21.9700 Y72.0500
G01 Z-1.2000
G01 Z0
G00 Z2.0000
G00 X32.1300 Y72.0500
G01 Z-1.2000
G01 Z0
G00 Z2.0000
G00 X32.1300 Y72.0500
G01 Z-1.2000
G01 Z0
G00 Z2.0000
G00 X32.1300 Y66.5500
G01 Z-1.2000
G01 Z0
G00 Z2.0000
G00 X32.1300 Y66.5500
G01 Z-1.2000
G01 Z0
G00 Z2.0000
G00 X32.1300 Y61.0000
G01 Z-1.2000
G01 Z0
G00 Z2.0000
G00 X32.1300 Y61.0000
G01 Z-1.2000
G01 Z0
G00 Z2.0000
G00 X41.1450 Y66.8700
G01 Z-1.2000
G01 Z0
G00 Z2.0000
G00 X41.1450 Y66.8700
G01 Z-1.2000
G01 Z0
G00 Z2.0000
G00 X43.6850 Y66.8700
G01 Z-1.2000
G01 Z0
G00 Z2.0000
G00 X43.6850 Y66.8700
G01 Z-1.2000
G01 Z0
G00 Z2.0000
G00 X45.4310 Y64.1590
G01 Z-1.2000
G01 Z0
G00 Z2.0000
G00 X45.4310 Y64.1590
G01 Z-1.2000
G01 Z0
G00 Z2.0000
G00 X46.2250 Y66.8700
G01 Z-1.2000
G01 Z0
G00 Z2.0000
G00 X46.2250 Y66.8700
G01 Z-1.2000
G01 Z0
G00 Z2.0000
G00 X48.7650 Y66.8700
G01 Z-1.2000
G01 Z0
G00 Z2.0000
G00 X48.7650 Y66.8700
G01 Z-1.2000
G01 Z0
G00 Z2.0000
G00 X51.3050 Y66.8700
G01 Z-1.2000
G01 Z0
G00 Z2.0000
G00 X51.3050 Y66.8700
G01 Z-1.2000
G01 Z0
G00 Z2.0000
G00 X53.8450 Y66.8700
G01 Z-1.2000
G01 Z0
G00 Z2.0000
G00 X53.8450 Y66.8700
G01 Z-1.2000
G01 Z0
G00 Z2.0000
G00 X56.3850 Y66.8700
G01 Z-1.2000
G01 Z0
G00 Z2.0000
G00 X58.9250 Y66.8700
G01 Z-1.2000
G01 Z0
G00 Z2.0000
G00 X58.9250 Y66.8700
G01 Z-1.2000
G01 Z0
G00 Z2.0000
G00 X56.3850 Y66.8700
G01 Z-1.2000
G01 Z0
G00 Z2.0000
G00 X53.8450 Y62.6810
G01 Z-1.2000
G01 Z0
G00 Z2.0000
G00 X53.8450 Y62.6810
G01 Z-1.2000
G01 Z0
G00 Z2.0000
G00 X56.3850 Y59.2500
G01 Z-1.2000
G01 Z0
G00 Z2.0000
G00 X56.3850 Y59.2500
G01 Z-1.2000
G01 Z0
G00 Z2.0000
G00 X58.9250 Y59.2500
G01 Z-1.2000
G01 Z0
G00 Z2.0000
G00 X58.9250 Y59.2500
G01 Z-1.2000
G01 Z0
G00 Z2.0000
G00 X58.3090 Y56.3390
G01 Z-1.2000
G01 Z0
G00 Z2.0000
G00 X58.3090 Y56.3390
G01 Z-1.2000
G01 Z0
G00 Z2.0000
G00 X54.9080 Y55.5680
G01 Z-1.2000
G01 Z0
G00 Z2.0000
G00 X54.9080 Y55.5680
G01 Z-1.2000
G01 Z0
G00 Z2.0000
G00 X53.8450 Y59.2500
G01 Z-1.2000
G01 Z0
G00 Z2.0000
G00 X53.8450 Y59.2500
G01 Z-1.2000
G01 Z0
G00 Z2.0000
G00 X51.3050 Y59.2500
G01 Z-1.2000
G01 Z0
G00 Z2.0000
G00 X51.3050 Y59.2500
G01 Z-1.2000
G01 Z0
G00 Z2.0000
G00 X48.7650 Y59.2500
G01 Z-1.2000
G01 Z0
G00 Z2.0000
G00 X48.7650 Y59.2500
G01 Z-1.2000
G01 Z0
G00 Z2.0000
G00 X46.2250 Y59.2500
G01 Z-1.2000
G01 Z0
G00 Z2.0000
G00 X46.2250 Y59.2500
G01 Z-1.2000
G01 Z0
G00 Z2.0000
G00 X43.6850 Y59.2500
G01 Z-1.2000
G01 Z0
G00 Z2.0000
G00 X43.6850 Y59.2500
G01 Z-1.2000
G01 Z0
G00 Z2.0000
G00 X41.1450 Y59.2500
G01 Z-1.2000
G01 Z0
G00 Z2.0000
G00 X41.1450 Y59.2500
G01 Z-1.2000
G01 Z0
G00 Z2.0000
G00 X31.0500 Y47.2100
G01 Z-1.2000
G01 Z0
G00 Z2.0000
G00 X31.0500 Y47.2100
G01 Z-1.2000
G01 Z0
G00 Z2.0000
G00 X31.0500 Y44.6700
G01 Z-1.2000
G01 Z0
G00 Z2.0000
G00 X31.0500 Y44.6700
G01 Z-1.2000
G01 Z0
G00 Z2.0000
G00 X31.0500 Y42.1300
G01 Z-1.2000
G01 Z0
G00 Z2.0000
G00 X31.0500 Y42.1300
G01 Z-1.2000
G01 Z0
G00 Z2.0000
G00 X31.0500 Y39.5900
G01 Z-1.2000
G01 Z0
G00 Z2.0000
G00 X31.0500 Y39.5900
G01 Z-1.2000
G01 Z0
G00 Z2.0000
G00 X31.0500 Y37.0500
G01 Z-1.2000
G01 Z0
G00 Z2.0000
G00 X31.0500 Y37.0500
G01 Z-1.2000
G01 Z0
G00 Z2.0000
G00 X31.0500 Y34.5100
G01 Z-1.2000
G01 Z0
G00 Z2.0000
G00 X31.0500 Y34.5100
G01 Z-1.2000
G01 Z0
G00 Z2.0000
G00 X31.0500 Y31.9700
G01 Z-1.2000
G01 Z0
G00 Z2.0000
G00 X31.0500 Y31.9700
G01 Z-1.2000
G01 Z0
G00 Z2.0000
G00 X45.0840 Y34.6870
G01 Z-1.2000
G01 Z0
G00 Z2.0000
G00 X45.0840 Y34.6870
G01 Z-1.2000
G01 Z0
G00 Z2.0000
G00 X48.8100 Y35.6300
G01 Z-1.2000
G01 Z0
G00 Z2.0000
G00 X48.8100 Y35.6300
G01 Z-1.2000
G01 Z0
G00 Z2.0000
G00 X48.8100 Y38.1700
G01 Z-1.2000
G01 Z0
G00 Z2.0000
G00 X48.8100 Y38.1700
G01 Z-1.2000
G01 Z0
G00 Z2.0000
G00 X48.8100 Y40.7100
G01 Z-1.2000
G01 Z0
G00 Z2.0000
G00 X48.8100 Y40.7100
G01 Z-1.2000
G01 Z0
G00 Z2.0000
G00 X64.0500 Y30.5500
G01 Z-1.2000
G01 Z0
G00 Z2.0000
G00 X64.0500 Y30.5500
G01 Z-1.2000
G01 Z0
G00 Z2.0000
G00 X64.0500 Y33.0900
G01 Z-1.2000
G01 Z0
G00 Z2.0000
G00 X64.0500 Y33.0900
G01 Z-1.2000
G01 Z0
G00 Z2.0000
G00 X64.0500 Y35.6300
G01 Z-1.2000
G01 Z0
G00 Z2.0000
G00 X64.0500 Y35.6300
G01 Z-1.2000
G01 Z0
G00 Z2.0000
G00 X64.0500 Y38.1700
G01 Z-1.2000
G01 Z0
G00 Z2.0000
G00 X64.0500 Y38.1700
G01 Z-1.2000
G01 Z0
G00 Z2.0000
G00 X64.0500 Y40.7100
G01 Z-1.2000
G01 Z0
G00 Z2.0000
G00 X64.0500 Y40.7100
G01 Z-1.2000
G01 Z0
G00 Z2.0000
G00 X66.8620 Y41.8350
G01 Z-1.2000
G01 Z0
G00 Z2.0000
G00 X66.8620 Y41.8350
G01 Z-1.2000
G01 Z0
G00 Z2.0000
G00 X78.8800 Y44.3650
G01 Z-1.2000
G01 Z0
G00 Z2.0000
G00 X78.8800 Y44.3650
G01 Z-1.2000
G01 Z0
G00 Z2.0000
G00 X77.0220 Y50.8910
G01 Z-1.2000
G01 Z0
G00 Z2.0000
G00 X77.0220 Y50.8910
G01 Z-1.2000
G01 Z0
G00 Z2.0000
G00 X74.7300 Y55.8360
G01 Z-1.2000
G01 Z0
G00 Z2.0000
G00 X74.7300 Y55.8360
G01 Z-1.2000
G01 Z0
G00 Z2.0000
G00 X76.3900 Y59.0500
G01 Z-1.2000
G01 Z0
G00 Z2.0000
G00 X76.3900 Y59.0500
G01 Z-1.2000
G01 Z0
G00 Z2.0000
G00 X78.9300 Y59.0500
G01 Z-1.2000
G01 Z0
G00 Z2.0000
G00 X78.9300 Y59.0500
G01 Z-1.2000
G01 Z0
G00 Z2.0000
G00 X80.7960 Y62.9690
G01 Z-1.2000
G01 Z0
G00 Z2.0000
G00 X80.7960 Y62.9690
G01 Z-1.2000
G01 Z0
G00 Z2.0000
G00 X76.3900 Y66.6700
G01 Z-1.2000
G01 Z0
G00 Z2.0000
G00 X76.3900 Y66.6700
G01 Z-1.2000
G01 Z0
G00 Z2.0000
G00 X78.9300 Y66.6700
G01 Z-1.2000
G01 Z0
G00 Z2.0000
G00 X78.9300 Y66.6700
G01 Z-1.2000
G01 Z0
G00 Z2.0000
G00 X81.4700 Y66.6700
G01 Z-1.2000
G01 Z0
G00 Z2.0000
G00 X81.4700 Y66.6700
G01 Z-1.2000
G01 Z0
G00 Z2.0000
G00 X84.0100 Y66.6700
G01 Z-1.2000
G01 Z0
G00 Z2.0000
G00 X84.0100 Y66.6700
G01 Z-1.2000
G01 Z0
G00 Z2.0000
G00 X86.5500 Y66.6700
G01 Z-1.2000
G01 Z0
G00 Z2.0000
G00 X86.5500 Y66.6700
G01 Z-1.2000
G01 Z0
G00 Z2.0000
G00 X89.0900 Y66.6700
G01 Z-1.2000
G01 Z0
G00 Z2.0000
G00 X89.0900 Y66.6700
G01 Z-1.2000
G01 Z0
G00 Z2.0000
G00 X91.6300 Y66.6700
G01 Z-1.2000
G01 Z0
G00 Z2.0000
G00 X91.6300 Y66.6700
G01 Z-1.2000
G01 Z0
G00 Z2.0000
G00 X94.1700 Y66.6700
G01 Z-1.2000
G01 Z0
G00 Z2.0000
G00 X94.1700 Y66.6700
G01 Z-1.2000
G01 Z0
G00 Z2.0000
G00 X94.1700 Y59.0500
G01 Z-1.2000
G01 Z0
G00 Z2.0000
G00 X94.1700 Y59.0500
G01 Z-1.2000
G01 Z0
G00 Z2.0000
G00 X91.6300 Y59.0500
G01 Z-1.2000
G01 Z0
G00 Z2.0000
G00 X91.6300 Y59.0500
G01 Z-1.2000
G01 Z0
G00 Z2.0000
G00 X89.0900 Y59.0500
G01 Z-1.2000
G01 Z0
G00 Z2.0000
G00 X89.0900 Y59.0500
G01 Z-1.2000
G01 Z0
G00 Z2.0000
G00 X86.5500 Y59.0500
G01 Z-1.2000
G01 Z0
G00 Z2.0000
G00 X86.5500 Y59.0500
G01 Z-1.2000
G01 Z0
G00 Z2.0000
G00 X84.0100 Y59.0500
G01 Z-1.2000
G01 Z0
G00 Z2.0000
G00 X84.0100 Y59.0500
G01 Z-1.2000
G01 Z0
G00 Z2.0000
G00 X81.4700 Y59.0500
G01 Z-1.2000
G01 Z0
G00 Z2.0000
G00 X81.4700 Y59.0500
G01 Z-1.2000
G01 Z0
G00 Z2.0000
G00 X80.9890 Y56.0800
G01 Z-1.2000
G01 Z0
G00 Z2.0000
G00 X80.9890 Y56.0800
G01 Z-1.2000
G01 Z0
G00 Z2.0000
G00 X92.1290 Y55.9060
G01 Z-1.2000
G01 Z0
G00 Z2.0000
G00 X92.1290 Y55.9060
G01 Z-1.2000
G01 Z0
G00 Z2.0000
G00 X92.8510 Y53.3240
G01 Z-1.2000
G01 Z0
G00 Z2.0000
M05
G00 Z5.00
G00 X0.0 Y0.0


